[test_tenon_t1]
[Machine]
[  vendor: NL]
[  model: Generic WinCNC]
[T1 D=0.5 CR=0. - ZMIN=0. - flat end mill]
G90
G20
G94
G49
[When using Fusion for Personal Use, the feedrate of rapid]
[moves is reduced to match the feedrate of cutting moves,]
[which can increase machining time. Unrestricted rapid moves]
[are available with a Fusion Subscription.]
G53
[Shoulders]
M0
[MANUAL TOOL CHANGE TO T1]
S10000 M3
G90
G94
G54
M37 H1
G0 X2.8016 Y3.5707
G43 Z2.12
G1 Z1.12 F30
Z0.1
Z0.05
X2.8015 Y3.5704 Z0.0444 F30
X2.8012 Y3.5695 Z0.0389
X2.8009 Y3.568 Z0.0335
X2.8003 Y3.5659 Z0.0283
X2.7997 Y3.5633 Z0.0234
X2.7988 Y3.5601 Z0.0188
X2.7979 Y3.5565 Z0.0146
X2.7969 Y3.5525 Z0.0109
X2.7957 Y3.548 Z0.0077
X2.7945 Y3.5433 Z0.005
X2.7932 Y3.5382 Z0.0028
X2.7919 Y3.533 Z0.0013
X2.7905 Y3.5277 Z0.0003
X2.7891 Y3.5223 Z0.
G3 X2.75 Y3.2501 I1.2366 J-0.3167
G1 Y3.1902
X2.7503 Y3.1842
X2.7706 Y3.1371
X2.7871 Y3.0885
X2.8003 Y3.039
X2.8108 Y2.9888
X2.8191 Y2.9382
X2.8257 Y2.8874
X2.8309 Y2.8364
X2.835 Y2.7853
X2.8382 Y2.7341
X2.8406 Y2.6829
X2.8426 Y2.6316
X2.8441 Y2.5804
X2.8453 Y2.5291
X2.8462 Y2.4779
X2.8469 Y2.4266
X2.8474 Y2.3753
X2.8479 Y2.3241
X2.8482 Y2.2728
X2.8485 Y2.2215
X2.8487 Y2.1703
X2.8489 Y2.0677
X2.8491 Y1.9139
X2.8493 Y1.7088
Y1.1961
X2.8492 Y0.2219
X2.8458 Y0.1708
X2.8255 Y0.1237
X2.7948 Y0.0826
X2.7572 Y0.0477
X2.715 Y0.0186
X2.6697 Y-0.0053
X2.6223 Y-0.0248
X2.5735 Y-0.0406
X2.5238 Y-0.0532
X2.4735 Y-0.0632
X2.4228 Y-0.0712
X2.3719 Y-0.0775
X2.3209 Y-0.0824
X2.3036 Y-0.0837
X2.2846 Y-0.0866
X2.2662 Y-0.0922
X2.2488 Y-0.1005
X2.2329 Y-0.1113
X2.2187 Y-0.1243
X2.2066 Y-0.1393
X2.2046 Y-0.1427 Z0.0004
X2.2029 Y-0.1462 Z0.0008
G2 X2.1721 Y-0.2098 Z0.008 I-0.8617 J0.3783
X2.0756 Y-0.3563 I-0.8309 J0.4419
X2.0404 Y-0.3749 I-0.039 J0.0313
G1 X0.7426 Y-0.4743
G2 X0.705 Y-0.4613 I-0.0038 J0.0499
X0.5644 Y-0.2992 I0.6362 J0.6935
X0.5472 Y-0.273 Z0.0048 I0.7768 J0.5313
G3 X0.508 Y-0.25 Z0. I-0.0422 J-0.0268
G1 X0.4944 Y-0.2496
X0.4795 Y-0.2485
X0.4645 Y-0.2472
X0.4346 Y-0.2412
X0.4257 Y-0.2381
X0.4047 Y-0.2308
X0.3897 Y-0.2243
X0.3875 Y-0.2231
X0.3748 Y-0.2161
X0.3628 Y-0.2082
X0.3478 Y-0.1985
X0.3297 Y-0.1884
X0.3068 Y-0.1775
X0.2778 Y-0.1658
X0.2402 Y-0.1535
X0.1906 Y-0.1407
X0.1415 Y-0.1257
X0.0981 Y-0.0984
X0.0609 Y-0.0632
X0.0296 Y-0.0225
X0.0038 Y0.0218
X-0.0173 Y0.0685
X-0.0344 Y0.1168
X-0.0482 Y0.1662
X-0.0592 Y0.2163
X-0.0679 Y0.2668
X-0.0748 Y0.3176
X-0.0802 Y0.3686
X-0.0845 Y0.4197
X-0.0878 Y0.4709
X-0.0904 Y0.5221
X-0.0925 Y0.5733
X-0.0941 Y0.6246
X-0.0953 Y0.6758
X-0.0963 Y0.7271
X-0.097 Y0.7783
X-0.0976 Y0.8296
X-0.0981 Y0.8809
X-0.0985 Y0.9321
X-0.0988 Y0.9834
X-0.099 Y1.0347
X-0.0993 Y1.1372
X-0.0995 Y1.2398
X-0.0997 Y1.3936
X-0.0998 Y1.5474
X-0.0999 Y1.6984
X-0.101 Y1.7156
X-0.1044 Y1.7324
X-0.11 Y1.7487
X-0.1177 Y1.7641
X-0.1274 Y1.7783
X-0.1389 Y1.7912
X-0.1519 Y1.8024
G3 X-0.181 Y1.8113 I-0.0285 J-0.041
G1 X-0.1866 Y1.8112 Z0.0003
X-0.1922 Z0.0013
X-0.1975 Y1.8111 Z0.0028
X-0.2027 Z0.005
X-0.2076 Y1.811 Z0.0077
X-0.2122 Z0.0109
X-0.2164 Y1.8109 Z0.0146
X-0.2201 Z0.0188
X-0.2234 Y1.8108 Z0.0234
X-0.2261 Z0.0283
X-0.2282 Z0.0335
X-0.2298 Z0.0389
X-0.2307 Z0.0444
X-0.231 Z0.05
Z1.12
X0.4017 Y-0.2784
Z0.1
Z0.05
X0.4016 Y-0.2781 Z0.0444
X0.4012 Y-0.2773 Z0.0389
X0.4006 Y-0.2758 Z0.0335
X0.3998 Y-0.2739 Z0.0283
X0.3987 Y-0.2714 Z0.0234
X0.3974 Y-0.2684 Z0.0188
X0.3959 Y-0.265 Z0.0146
X0.3942 Y-0.2611 Z0.0109
X0.3924 Y-0.257 Z0.0077
X0.3904 Y-0.2525 Z0.005
X0.3884 Y-0.2477 Z0.0028
X0.3862 Y-0.2428 Z0.0013
X0.384 Y-0.2377 Z0.0003
X0.3818 Y-0.2326 Z0.
G3 X0.3628 Y-0.2082 I-0.0571 J-0.0249
G1 X0.3419 Y-0.1932
X0.3299 Y-0.1832
X0.3248 Y-0.1782
X0.3149 Y-0.168
X0.3107 Y-0.1633
X0.2996 Y-0.1483
X0.285 Y-0.1272
X0.2842 Y-0.1257
X0.2573 Y-0.082
X0.229 Y-0.0393
X0.2031 Y0.0049
X0.1798 Y0.0506
X0.1594 Y0.0976
X0.1415 Y0.1457
X0.1262 Y0.1947
X0.1132 Y0.2442
X0.1022 Y0.2943
X0.0929 Y0.3447
X0.0852 Y0.3954
X0.0788 Y0.4463
X0.0735 Y0.4973
X0.0691 Y0.5484
X0.0655 Y0.5995
X0.0626 Y0.6507
X0.0602 Y0.7019
X0.0583 Y0.7532
X0.0567 Y0.8044
X0.0555 Y0.8557
X0.0544 Y0.9069
X0.0536 Y0.9582
X0.0529 Y1.0095
X0.0524 Y1.0607
X0.0519 Y1.112
X0.0516 Y1.1633
X0.0513 Y1.2145
X0.0511 Y1.2658
X0.0507 Y1.3684
X0.0505 Y1.4709
X0.0504 Y1.5222
X0.0495 Y1.5734
X0.0465 Y1.6164
X0.042 Y1.6506
X0.0405 Y1.6579
X0.0356 Y1.6758
X0.028 Y1.6929
X0.018 Y1.7086
X0.0058 Y1.7227
X-0.0083 Y1.7349
X-0.0241 Y1.7448
X-0.0411 Y1.7524
X-0.0591 Y1.7573
X-0.0674 Y1.7598
G3 X-0.0977 Y1.7582 I-0.0127 J-0.0484
G1 X-0.103 Y1.7562 Z0.0003
X-0.1081 Y1.7542 Z0.0013
X-0.1132 Y1.7523 Z0.0028
X-0.118 Y1.7505 Z0.005
X-0.1226 Y1.7487 Z0.0077
X-0.1269 Y1.7471 Z0.0109
X-0.1308 Y1.7456 Z0.0146
X-0.1343 Y1.7443 Z0.0188
X-0.1373 Y1.7432 Z0.0234
X-0.1399 Y1.7422 Z0.0283
X-0.1419 Y1.7415 Z0.0335
X-0.1433 Y1.7409 Z0.0389
X-0.1442 Y1.7406 Z0.0444
X-0.1445 Y1.7405 Z0.05
Z1.12
X0.289 Y-0.2059
Z0.1
Z0.05
Y-0.2056 Z0.0444
Y-0.2046 Z0.0389
X0.2891 Y-0.2031 Z0.0335
X0.2892 Y-0.2009 Z0.0283
X0.2893 Y-0.1982 Z0.0234
X0.2894 Y-0.195 Z0.0188
X0.2895 Y-0.1913 Z0.0146
X0.2897 Y-0.1871 Z0.0109
X0.2898 Y-0.1825 Z0.0077
X0.29 Y-0.1776 Z0.005
X0.2902 Y-0.1724 Z0.0028
X0.2904 Y-0.167 Z0.0013
X0.2906 Y-0.1615 Z0.0003
X0.2908 Y-0.1559 Z0.
G3 X0.2842 Y-0.1257 I-0.0623 J0.0022
G1 X0.2802 Y-0.1184
X0.2724 Y-0.1034
X0.27 Y-0.0978
X0.2666 Y-0.0884
X0.2617 Y-0.0734
X0.2573 Y-0.0585
X0.2545 Y-0.0435
X0.2518 Y-0.0285
X0.2502 Y0.0014
X0.25 Y0.0164
Y0.1062
X0.2474 Y0.1574
X0.2455 Y0.2087
X0.2423 Y0.2598
X0.2385 Y0.311
X0.2305 Y0.4132
X0.2266 Y0.4643
X0.2231 Y0.5155
X0.2199 Y0.5666
X0.217 Y0.6178
X0.2145 Y0.669
X0.2123 Y0.7203
X0.2104 Y0.7715
X0.2088 Y0.8227
X0.2074 Y0.874
X0.2062 Y0.9253
X0.2052 Y0.9765
X0.2043 Y1.0278
X0.2036 Y1.079
X0.203 Y1.1303
X0.2025 Y1.1816
X0.2021 Y1.2329
X0.2017 Y1.2841
X0.2014 Y1.3354
X0.201 Y1.3867
X0.2001 Y1.4379
X0.1982 Y1.4892
X0.1945 Y1.5403
X0.1893 Y1.5781
X0.183 Y1.6091
X0.176 Y1.635
X0.1678 Y1.659
X0.159 Y1.6805
X0.1503 Y1.6954
X0.1396 Y1.709
X0.1271 Y1.721
X0.1131 Y1.7312
X0.0978 Y1.7393
X0.0815 Y1.7452
X0.0646 Y1.7488
X0.0473 Y1.75
X0.0007
X-0.0142 Y1.751
G3 X-0.0657 Y1.7026 Z0.008 I-0.0015 J-0.05
G1 Y1.6984
X-0.0653 Y1.6943
X0.1505 Y0.1012
G3 X0.1983 Y0.058 I0.0495 J0.0067
X0.25 Y0.1062 Z0. I0.0017 J0.05
G1 Y1.6182
X0.2489 Y1.6408
X0.2474 Y1.6533
X0.245 Y1.6666
X0.242 Y1.6788
X0.236 Y1.6937
X0.2277 Y1.7075
X0.2173 Y1.7198
X0.2051 Y1.7303
X0.1914 Y1.7388
X0.1766 Y1.745
X0.1609 Y1.7487
X0.1449 Y1.75
G3 X0.0967 Y1.6983 Z0.008 I0.0017 J-0.05
X0.105 Y1.6723 I0.05 J0.0017
G1 X0.1584 Y1.5922
G3 X0.1983 Y1.57 I0.0416 J0.0277
X0.25 Y1.6182 Z0. I0.0017 J0.05
G1 Y1.6632
X0.2494 Y1.6781
X0.2476 Y1.6856
X0.2398 Y1.7081
X0.234 Y1.723
X0.2303 Y1.7291
X0.2251 Y1.7352
X0.2221 Y1.738
X0.2161 Y1.7424
X0.2102 Y1.7456
X0.2027 Y1.7483
X0.1952 Y1.7497
X0.1803 Y1.75
X0.0473
G3 X0.0187 Y1.7397 I0.0017 J-0.05
G1 X0.0143 Y1.7363 Z0.0003
X0.0099 Y1.733 Z0.0013
X0.0056 Y1.7297 Z0.0028
X0.0015 Y1.7265 Z0.005
X-0.0024 Y1.7236 Z0.0077
X-0.0061 Y1.7208 Z0.0109
X-0.0094 Y1.7182 Z0.0146
X-0.0123 Y1.716 Z0.0188
X-0.0149 Y1.714 Z0.0234
X-0.0171 Y1.7124 Z0.0283
X-0.0188 Y1.711 Z0.0335
X-0.02 Y1.7101 Z0.0389
X-0.0208 Y1.7095 Z0.0444
X-0.021 Y1.7093 Z0.05
Z1.12
X2.7843 Y3.2628
Z0.1
Z0.05
X2.7841 Y3.2625 Z0.0444
X2.7836 Y3.2617 Z0.0389
X2.7828 Y3.2604 Z0.0335
X2.7817 Y3.2586 Z0.0283
X2.7803 Y3.2562 Z0.0234
X2.7787 Y3.2534 Z0.0188
X2.7768 Y3.2502 Z0.0146
X2.7746 Y3.2466 Z0.0109
X2.7723 Y3.2427 Z0.0077
X2.7698 Y3.2385 Z0.005
X2.7672 Y3.234 Z0.0028
X2.7644 Y3.2294 Z0.0013
X2.7616 Y3.2246 Z0.0003
X2.7587 Y3.2198 Z0.
G3 X2.75 Y3.1902 I0.0536 J-0.0318
G1 Y2.0225
X2.7498 Y2.0075
X2.7496 Y1.9925
X2.7485 Y1.9775
X2.7466 Y1.9626
X2.7441 Y1.9476
X2.7429 Y1.9431
X2.7321 Y1.893
X2.7245 Y1.8422
X2.7187 Y1.7913
X2.7143 Y1.7402
X2.7109 Y1.6891
X2.7083 Y1.6379
X2.7062 Y1.5866
X2.7047 Y1.5354
X2.7035 Y1.4841
X2.7025 Y1.4329
X2.7018 Y1.3816
X2.7012 Y1.3303
X2.7008 Y1.279
X2.7005 Y1.2278
X2.7002 Y1.1765
X2.7 Y1.1252
X2.6997 Y1.0227
X2.6995 Y0.8689
X2.6993 Y0.6638
Y0.4587
X2.6967 Y0.4075
X2.6835 Y0.358
X2.6608 Y0.312
X2.6305 Y0.2706
X2.5945 Y0.2341
X2.554 Y0.2026
X2.5104 Y0.1757
X2.4646 Y0.1527
X2.4175 Y0.1324
X2.3701 Y0.1128
X2.323 Y0.0925
X2.3212 Y0.0916
X2.3043 Y0.0816
X2.289 Y0.0692
X2.2759 Y0.0546
X2.265 Y0.0383
X2.2568 Y0.0204
X2.2513 Y0.0016
X2.2488 Y-0.0179
G3 X2.2575 Y-0.0471 I0.05 J-0.001
G1 X2.2606 Y-0.0517 Z0.0003
X2.2637 Y-0.0563 Z0.0013
X2.2668 Y-0.0607 Z0.0028
X2.2697 Y-0.065 Z0.005
X2.2724 Y-0.069 Z0.0077
X2.275 Y-0.0728 Z0.0109
X2.2774 Y-0.0763 Z0.0146
X2.2795 Y-0.0794 Z0.0188
X2.2813 Y-0.082 Z0.0234
X2.2828 Y-0.0843 Z0.0283
X2.284 Y-0.0861 Z0.0335
X2.2849 Y-0.0873 Z0.0389
X2.2854 Y-0.0881 Z0.0444
X2.2856 Y-0.0884 Z0.05
Z1.12
X2.7948 Y2.0044
Z0.1
Z0.05
X2.7946 Y2.0041 Z0.0444
X2.7939 Y2.0035 Z0.0389
X2.7928 Y2.0024 Z0.0335
X2.7912 Y2.0009 Z0.0283
X2.7893 Y1.999 Z0.0234
X2.787 Y1.9967 Z0.0188
X2.7843 Y1.9941 Z0.0146
X2.7813 Y1.9912 Z0.0109
X2.778 Y1.988 Z0.0077
X2.7745 Y1.9846 Z0.005
X2.7708 Y1.981 Z0.0028
X2.7669 Y1.9772 Z0.0013
X2.763 Y1.9734 Z0.0003
X2.759 Y1.9695 Z0.
G3 X2.7429 Y1.9431 I0.0435 J-0.0446
G1 X2.7387 Y1.9274
X2.7359 Y1.9177
X2.73 Y1.9027
X2.7237 Y1.8885
X2.7233 Y1.8877
X2.7051 Y1.8578
X2.7001 Y1.8503
X2.6942 Y1.8428
X2.6866 Y1.8344
X2.6749 Y1.82
X2.6648 Y1.8058
X2.6539 Y1.7882
X2.6423 Y1.7663
X2.63 Y1.7392
X2.617 Y1.7049
X2.6034 Y1.6606
X2.5915 Y1.6107
X2.5823 Y1.5603
X2.5752 Y1.5095
X2.5696 Y1.4585
X2.5653 Y1.4074
X2.5618 Y1.3563
X2.5592 Y1.3051
X2.5571 Y1.2538
X2.5554 Y1.2026
X2.5541 Y1.1513
X2.5531 Y1.1001
X2.5523 Y1.0488
X2.5516 Y0.9975
X2.5511 Y0.9463
X2.5507 Y0.895
X2.5504 Y0.8437
X2.5502 Y0.7925
X2.55 Y0.7412
X2.5497 Y0.6386
X2.5445 Y0.5876
X2.5308 Y0.5382
X2.5092 Y0.4917
X2.4812 Y0.4488
X2.4484 Y0.4094
X2.4121 Y0.3731
X2.3738 Y0.339
X2.3349 Y0.3057
X2.2964 Y0.2718
X2.2897 Y0.2653
X2.278 Y0.2525
X2.2682 Y0.2381
X2.2603 Y0.2226
X2.2546 Y0.2062
X2.2512 Y0.1892
X2.25 Y0.1719
Y0.0164
X2.2498 Y0.0014
X2.2488 Y-0.0179
G3 X2.2575 Y-0.0471 I0.05 J-0.001
G1 X2.2606 Y-0.0517 Z0.0003
X2.2637 Y-0.0563 Z0.0013
X2.2668 Y-0.0607 Z0.0028
X2.2697 Y-0.065 Z0.005
X2.2724 Y-0.069 Z0.0077
X2.275 Y-0.0728 Z0.0109
X2.2774 Y-0.0763 Z0.0146
X2.2795 Y-0.0794 Z0.0188
X2.2813 Y-0.082 Z0.0234
X2.2828 Y-0.0843 Z0.0283
X2.284 Y-0.0861 Z0.0335
X2.2849 Y-0.0873 Z0.0389
X2.2854 Y-0.0881 Z0.0444
X2.2856 Y-0.0884 Z0.05
Z1.12
X2.7606 Y1.8655
Z0.1
Z0.05
X2.7603 Y1.8654 Z0.0444
X2.7594 Y1.8651 Z0.0389
X2.758 Y1.8647 Z0.0335
X2.7559 Y1.864 Z0.0283
X2.7533 Y1.8632 Z0.0234
X2.7502 Y1.8623 Z0.0188
X2.7467 Y1.8612 Z0.0146
X2.7427 Y1.8599 Z0.0109
X2.7383 Y1.8585 Z0.0077
X2.7336 Y1.8571 Z0.005
X2.7287 Y1.8555 Z0.0028
X2.7235 Y1.8539 Z0.0013
X2.7182 Y1.8523 Z0.0003
X2.7129 Y1.8506 Z0.
G3 X2.6866 Y1.8344 I0.0186 J-0.0595
G1 X2.6788 Y1.8257
X2.6656 Y1.8129
X2.6639 Y1.8113
X2.646 Y1.7979
X2.6339 Y1.7889
X2.6227 Y1.7829
X2.619 Y1.781
X2.609 Y1.7751
X2.6002 Y1.7692
X2.5903 Y1.7615
X2.5791 Y1.7517
X2.5681 Y1.7406
X2.5556 Y1.7265
X2.543 Y1.7101
X2.5293 Y1.6897
X2.5154 Y1.6659
X2.5007 Y1.6366
X2.4854 Y1.6007
X2.4698 Y1.556
X2.456 Y1.5066
X2.445 Y1.4566
X2.4361 Y1.4061
X2.4289 Y1.3553
X2.4232 Y1.3044
X2.4185 Y1.2533
X2.4148 Y1.2022
X2.4117 Y1.151
X2.4093 Y1.0998
X2.4073 Y1.0485
X2.4058 Y0.9973
X2.4045 Y0.946
X2.4035 Y0.8948
X2.4026 Y0.8435
X2.4004 Y0.7923
X2.3925 Y0.7416
X2.3784 Y0.6923
X2.3589 Y0.6449
X2.3351 Y0.5995
X2.3081 Y0.5559
X2.279 Y0.5137
X2.2738 Y0.5063
X2.2654 Y0.4927
X2.2587 Y0.4782
X2.2539 Y0.463
X2.251 Y0.4473
X2.25 Y0.4313
Y0.1719
G3 X2.3017 Y0.1236 Z0.008 I0.05 J0.0017
X2.3488 Y0.1629 I-0.0017 J0.05
G1 X2.6893 Y1.7252
G3 X2.6856 Y1.7574 I-0.0489 J0.0106
X2.619 Y1.781 Z0. I-0.0451 J-0.0216
G1 X2.604 Y1.7732
X2.5916 Y1.768
X2.5741 Y1.7618
X2.5591 Y1.7573
X2.5509 Y1.7557
X2.5411 Y1.7532
X2.5329 Y1.7506
X2.5233 Y1.7469
X2.5136 Y1.7424
X2.5024 Y1.7362
X2.4908 Y1.7289
X2.4783 Y1.7198
X2.4645 Y1.7084
X2.4509 Y1.6956
X2.4356 Y1.6792
X2.4207 Y1.661
X2.4045 Y1.6384
X2.3882 Y1.6123
X2.3713 Y1.581
X2.3539 Y1.5431
X2.3362 Y1.497
X2.3209 Y1.448
X2.3083 Y1.3983
X2.2979 Y1.3481
X2.2893 Y1.2976
X2.2822 Y1.2468
X2.2763 Y1.1959
X2.2715 Y1.1448
X2.2675 Y1.0937
X2.2642 Y1.0425
X2.2613 Y0.9914
X2.2567 Y0.9403
X2.2517 Y0.9095
X2.2507 Y0.9026
X2.2502 Y0.8957
X2.25 Y0.8887
Y0.4313
G3 X2.3017 Y0.3831 Z0.008 I0.05 J0.0017
X2.349 Y0.4231 I-0.0017 J0.05
G1 X2.6078 Y1.6963
G3 X2.6082 Y1.7143 I-0.049 J0.01
X2.5509 Y1.7557 Z0. I-0.0494 J-0.008
G1 X2.5372 Y1.753
X2.5292 Y1.7521
X2.5142 Y1.751
X2.4993 Y1.75
X2.4761
X2.4692 Y1.7497
X2.4606 Y1.7487
X2.4513 Y1.747
X2.4409 Y1.7444
X2.43 Y1.741
X2.4178 Y1.7362
X2.4051 Y1.7303
X2.3911 Y1.7227
X2.3769 Y1.7137
X2.3611 Y1.7023
X2.3453 Y1.6893
X2.3278 Y1.6728
X2.3108 Y1.6546
X2.2924 Y1.6322
X2.2738 Y1.6064
X2.2698 Y1.6001
X2.2613 Y1.584
X2.2551 Y1.567
X2.2513 Y1.5492
X2.25 Y1.5311
G3 X2.3017 Y1.4828 Z0.008 I0.05 J0.0017
X2.3346 Y1.4967 I-0.0017 J0.05
G1 X2.509 Y1.6639
G3 X2.5243 Y1.6984 I-0.0346 J0.0361
X2.4761 Y1.75 Z0. I-0.05 J0.0017
G1 X2.3796
X2.3646 Y1.7492
X2.3548 Y1.7481
X2.3435 Y1.7461
X2.3318 Y1.7432
X2.3185 Y1.739
X2.304 Y1.7321
X2.2906 Y1.723
X2.2788 Y1.7121
X2.2688 Y1.6996
X2.2607 Y1.6857
X2.2548 Y1.6707
X2.2512 Y1.655
X2.25 Y1.639
G3 X2.3017 Y1.5907 Z0.008 I0.05 J0.0017
X2.3303 Y1.6009 I-0.0017 J0.05
G1 X2.4081 Y1.6603
G3 X2.4278 Y1.6983 I-0.0303 J0.0398
X2.3796 Y1.75 Z0. I-0.05 J0.0017
G1 X2.3197
X2.3048 Y1.7497
X2.2973 Y1.7483
X2.2898 Y1.7456
X2.2839 Y1.7424
X2.2779 Y1.738
X2.2749 Y1.7352
X2.2697 Y1.7291
X2.266 Y1.723
X2.2602 Y1.7081
X2.2524 Y1.6856
X2.2506 Y1.6781
X2.25 Y1.6632
Y0.8887
G3 X2.2603 Y0.8601 I0.05 J0.0017
G1 X2.2637 Y0.8556 Z0.0003
X2.267 Y0.8512 Z0.0013
X2.2703 Y0.847 Z0.0028
X2.2735 Y0.8428 Z0.005
X2.2764 Y0.8389 Z0.0077
X2.2792 Y0.8353 Z0.0109
X2.2818 Y0.832 Z0.0146
X2.284 Y0.829 Z0.0188
X2.286 Y0.8265 Z0.0234
X2.2876 Y0.8243 Z0.0283
X2.289 Y0.8226 Z0.0335
X2.2899 Y0.8214 Z0.0389
X2.2905 Y0.8206 Z0.0444
X2.2907 Y0.8204 Z0.05
Z2.12
M5
G53
G49
G28
