[test_tenon_t3]
[Machine]
[  vendor: NL]
[  model: Generic WinCNC]
[T3 D=0.25 CR=0. - ZMIN=0. - flat end mill]
G90
G20
G94
G49
[When using Fusion for Personal Use, the feedrate of rapid]
[moves is reduced to match the feedrate of cutting moves,]
[which can increase machining time. Unrestricted rapid moves]
[are available with a Fusion Subscription.]
G53
[Adaptive4]
M0
[MANUAL TOOL CHANGE TO T3]
S10000 M3
G90
G94
G54
M37 H3
G0 X2.4362 Y1.8392
G43 Z1.52
G1 Z1.12 F20
Z0.345
Z0.32
X2.4359 Y1.8393 Z0.3161 F20
X2.435 Y1.8395 Z0.3123
X2.4335 Y1.8399 Z0.3087
X2.4316 Y1.8404 Z0.3053
X2.4291 Y1.841 Z0.3023
X2.4262 Y1.8418 Z0.2998
X2.423 Y1.8426 Z0.2977
X2.4194 Y1.8435 Z0.2962
X2.4158 Y1.8445 Z0.2953
X2.412 Y1.8454 Z0.295
G3 X2.2759 Y1.865 I-0.1584 J-0.6183
G1 X2.2184
X2.2108 Y1.8646
X2.2049 Y1.8639
X2.199 Y1.8628
X2.1932 Y1.861
X2.1869 Y1.8587
X2.1795 Y1.8553
X2.1707 Y1.8506
X2.1605 Y1.8431
X2.1517 Y1.8339
X2.1445 Y1.8234
X2.1393 Y1.8118
X2.1361 Y1.7995
X2.135 Y1.7868
G3 X2.1608 Y1.7627 Z0.303 I0.025 J0.0009
X2.1768 Y1.7692 I-0.0009 J0.025
G1 X2.2344 Y1.8215
G3 X2.2425 Y1.8392 I-0.0168 J0.0185
X2.2184 Y1.865 Z0.295 I-0.025 J0.0009
G1 X2.1774
X2.1733 Y1.8648
X2.1692 Y1.8639
X2.1554 Y1.8603
X2.1528 Y1.8596
X2.1507 Y1.8589
X2.1487 Y1.858
X2.1466 Y1.8568
X2.1446 Y1.8553
X2.1429 Y1.8539
X2.1412 Y1.8521
X2.1395 Y1.8501
X2.1382 Y1.848
X2.1372 Y1.8459
X2.1363 Y1.8438
X2.1353 Y1.8397
X2.135 Y1.8357
Y1.7289
G3 X2.1526 Y1.7058 I0.025 J0.0009
G1 X2.1564 Y1.7047 Z0.2953
X2.16 Y1.7036 Z0.2962
X2.1635 Y1.7025 Z0.2977
X2.1667 Y1.7015 Z0.2998
X2.1695 Y1.7006 Z0.3023
X2.1719 Y1.6999 Z0.3053
X2.1739 Y1.6993 Z0.3087
X2.1753 Y1.6988 Z0.3123
X2.1762 Y1.6986 Z0.3161
X2.1765 Y1.6985 Z0.32
Z1.12
X0.3392 Y1.5484
Z0.345
Z0.32
X0.3393 Y1.5487 Z0.3161
X0.3395 Y1.5496 Z0.3123
X0.3399 Y1.5511 Z0.3087
X0.3404 Y1.553 Z0.3053
X0.341 Y1.5555 Z0.3023
X0.3418 Y1.5584 Z0.2998
X0.3426 Y1.5616 Z0.2977
X0.3435 Y1.5652 Z0.2962
X0.3445 Y1.5688 Z0.2953
X0.3454 Y1.5726 Z0.295
G3 X0.365 Y1.7087 I-0.6183 J0.1584
G1 Y1.7782
X0.3645 Y1.789
X0.3637 Y1.7957
X0.3626 Y1.8016
X0.361 Y1.8074
X0.3588 Y1.8138
X0.3556 Y1.8214
X0.3545 Y1.8236
X0.3472 Y1.8353
X0.3379 Y1.8455
X0.3268 Y1.8538
X0.3145 Y1.86
X0.3012 Y1.8637
X0.2874 Y1.865
G3 X0.2633 Y1.8392 Z0.303 I0.0009 J-0.025
X0.2692 Y1.8238 I0.025 J0.0009
G1 X0.3209 Y1.7629
G3 X0.3392 Y1.754 I0.0191 J0.0162
X0.365 Y1.7782 Z0.295 I0.0009 J0.025
G1 Y1.832
Y1.8331
Y1.8345
X0.3648 Y1.8387
G3 X0.3258 Y1.8344 I-0.0195 J-0.0023
G1 X0.3259 Y1.8332
G3 X0.365 Y1.8345 I0.0195 J0.002
G1 Y1.8357
X0.3647 Y1.8397
X0.3636 Y1.8439
X0.3628 Y1.8459
X0.3618 Y1.848
X0.3605 Y1.8501
X0.3588 Y1.8521
X0.3571 Y1.8539
X0.3554 Y1.8553
X0.3534 Y1.8568
X0.3513 Y1.858
X0.3493 Y1.8589
X0.3472 Y1.8596
X0.3308 Y1.8639
X0.3267 Y1.8648
X0.3226 Y1.865
X0.2488
X0.2458 Y1.8647
X0.2429 Y1.8641
X0.2402 Y1.8628 Z0.2952
X0.2376 Y1.8615 Z0.2957
X0.235 Y1.8603 Z0.2966
X0.2328 Y1.858 Z0.2981
X0.2307 Y1.8559 Z0.3
X0.2289 Y1.854 Z0.3023
X0.2278 Y1.8517 Z0.3053
X0.2269 Y1.8498 Z0.3086
X0.2263 Y1.8485 Z0.3123
X0.2259 Y1.8477 Z0.3161
X0.2257 Y1.8474 Z0.32
Z1.12
X1.3487 Y0.858
Z1.02
G3 X1.2205 Y0.97 Z1.0129 I-0.0987 J0.0163 F13.33
X1.1777 Y0.8054 Z1.0058 I0.0295 J-0.0955
X1.3438 Y0.8407 Z0.9987 I0.0721 J0.069
X1.2381 Y0.9733 Z0.9916 I-0.0938 J0.0336
X1.1669 Y0.8197 Z0.9845 I0.0119 J-0.0988
X1.336 Y0.8247 Z0.9774 I0.083 J0.0547
X1.256 Y0.9735 Z0.9702 I-0.086 J0.0497
X1.1588 Y0.8356 Z0.9631 I-0.006 J-0.099
X1.3254 Y0.8103 Z0.956 I0.0911 J0.0389
X1.2735 Y0.9704 Z0.9489 I-0.0754 J0.064
X1.1536 Y0.8526 Z0.9418 I-0.0235 J-0.096
X1.3124 Y0.7981 Z0.9347 I0.0962 J0.0218
X1.2902 Y0.9643 Z0.9276 I-0.0625 J0.0762
X1.1517 Y0.8702 Z0.9205 I-0.0402 J-0.0899
X1.2976 Y0.7885 Z0.9134 I0.0982 J0.0042
X1.3054 Y0.9554 Z0.9063 I-0.0477 J0.0858
X1.1529 Y0.8878 Z0.8992 I-0.0554 J-0.0809
X1.2813 Y0.7817 Z0.8921 I0.097 J-0.0134
X1.3187 Y0.9439 Z0.885 I-0.0314 J0.0926
X1.1572 Y0.9049 Z0.8778 I-0.0687 J-0.0694
X1.2642 Y0.778 Z0.8707 I0.0927 J-0.0304
X1.3298 Y0.9302 Z0.8636 I-0.0143 J0.0964
X1.1645 Y0.9208 Z0.8565 I-0.0797 J-0.0558
X1.2467 Y0.7773 Z0.8494 I0.0855 J-0.0463
X1.3381 Y0.9149 Z0.8423 I0.0032 J0.097
X1.1744 Y0.9351 Z0.8352 I-0.0881 J-0.0405
X1.2294 Y0.7799 Z0.8281 I0.0755 J-0.0606
X1.3436 Y0.8983 Z0.821 I0.0204 J0.0945
X1.1868 Y0.9474 Z0.8139 I-0.0936 J-0.0239
X1.213 Y0.7854 Z0.8068 I0.0632 J-0.0729
X1.346 Y0.8812 Z0.7997 I0.0369 J0.089
X1.201 Y0.9572 Z0.7925 I-0.096 J-0.0068
X1.1979 Y0.7938 Z0.7854 I0.0489 J-0.0827
X1.3453 Y0.8639 Z0.7783 I0.052 J0.0806
X1.2168 Y0.9643 Z0.7712 I-0.0953 J0.0105
X1.1845 Y0.8047 Z0.7641 I0.0332 J-0.0898
X1.3415 Y0.8471 Z0.757 I0.0654 J0.0697
X1.2334 Y0.9684 Z0.7499 I-0.0915 J0.0272
X1.1734 Y0.8177 Z0.7428 I0.0165 J-0.0939
X1.3348 Y0.8314 Z0.7357 I0.0765 J0.0567
X1.2505 Y0.9694 Z0.7286 I-0.0848 J0.043
X1.1648 Y0.8325 Z0.7215 I-0.0005 J-0.095
X1.3254 Y0.8171 Z0.7144 I0.0851 J0.0419
X1.2675 Y0.9674 Z0.7073 I-0.0754 J0.0573
X1.159 Y0.8485 Z0.7001 I-0.0175 J-0.093
X1.3137 Y0.8048 Z0.693 I0.0908 J0.0259
X1.2837 Y0.9625 Z0.6859 I-0.0637 J0.0696
X1.1562 Y0.8653 Z0.6788 I-0.0337 J-0.088
X1.3 Y0.7948 Z0.6717 I0.0936 J0.0092
X1.2987 Y0.9547 Z0.6646 I-0.05 J0.0795
X1.1565 Y0.8821 Z0.6575 I-0.0487 J-0.0802
X1.2848 Y0.7875 Z0.6504 I0.0934 J-0.0077
X1.312 Y0.9444 Z0.6433 I-0.0349 J0.0869
X1.1597 Y0.8987 Z0.6362 I-0.062 J-0.0699
X1.2686 Y0.783 Z0.6291 I0.0902 J-0.0242
X1.3233 Y0.9319 Z0.622 I-0.0187 J0.0913
X1.1659 Y0.9143 Z0.6149 I-0.0733 J-0.0575
X1.2519 Y0.7815 Z0.6077 I0.084 J-0.0398
X1.332 Y0.9177 Z0.6006 I-0.002 J0.0928
X1.1747 Y0.9284 Z0.5935 I-0.082 J-0.0432
X1.2353 Y0.783 Z0.5864 I0.0753 J-0.054
X1.3381 Y0.9022 Z0.5793 I0.0146 J0.0913
X1.1858 Y0.9408 Z0.5722 I-0.0881 J-0.0278
X1.2193 Y0.7875 Z0.5651 I0.0641 J-0.0663
X1.3413 Y0.8859 Z0.558 I0.0306 J0.0869
X1.1989 Y0.9509 Z0.5509 I-0.0913 J-0.0115
X1.2044 Y0.7947 Z0.5438 I0.051 J-0.0764
X1.3415 Y0.8694 Z0.5367 I0.0454 J0.0797
X1.2136 Y0.9584 Z0.5296 I-0.0915 J0.005
X1.1911 Y0.8044 Z0.5225 I0.0364 J-0.0839
X1.3387 Y0.8532 Z0.5153 I0.0587 J0.07
X1.2293 Y0.9632 Z0.5082 I-0.0887 J0.0212
X1.1798 Y0.8163 Z0.5011 I0.0207 J-0.0887
X1.3332 Y0.8378 Z0.494 I0.07 J0.0581
X1.2455 Y0.9651 Z0.4869 I-0.0832 J0.0366
X1.1709 Y0.83 Z0.4798 I0.0044 J-0.0906
X1.3249 Y0.8237 Z0.4727 I0.079 J0.0444
X1.2618 Y0.9641 Z0.4656 I-0.075 J0.0507
X1.1646 Y0.845 Z0.4585 I-0.0118 J-0.0896
X1.3144 Y0.8113 Z0.4514 I0.0853 J0.0295
X1.2775 Y0.9602 Z0.4443 I-0.0644 J0.063
X1.161 Y0.8608 Z0.4372 I-0.0275 J-0.0857
X1.3018 Y0.8011 Z0.43 I0.0888 J0.0137
X1.2923 Y0.9535 Z0.4229 I-0.0519 J0.0732
X1.1604 Y0.8769 Z0.4158 I-0.0423 J-0.079
X1.2877 Y0.7933 Z0.4087 I0.0895 J-0.0024
X1.3055 Y0.9444 Z0.4016 I-0.0378 J0.081
X1.1627 Y0.8928 Z0.3945 I-0.0555 J-0.0699
X1.2725 Y0.7883 Z0.3874 I0.0872 J-0.0183
X1.3168 Y0.933 Z0.3803 I-0.0226 J0.0861
X1.1677 Y0.908 Z0.3732 I-0.0668 J-0.0586
X1.2567 Y0.786 Z0.3661 I0.0822 J-0.0335
X1.3259 Y0.9199 Z0.359 I-0.0068 J0.0884
X1.1754 Y0.922 Z0.3519 I-0.0759 J-0.0455
X1.2408 Y0.7866 Z0.3448 I0.0745 J-0.0475
X1.3325 Y0.9055 Z0.3376 I0.0091 J0.0878
X1.1854 Y0.9343 Z0.3305 I-0.0825 J-0.031
X1.2253 Y0.79 Z0.3234 I0.0646 J-0.0598
X1.3364 Y0.8901 Z0.3163 I0.0246 J0.0844
X1.1973 Y0.9446 Z0.3092 I-0.0864 J-0.0157
X1.2107 Y0.7961 Z0.3021 I0.0526 J-0.0701
X1.3374 Y0.8744 Z0.295 I0.0391 J0.0783
X1.1624 I-0.0875 J0.
X1.3374 I0.0875 J0.
G1 X1.3385 Y0.9105 F20
X1.3395 Y0.915
X1.3401 Y0.9209
X1.3399 Y0.9269
X1.3391 Y0.9329
X1.3377 Y0.9387
X1.3357 Y0.9444
X1.3332 Y0.9498
X1.3303 Y0.9551
X1.3271 Y0.9601
X1.3268 Y0.9605
X1.3175 Y0.9706
X1.3064 Y0.9789
X1.2941 Y0.985
X1.2809 Y0.9887
X1.2671 Y0.99
X1.2291
X1.2207 Y0.9896
X1.2147 Y0.9889
X1.2085 Y0.9878
X1.2023 Y0.9863
X1.1961 Y0.9843
X1.1899 Y0.9819
X1.1837 Y0.979
X1.1776 Y0.9757
X1.1717 Y0.972
X1.1659 Y0.9678
X1.1603 Y0.9631
X1.1586 Y0.9616
X1.1504 Y0.9525
X1.1438 Y0.9422
X1.139 Y0.931
X1.136 Y0.9191
X1.135 Y0.9069
G3 X1.1608 Y0.8828 Z0.303 I0.025 J0.0009
X1.176 Y0.8887 I-0.0009 J0.025
G1 X1.2443 Y0.9459
G3 X1.2532 Y0.9642 I-0.0161 J0.0192
X1.2291 Y0.99 Z0.295 I-0.025 J0.0009
G1 X1.1737
X1.1719
X1.1707
X1.1647 Y0.9897
X1.1624 Y0.9892
X1.1597 Y0.9885
G3 X1.1447 Y0.9612 Z0.3018 I0.0108 J-0.0238
G1 X1.1452 Y0.9583 Z0.3024
X1.1461 Y0.9555 Z0.303
G3 X1.1952 Y0.9644 I0.0237 J0.0091
X1.1707 Y0.99 Z0.295 I-0.0254 J0.0002
G1 X1.1679
X1.1654 Y0.9898
X1.1628 Y0.9894
X1.1597 Y0.9885
X1.1577 Y0.9876
X1.1556 Y0.9866
X1.1515 Y0.9838
X1.1477 Y0.9812
X1.1433 Y0.9779
X1.1409 Y0.9754
X1.1391 Y0.973
X1.1379 Y0.9709
X1.1369 Y0.9689
X1.1356 Y0.9648
X1.1351 Y0.9615
X1.135 Y0.9565
Y0.8497
X1.1353 Y0.8437
X1.136 Y0.8377
X1.1372 Y0.8317
X1.1388 Y0.8255
X1.1408 Y0.8193
X1.1433 Y0.8132
X1.1462 Y0.8071
X1.1495 Y0.801
X1.1533 Y0.7951
X1.1576 Y0.7894
X1.1622 Y0.7839
X1.1673 Y0.7786
X1.1728 Y0.7736
X1.1786 Y0.7689
X1.1848 Y0.7645
X1.1913 Y0.7605
X1.1981 Y0.7569
X1.2052 Y0.7537
X1.2125 Y0.751
X1.2201 Y0.7487
X1.2278 Y0.7469
X1.2357 Y0.7455
X1.2436 Y0.7447
X1.2517 Y0.7444
X1.2598 Y0.7446
X1.2679 Y0.7454
X1.2759 Y0.7466
X1.2839 Y0.7484
X1.2918 Y0.7506
X1.2995 Y0.7534
X1.307 Y0.7567
X1.3144 Y0.7605
X1.3215 Y0.7647
X1.3283 Y0.7694
X1.3348 Y0.7745
X1.341 Y0.7801
X1.3435 Y0.7826
X1.3526 Y0.7939
X1.3594 Y0.8067
X1.3636 Y0.8207
X1.365 Y0.8351
Y0.9364
X1.3646 Y0.9439
X1.3623 Y0.9544
X1.3578 Y0.9643
X1.3514 Y0.973
X1.3433 Y0.9802
X1.3339 Y0.9856
X1.3237 Y0.9889
X1.3129 Y0.99
G3 X1.2888 Y0.9642 Z0.303 I0.0009 J-0.025
X1.2956 Y0.9478 I0.025 J0.0009
G1 X1.3219 Y0.9201
G3 X1.3392 Y0.9123 I0.0182 J0.0172
X1.365 Y0.9364 Z0.295 I0.0009 J0.025
G1 Y0.9565
X1.3649 Y0.9615
X1.3644 Y0.9648
X1.3631 Y0.9689
X1.3621 Y0.9709
X1.3609 Y0.973
X1.3591 Y0.9754
X1.3567 Y0.9779
X1.3523 Y0.9812
X1.3485 Y0.9838
X1.3444 Y0.9866
X1.3423 Y0.9876
X1.3403 Y0.9885
X1.3372 Y0.9894
X1.3346 Y0.9898
X1.3321 Y0.99
X1.2671
G3 X1.2497 Y0.982 Z0.299 I0.0009 J-0.025
G1 X1.2425 Y0.9743 Z0.3012
X1.2364 Y0.9677 Z0.303
X1.1562 Y0.8815
X1.1502 Y0.875 Z0.3012
X1.1417 Y0.8659 Z0.2986
G3 X1.135 Y0.8497 Z0.295 I0.0183 J-0.017
G1 Y0.7959
X1.1353 Y0.7899
X1.1362 Y0.784
X1.1376 Y0.7782
X1.1395 Y0.7725
X1.1419 Y0.7669
X1.1445 Y0.7616
X1.1477 Y0.7562
X1.1513 Y0.7509
X1.1554 Y0.7455
X1.1602 Y0.7401
X1.1654 Y0.7349
X1.1711 Y0.7299
X1.1774 Y0.7251
X1.1842 Y0.7205
X1.1915 Y0.7162
X1.1993 Y0.7123
X1.2075 Y0.7088
X1.2161 Y0.7058
X1.2251 Y0.7033
X1.2344 Y0.7013
X1.2439 Y0.6999
X1.2538 Y0.6991
X1.2639 Y0.699
X1.2741 Y0.6995
X1.2843 Y0.7006
X1.2947 Y0.7024
X1.3049 Y0.705
X1.3146 Y0.708
X1.317 Y0.7089
X1.3304 Y0.7157
X1.3421 Y0.725
X1.3518 Y0.7364
X1.359 Y0.7496
X1.3635 Y0.7639
X1.365 Y0.7789
Y0.8351
G3 X1.3392 Y0.8593 Z0.303 I-0.025 J-0.0009
G1 X1.3369 Y0.8591
X1.3347 Y0.8587
X1.1607 Y0.8208
X1.1547 Y0.8195 Z0.3017
G3 X1.135 Y0.7959 Z0.295 I0.0053 J-0.0244
G1 Y0.7511
X1.1353 Y0.7451
X1.1362 Y0.7392
X1.1377 Y0.7334
X1.1396 Y0.7277
X1.142 Y0.7222
X1.1447 Y0.7169
X1.1479 Y0.7116
X1.1517 Y0.7061
X1.1561 Y0.7005
X1.161 Y0.695
X1.1665 Y0.6896
X1.1728 Y0.6843
X1.1796 Y0.6791
X1.187 Y0.6742
X1.195 Y0.6696
X1.2037 Y0.6654
X1.2131 Y0.6615
X1.223 Y0.6582
X1.2333 Y0.6554
X1.244 Y0.6533
X1.255 Y0.6518
X1.265 Y0.6511
X1.276 Y0.651
X1.2858 Y0.6515
X1.295 Y0.6527
X1.3049 Y0.6545
X1.3134 Y0.6567
X1.3257 Y0.6619
X1.3369 Y0.6693
X1.3465 Y0.6786
X1.3544 Y0.6894
X1.3602 Y0.7015
X1.3638 Y0.7144
X1.365 Y0.7277
Y0.7789
G3 X1.3392 Y0.803 Z0.303 I-0.025 J-0.0009
G1 X1.3362 Y0.8027
X1.1608 Y0.7757
X1.1562 Y0.775 Z0.302
G3 X1.135 Y0.7511 Z0.295 I0.0038 J-0.0247
G1 Y0.7076
X1.1353 Y0.7016
X1.1361 Y0.6956
X1.1375 Y0.6898
X1.1394 Y0.6841
X1.1417 Y0.6785
X1.1443 Y0.6732
X1.1447 Y0.6725
X1.1522 Y0.6618
X1.1614 Y0.6526
X1.1722 Y0.6451
X1.184 Y0.6395
X1.1966 Y0.6361
X1.2097 Y0.635
G3 X1.2338 Y0.6608 Z0.303 I-0.0009 J0.025
X1.2261 Y0.678 I-0.025 J-0.0009
G1 X1.1773 Y0.7248
G3 X1.1608 Y0.7317 I-0.0173 J-0.0181
X1.135 Y0.7076 Z0.295 I-0.0009 J-0.025
G1 Y0.6854
X1.1351 Y0.6831
X1.1356 Y0.6802
X1.1364 Y0.6772
X1.1444 Y0.6525
X1.1461 Y0.6484
X1.1473 Y0.6464
X1.1488 Y0.6443
X1.1515 Y0.6414
X1.1536 Y0.6398
X1.1556 Y0.6384
X1.1577 Y0.6374
X1.1597 Y0.6365
X1.1609 Y0.6361
X1.1644 Y0.6353
X1.1679 Y0.635
X1.3157
X1.3232 Y0.6354
X1.3329 Y0.6376
X1.3418 Y0.642
X1.3495 Y0.6483
X1.3556 Y0.6562
X1.3597 Y0.6652
G3 X1.3426 Y0.6961 Z0.303 I-0.024 J0.0069
X1.3223 Y0.6932 I-0.0069 J-0.024
G1 X1.3032 Y0.6811
G3 X1.2915 Y0.6608 I0.0134 J-0.0211
X1.3157 Y0.635 Z0.295 I0.025 J-0.0009
G1 X1.3321
X1.3356 Y0.6353
X1.3391 Y0.6361
X1.3403 Y0.6365
X1.3423 Y0.6374
X1.3444 Y0.6384
X1.3464 Y0.6398
X1.3485 Y0.6414
X1.3512 Y0.6443
X1.3527 Y0.6464
X1.3539 Y0.6484
X1.3556 Y0.6525
X1.3636 Y0.6772
X1.3644 Y0.6802
X1.3649 Y0.6831
X1.365 Y0.6854
Y0.7277
X1.3647 Y0.7307
X1.3641 Y0.7335
X1.3628 Y0.7362 Z0.2952
X1.3615 Y0.7389 Z0.2957
X1.3603 Y0.7415 Z0.2966
X1.358 Y0.7437 Z0.2981
X1.3559 Y0.7457 Z0.3
X1.354 Y0.7476 Z0.3023
X1.3517 Y0.7487 Z0.3053
X1.3498 Y0.7496 Z0.3086
X1.3485 Y0.7502 Z0.3123
X1.3477 Y0.7506 Z0.3161
X1.3474 Y0.7507 Z0.32
Z1.12
X2.4362 Y1.8392
Z0.05
Z0.025
X2.4359 Y1.8393 Z0.0211
X2.435 Y1.8395 Z0.0173
X2.4335 Y1.8399 Z0.0137
X2.4316 Y1.8404 Z0.0103
X2.4291 Y1.841 Z0.0073
X2.4262 Y1.8418 Z0.0048
X2.423 Y1.8426 Z0.0027
X2.4194 Y1.8435 Z0.0012
X2.4158 Y1.8445 Z0.0003
X2.412 Y1.8454 Z0.
G3 X2.2759 Y1.865 I-0.1584 J-0.6183
G1 X2.2184
X2.2108 Y1.8646
X2.2049 Y1.8639
X2.199 Y1.8628
X2.1932 Y1.861
X2.1869 Y1.8587
X2.1795 Y1.8553
X2.1707 Y1.8506
X2.1605 Y1.8431
X2.1517 Y1.8339
X2.1445 Y1.8234
X2.1393 Y1.8118
X2.1361 Y1.7995
X2.135 Y1.7868
G3 X2.1608 Y1.7627 Z0.008 I0.025 J0.0009
X2.1768 Y1.7692 I-0.0009 J0.025
G1 X2.2344 Y1.8215
G3 X2.2425 Y1.8392 I-0.0168 J0.0185
X2.2184 Y1.865 Z0. I-0.025 J0.0009
G1 X2.1774
X2.1733 Y1.8648
X2.1692 Y1.8639
X2.1554 Y1.8603
X2.1528 Y1.8596
X2.1507 Y1.8589
X2.1487 Y1.858
X2.1466 Y1.8568
X2.1446 Y1.8553
X2.1429 Y1.8539
X2.1412 Y1.8521
X2.1395 Y1.8501
X2.1382 Y1.848
X2.1372 Y1.8459
X2.1363 Y1.8438
X2.1353 Y1.8397
X2.135 Y1.8357
Y1.7289
G3 X2.1526 Y1.7058 I0.025 J0.0009
G1 X2.1564 Y1.7047 Z0.0003
X2.16 Y1.7036 Z0.0012
X2.1635 Y1.7025 Z0.0027
X2.1667 Y1.7015 Z0.0048
X2.1695 Y1.7006 Z0.0073
X2.1719 Y1.6999 Z0.0103
X2.1739 Y1.6993 Z0.0137
X2.1753 Y1.6988 Z0.0173
X2.1762 Y1.6986 Z0.0211
X2.1765 Y1.6985 Z0.025
Z1.12
X0.3392 Y1.5484
Z0.05
Z0.025
X0.3393 Y1.5487 Z0.0211
X0.3395 Y1.5496 Z0.0173
X0.3399 Y1.5511 Z0.0137
X0.3404 Y1.553 Z0.0103
X0.341 Y1.5555 Z0.0073
X0.3418 Y1.5584 Z0.0048
X0.3426 Y1.5616 Z0.0027
X0.3435 Y1.5652 Z0.0012
X0.3445 Y1.5688 Z0.0003
X0.3454 Y1.5726 Z0.
G3 X0.365 Y1.7087 I-0.6183 J0.1584
G1 Y1.7782
X0.3645 Y1.789
X0.3637 Y1.7957
X0.3626 Y1.8016
X0.361 Y1.8074
X0.3588 Y1.8138
X0.3556 Y1.8214
X0.3545 Y1.8236
X0.3472 Y1.8353
X0.3379 Y1.8455
X0.3268 Y1.8538
X0.3145 Y1.86
X0.3012 Y1.8637
X0.2874 Y1.865
G3 X0.2633 Y1.8392 Z0.008 I0.0009 J-0.025
X0.2692 Y1.8238 I0.025 J0.0009
G1 X0.3209 Y1.7629
G3 X0.3392 Y1.754 I0.0191 J0.0162
X0.365 Y1.7782 Z0. I0.0009 J0.025
G1 Y1.832
Y1.8331
Y1.8345
X0.3648 Y1.8387
G3 X0.3258 Y1.8344 I-0.0195 J-0.0023
G1 X0.3259 Y1.8332
G3 X0.365 Y1.8345 I0.0195 J0.002
G1 Y1.8357
X0.3647 Y1.8397
X0.3636 Y1.8439
X0.3628 Y1.8459
X0.3618 Y1.848
X0.3605 Y1.8501
X0.3588 Y1.8521
X0.3571 Y1.8539
X0.3554 Y1.8553
X0.3534 Y1.8568
X0.3513 Y1.858
X0.3493 Y1.8589
X0.3472 Y1.8596
X0.3308 Y1.8639
X0.3267 Y1.8648
X0.3226 Y1.865
X0.2488
X0.2458 Y1.8647
X0.2429 Y1.8641
X0.2402 Y1.8628 Z0.0002
X0.2376 Y1.8615 Z0.0007
X0.235 Y1.8603 Z0.0016
X0.2328 Y1.858 Z0.0031
X0.2307 Y1.8559 Z0.005
X0.2289 Y1.854 Z0.0073
X0.2278 Y1.8517 Z0.0103
X0.2269 Y1.8498 Z0.0136
X0.2263 Y1.8485 Z0.0173
X0.2259 Y1.8477 Z0.0211
X0.2257 Y1.8474 Z0.025
Z1.12
X1.35 Y0.8785
Z0.395
G3 X1.203 Y0.9627 Z0.3879 I-0.1 J-0.0041 F13.33
X1.1908 Y0.794 Z0.3809 I0.0469 J-0.0882
X1.348 Y0.8559 Z0.3738 I0.0591 J0.0804
X1.2241 Y0.9706 Z0.3668 I-0.098 J0.0184
X1.1745 Y0.8096 Z0.3597 I0.0258 J-0.0962
X1.341 Y0.8345 Z0.3527 I0.0754 J0.0648
X1.2464 Y0.9736 Z0.3456 I-0.091 J0.0398
X1.1622 Y0.8283 Z0.3386 I0.0035 J-0.0991
X1.3294 Y0.8153 Z0.3315 I0.0877 J0.0461
X1.2687 Y0.9715 Z0.3245 I-0.0794 J0.059
X1.1544 Y0.8493 Z0.3174 I-0.0188 J-0.097
X1.3138 Y0.7993 Z0.3104 I0.0955 J0.0251
X1.2899 Y0.9644 Z0.3033 I-0.0639 J0.0751
X1.1516 Y0.8714 Z0.2963 I-0.0399 J-0.09
X1.2952 Y0.7872 Z0.2892 I0.0983 J0.003
X1.3089 Y0.9529 Z0.2821 I-0.0452 J0.0872
X1.1538 Y0.8935 Z0.2751 I-0.0589 J-0.0784
X1.2743 Y0.7796 Z0.268 I0.0961 J-0.0191
X1.3247 Y0.9374 Z0.261 I-0.0244 J0.0947
X1.1609 Y0.9145 Z0.2539 I-0.0747 J-0.063
X1.2524 Y0.7769 Z0.2469 I0.089 J-0.04
X1.3366 Y0.9188 Z0.2398 I-0.0025 J0.0974
X1.1725 Y0.9333 Z0.2328 I-0.0866 J-0.0444
X1.2305 Y0.7792 Z0.2257 I0.0774 J-0.0588
X1.344 Y0.8981 Z0.2187 I0.0194 J0.0951
X1.1879 Y0.9489 Z0.2116 I-0.094 J-0.0237
X1.2098 Y0.7864 Z0.2046 I0.062 J-0.0744
X1.3466 Y0.8763 Z0.1975 I0.0401 J0.088
X1.2064 Y0.9606 Z0.1904 I-0.0966 J-0.002
X1.1912 Y0.7979 Z0.1834 I0.0436 J-0.0861
X1.3442 Y0.8547 Z0.1763 I0.0586 J0.0765
X1.2269 Y0.9678 Z0.1693 I-0.0942 J0.0197
X1.1758 Y0.8133 Z0.1622 I0.023 J-0.0933
X1.337 Y0.8341 Z0.1552 I0.074 J0.0611
X1.2485 Y0.9702 Z0.1481 I-0.087 J0.0402
X1.1643 Y0.8317 Z0.1411 I0.0015 J-0.0957
X1.3254 Y0.8158 Z0.134 I0.0855 J0.0427
X1.27 Y0.9677 Z0.127 I-0.0755 J0.0585
X1.1573 Y0.8521 Z0.1199 I-0.02 J-0.0933
X1.3101 Y0.8007 Z0.1129 I0.0926 J0.0223
X1.2903 Y0.9605 Z0.1058 I-0.0602 J0.0737
X1.155 Y0.8735 Z0.0988 I-0.0403 J-0.086
X1.2918 Y0.7894 Z0.0917 I0.0949 J0.001
X1.3084 Y0.9489 Z0.0846 I-0.0419 J0.085
X1.1576 Y0.8948 Z0.0776 I-0.0584 J-0.0745
X1.2716 Y0.7825 Z0.0705 I0.0923 J-0.0203
X1.3233 Y0.9337 Z0.0635 I-0.0217 J0.0919
X1.1648 Y0.9148 Z0.0564 I-0.0733 J-0.0593
X1.2504 Y0.7803 Z0.0494 I0.0851 J-0.0404
X1.3344 Y0.9155 Z0.0423 I-0.0005 J0.094
X1.1764 Y0.9327 Z0.0353 I-0.0844 J-0.0411
X1.2293 Y0.783 Z0.0282 I0.0735 J-0.0582
X1.3411 Y0.8954 Z0.0212 I0.0206 J0.0914
X1.1916 Y0.9474 Z0.0141 I-0.0911 J-0.021
X1.2095 Y0.7903 Z0.0071 I0.0583 J-0.0729
X1.3432 Y0.8744 Z0. I0.0404 J0.0841
X1.1566 I-0.0933 J0.
X1.3432 I0.0933 J0.
G1 X1.3438 Y0.9105 F20
X1.345 Y0.9149
X1.346 Y0.9208
X1.3461 Y0.9268
X1.3455 Y0.9328
X1.3444 Y0.9387
X1.3396 Y0.9509
X1.3326 Y0.962
X1.3238 Y0.9716
X1.3133 Y0.9794
X1.3016 Y0.9852
X1.289 Y0.9888
X1.276 Y0.99
X1.2172
X1.2112 Y0.9897
X1.2052 Y0.9889
X1.1994 Y0.9877
X1.1934 Y0.9861
X1.1875 Y0.9841
X1.1815 Y0.9816
X1.1755 Y0.9786
X1.1696 Y0.9752
X1.1686 Y0.9745
X1.1571 Y0.9652
X1.1477 Y0.9538
X1.1408 Y0.9408
X1.1365 Y0.9267
X1.135 Y0.912
G3 X1.1608 Y0.8879 Z0.008 I0.025 J0.0009
X1.177 Y0.8946 I-0.0009 J0.025
G1 X1.2333 Y0.9467
G3 X1.2413 Y0.9642 I-0.017 J0.0184
X1.2172 Y0.99 Z0. I-0.025 J0.0009
G1 X1.1696
X1.1679
X1.1654 Y0.9898
X1.1628 Y0.9894
X1.1597 Y0.9885
X1.1577 Y0.9876
X1.1556 Y0.9866
X1.1515 Y0.9838
X1.1477 Y0.9812
X1.1433 Y0.9779
X1.1409 Y0.9754
X1.1391 Y0.973
X1.1379 Y0.9709
X1.1369 Y0.9689
X1.1356 Y0.9648
X1.1351 Y0.9615
X1.135 Y0.9565
Y0.8415
X1.1353 Y0.8355
X1.1361 Y0.8296
X1.1372 Y0.8237
X1.1388 Y0.8179
X1.1408 Y0.812
X1.1432 Y0.806
X1.1461 Y0.8001
X1.1494 Y0.7943
X1.1532 Y0.7885
X1.1574 Y0.7829
X1.1621 Y0.7774
X1.1672 Y0.7722
X1.1727 Y0.7672
X1.1787 Y0.7625
X1.185 Y0.7581
X1.1916 Y0.7541
X1.1986 Y0.7505
X1.2059 Y0.7473
X1.2134 Y0.7446
X1.2212 Y0.7423
X1.2291 Y0.7405
X1.2373 Y0.7392
X1.2455 Y0.7384
X1.2539 Y0.7382
X1.2622 Y0.7385
X1.2706 Y0.7393
X1.279 Y0.7407
X1.2873 Y0.7426
X1.2955 Y0.745
X1.3035 Y0.748
X1.3114 Y0.7515
X1.319 Y0.7555
X1.3264 Y0.76
X1.3335 Y0.765
X1.3403 Y0.7704
X1.3405 Y0.7706
X1.349 Y0.7798
X1.3558 Y0.7902
X1.3609 Y0.8016
X1.364 Y0.8136
X1.365 Y0.8261
Y0.9446
X1.3647 Y0.9506
X1.364 Y0.9566
X1.3636 Y0.9582
X1.361 Y0.9665
X1.3568 Y0.9742
X1.3512 Y0.981
X1.3444 Y0.9866
G3 X1.311 Y0.9749 Z0.008 I-0.0108 J-0.0225
X1.3099 Y0.9558 I0.0225 J-0.0109
G1 X1.3164 Y0.9372
G3 X1.3392 Y0.9205 I0.0236 J0.0082
X1.365 Y0.9446 Z0. I0.0009 J0.025
G1 Y0.9565
X1.3649 Y0.9615
X1.3644 Y0.9648
X1.3631 Y0.9689
X1.3621 Y0.9709
X1.3609 Y0.973
X1.3591 Y0.9754
X1.3567 Y0.9779
X1.3523 Y0.9812
X1.3485 Y0.9838
X1.3444 Y0.9866
X1.3423 Y0.9876
X1.3403 Y0.9885
X1.3372 Y0.9894
X1.3346 Y0.9898
X1.3321 Y0.99
X1.276
G3 X1.2586 Y0.9821 Z0.004 I0.0009 J-0.025
G1 X1.2512 Y0.9743 Z0.0062
X1.2451 Y0.9678 Z0.008
X1.1563 Y0.8733
X1.1502 Y0.8667 Z0.0062
X1.1418 Y0.8578 Z0.0037
G3 X1.135 Y0.8415 Z0. I0.0182 J-0.0171
G1 Y0.7922
X1.1353 Y0.7859
X1.136 Y0.7799
X1.1372 Y0.7741
X1.139 Y0.7683
X1.1411 Y0.7627
X1.1437 Y0.7573
X1.1466 Y0.752
X1.1501 Y0.7466
X1.1541 Y0.7412
X1.1585 Y0.7359
X1.1635 Y0.7307
X1.1692 Y0.7255
X1.1753 Y0.7205
X1.182 Y0.7158
X1.1892 Y0.7114
X1.1968 Y0.7073
X1.205 Y0.7037
X1.2136 Y0.7004
X1.2227 Y0.6976
X1.2322 Y0.6954
X1.2419 Y0.6938
X1.2519 Y0.6928
X1.2621 Y0.6924
X1.2724 Y0.6926
X1.2829 Y0.6936
X1.2935 Y0.6952
X1.3039 Y0.6975
X1.3132 Y0.7002
X1.3154 Y0.7009
X1.3273 Y0.7064
X1.338 Y0.7139
X1.3473 Y0.7232
X1.3549 Y0.7339
X1.3604 Y0.7458
X1.3639 Y0.7584
X1.365 Y0.7715
Y0.8261
G3 X1.3392 Y0.8502 Z0.008 I-0.025 J-0.0009
G1 X1.3354 Y0.8498
X1.1608 Y0.8169
X1.1554 Y0.8159 Z0.0069
G3 X1.135 Y0.7922 Z0. I0.0046 J-0.0246
G1 Y0.7466
X1.1353 Y0.7406
X1.1361 Y0.7347
X1.1374 Y0.7288
X1.1392 Y0.7231
X1.1414 Y0.7175
X1.1441 Y0.7121
X1.1471 Y0.7068
X1.1507 Y0.7014
X1.155 Y0.6958
X1.1598 Y0.6902
X1.1652 Y0.6848
X1.1713 Y0.6793
X1.1781 Y0.674
X1.1854 Y0.669
X1.1933 Y0.6643
X1.2019 Y0.6599
X1.2112 Y0.6558
X1.2211 Y0.6523
X1.2314 Y0.6493
X1.2422 Y0.6469
X1.2531 Y0.6452
X1.2633 Y0.6443
X1.274 Y0.6441
X1.2834 Y0.6444
X1.2935 Y0.6455
X1.3025 Y0.647
X1.3114 Y0.6491
X1.3118 Y0.6492
X1.3245 Y0.6544
X1.336 Y0.6617
X1.3459 Y0.671
X1.3541 Y0.682
X1.3601 Y0.6942
X1.3638 Y0.7074
X1.365 Y0.721
Y0.7715
G3 X1.3392 Y0.7956 Z0.008 I-0.025 J-0.0009
G1 X1.3366 Y0.7954
X1.1608 Y0.7711
X1.1566 Y0.7705 Z0.0071
G3 X1.135 Y0.7466 Z0. I0.0034 J-0.0248
G1 Y0.7018
X1.1353 Y0.6958
X1.1361 Y0.6899
X1.1404 Y0.677
X1.1471 Y0.6652
X1.1559 Y0.6549
X1.1665 Y0.6464
X1.1785 Y0.6402
X1.1915 Y0.6363
X1.205 Y0.635
G3 X1.2292 Y0.6608 Z0.008 I-0.0009 J0.025
X1.2212 Y0.6783 I-0.025 J-0.0009
G1 X1.177 Y0.7193
G3 X1.1608 Y0.7259 I-0.017 J-0.0183
X1.135 Y0.7018 Z0. I-0.0009 J-0.025
G1 Y0.6854
X1.1351 Y0.6831
X1.1356 Y0.6802
X1.1364 Y0.6772
X1.1444 Y0.6525
X1.1461 Y0.6484
X1.1473 Y0.6464
X1.1488 Y0.6443
X1.1515 Y0.6414
X1.1536 Y0.6398
X1.1556 Y0.6384
X1.1577 Y0.6374
X1.1597 Y0.6365
X1.1609 Y0.6361
X1.1644 Y0.6353
X1.1679 Y0.635
X1.3239
X1.3252
X1.3264
X1.3324 Y0.6353
X1.3405 Y0.638
X1.3477 Y0.6427
X1.3533 Y0.6492
X1.357 Y0.657
G3 X1.3524 Y0.6836 Z0.0057 I-0.0299 J0.0086
X1.3444 Y0.6914 Z0.008 I-0.025 J-0.0179
X1.2977 Y0.6578 I-0.017 J-0.0257
X1.3264 Y0.635 Z0. I0.0297 J0.0079
G1 X1.3321
X1.3356 Y0.6353
X1.3391 Y0.6361
X1.3403 Y0.6365
X1.3423 Y0.6374
X1.3444 Y0.6384
X1.3464 Y0.6398
X1.3485 Y0.6414
X1.3512 Y0.6443
X1.3527 Y0.6464
X1.3539 Y0.6484
X1.3556 Y0.6525
X1.3636 Y0.6772
X1.3644 Y0.6802
X1.3649 Y0.6831
X1.365 Y0.6854
Y0.721
G3 X1.3474 Y0.744 I-0.025 J-0.0009
G1 X1.3436 Y0.7452 Z0.0003
X1.34 Y0.7463 Z0.0012
X1.3365 Y0.7473 Z0.0027
X1.3333 Y0.7483 Z0.0048
X1.3305 Y0.7492 Z0.0073
X1.3281 Y0.75 Z0.0103
X1.3261 Y0.7506 Z0.0137
X1.3247 Y0.751 Z0.0173
X1.3238 Y0.7513 Z0.0211
X1.3235 Y0.7514 Z0.025
Z1.52
M5
G53
G49
G28
