[test_tenon_t4]
[Machine]
[  vendor: Nova Labs]
[  model: ShopSaber]
[  description: Generic 3-axis]
[T4 D=0.125 CR=0. - ZMIN=0. - flat end mill]
G90
G20
[When using Fusion for Personal Use, the feedrate of rapid]
[moves is reduced to match the feedrate of cutting moves,]
[which can increase machining time. Unrestricted rapid moves]
[are available with a Fusion Subscription.]
G53 Z
[Contour2]
M0
[MANUAL TOOL CHANGE TO T4]
S10000
M3
G4 X4.
G90
G0 X0.3773 Y1.649
Z1.52
G1 Z0.9718 F12.
Z0.9356 F10.
Z0.8925 F12.
X0.3777 Z0.8897 F12.
X0.3786 Z0.8871
X0.3801 Z0.8847
X0.3821 Z0.8827
X0.3844 Z0.8812
X0.3871 Z0.8803
X0.3898 Z0.88
X0.425
G3 X0.4375 Y1.6615 I0. J0.0125
G1 Y1.9374
X0.4374 Y1.9375
X0.0625
G3 X0.0533 Y1.9165 I0. J-0.0125
G1 X0.328 Y1.6208
G3 X0.3453 Y1.608 I0.0435 J0.0404
G1 X0.3456 Y1.6078 F13.3333
G3 X0.3973 Y1.7147 Z0.8735 I0.0258 J0.0535
G3 X0.3456 Y1.6078 Z0.867 I-0.0258 J-0.0535
G3 X0.3973 Y1.7147 Z0.8605 I0.0258 J0.0535
G3 X0.3456 Y1.6078 Z0.8539 I-0.0258 J-0.0535
G3 X0.3973 Y1.7147 Z0.8474 I0.0258 J0.0535
G3 X0.3456 Y1.6078 Z0.8409 I-0.0258 J-0.0535
G3 X0.371 Y1.6019 Z0.84 I0.0258 J0.0535
G1 X0.3715
X0.3779 F12.
G3 X0.4375 Y1.6615 I0. J0.0596
G1 Y1.9374
X0.4374 Y1.9375
X0.0625
G3 X0.0533 Y1.9165 I0. J-0.0125
G1 X0.328 Y1.6208
G3 X0.3453 Y1.608 I0.0435 J0.0404
G1 X0.3456 Y1.6078 F13.3333
G3 X0.3973 Y1.7147 Z0.8335 I0.0258 J0.0535
G3 X0.3456 Y1.6078 Z0.827 I-0.0258 J-0.0535
G3 X0.3973 Y1.7147 Z0.8205 I0.0258 J0.0535
G3 X0.3456 Y1.6078 Z0.8139 I-0.0258 J-0.0535
G3 X0.3973 Y1.7147 Z0.8074 I0.0258 J0.0535
G3 X0.3456 Y1.6078 Z0.8009 I-0.0258 J-0.0535
G3 X0.371 Y1.6019 Z0.8 I0.0258 J0.0535
G1 X0.3715
X0.3779 F12.
G3 X0.4375 Y1.6615 I0. J0.0596
G1 Y1.9374
X0.4374 Y1.9375
X0.0625
G3 X0.0533 Y1.9165 I0. J-0.0125
G1 X0.328 Y1.6208
G3 X0.3453 Y1.608 I0.0435 J0.0404
G1 X0.3456 Y1.6078 F13.3333
G3 X0.3973 Y1.7147 Z0.7935 I0.0258 J0.0535
G3 X0.3456 Y1.6078 Z0.787 I-0.0258 J-0.0535
G3 X0.3973 Y1.7147 Z0.7805 I0.0258 J0.0535
G3 X0.3456 Y1.6078 Z0.7739 I-0.0258 J-0.0535
G3 X0.3973 Y1.7147 Z0.7674 I0.0258 J0.0535
G3 X0.3456 Y1.6078 Z0.7609 I-0.0258 J-0.0535
G3 X0.371 Y1.6019 Z0.76 I0.0258 J0.0535
G1 X0.3715
X0.3779 F12.
G3 X0.4375 Y1.6615 I0. J0.0596
G1 Y1.9374
X0.4374 Y1.9375
X0.0625
G3 X0.0533 Y1.9165 I0. J-0.0125
G1 X0.328 Y1.6208
G3 X0.3453 Y1.608 I0.0435 J0.0404
G1 X0.3456 Y1.6078 F13.3333
G3 X0.3973 Y1.7147 Z0.7535 I0.0258 J0.0535
G3 X0.3456 Y1.6078 Z0.747 I-0.0258 J-0.0535
G3 X0.3973 Y1.7147 Z0.7405 I0.0258 J0.0535
G3 X0.3456 Y1.6078 Z0.7339 I-0.0258 J-0.0535
G3 X0.3973 Y1.7147 Z0.7274 I0.0258 J0.0535
G3 X0.3456 Y1.6078 Z0.7209 I-0.0258 J-0.0535
G3 X0.371 Y1.6019 Z0.72 I0.0258 J0.0535
G1 X0.3715
X0.3779 F12.
G3 X0.4375 Y1.6615 I0. J0.0596
G1 Y1.9374
X0.4374 Y1.9375
X0.0625
G3 X0.0533 Y1.9165 I0. J-0.0125
G1 X0.328 Y1.6208
G3 X0.3453 Y1.608 I0.0435 J0.0404
G1 X0.3456 Y1.6078 F13.3333
G3 X0.3973 Y1.7147 Z0.7135 I0.0258 J0.0535
G3 X0.3456 Y1.6078 Z0.707 I-0.0258 J-0.0535
G3 X0.3973 Y1.7147 Z0.7005 I0.0258 J0.0535
G3 X0.3456 Y1.6078 Z0.6939 I-0.0258 J-0.0535
G3 X0.3973 Y1.7147 Z0.6874 I0.0258 J0.0535
G3 X0.3456 Y1.6078 Z0.6809 I-0.0258 J-0.0535
G3 X0.371 Y1.6019 Z0.68 I0.0258 J0.0535
G1 X0.3715
X0.3779 F12.
G3 X0.4375 Y1.6615 I0. J0.0596
G1 Y1.9374
X0.4374 Y1.9375
X0.0625
G3 X0.0533 Y1.9165 I0. J-0.0125
G1 X0.328 Y1.6208
G3 X0.3453 Y1.608 I0.0435 J0.0404
G1 X0.3456 Y1.6078 F13.3333
G3 X0.3973 Y1.7147 Z0.6735 I0.0258 J0.0535
G3 X0.3456 Y1.6078 Z0.667 I-0.0258 J-0.0535
G3 X0.3973 Y1.7147 Z0.6605 I0.0258 J0.0535
G3 X0.3456 Y1.6078 Z0.6539 I-0.0258 J-0.0535
G3 X0.3973 Y1.7147 Z0.6474 I0.0258 J0.0535
G3 X0.3456 Y1.6078 Z0.6409 I-0.0258 J-0.0535
G3 X0.371 Y1.6019 Z0.64 I0.0258 J0.0535
G1 X0.3715
X0.3779 F12.
G3 X0.4375 Y1.6615 I0. J0.0596
G1 Y1.9374
X0.4374 Y1.9375
X0.0625
G3 X0.0533 Y1.9165 I0. J-0.0125
G1 X0.328 Y1.6208
G3 X0.3453 Y1.608 I0.0435 J0.0404
G1 X0.3456 Y1.6078 F13.3333
G3 X0.3973 Y1.7147 Z0.6335 I0.0258 J0.0535
G3 X0.3456 Y1.6078 Z0.627 I-0.0258 J-0.0535
G3 X0.3973 Y1.7147 Z0.6205 I0.0258 J0.0535
G3 X0.3456 Y1.6078 Z0.6139 I-0.0258 J-0.0535
G3 X0.3973 Y1.7147 Z0.6074 I0.0258 J0.0535
G3 X0.3456 Y1.6078 Z0.6009 I-0.0258 J-0.0535
G3 X0.371 Y1.6019 Z0.6 I0.0258 J0.0535
G1 X0.3715
X0.3779 F12.
G3 X0.4375 Y1.6615 I0. J0.0596
G1 Y1.9374
X0.4374 Y1.9375
X0.0625
G3 X0.0533 Y1.9165 I0. J-0.0125
G1 X0.328 Y1.6208
G3 X0.3453 Y1.608 I0.0435 J0.0404
G1 X0.3456 Y1.6078 F13.3333
G3 X0.3973 Y1.7147 Z0.5935 I0.0258 J0.0535
G3 X0.3456 Y1.6078 Z0.587 I-0.0258 J-0.0535
G3 X0.3973 Y1.7147 Z0.5805 I0.0258 J0.0535
G3 X0.3456 Y1.6078 Z0.5739 I-0.0258 J-0.0535
G3 X0.3973 Y1.7147 Z0.5674 I0.0258 J0.0535
G3 X0.3456 Y1.6078 Z0.5609 I-0.0258 J-0.0535
G3 X0.371 Y1.6019 Z0.56 I0.0258 J0.0535
G1 X0.3715
X0.3779 F12.
G3 X0.4375 Y1.6615 I0. J0.0596
G1 Y1.9374
X0.4374 Y1.9375
X0.0625
G3 X0.0533 Y1.9165 I0. J-0.0125
G1 X0.328 Y1.6208
G3 X0.3453 Y1.608 I0.0435 J0.0404
G1 X0.3456 Y1.6078 F13.3333
G3 X0.3973 Y1.7147 Z0.5535 I0.0258 J0.0535
G3 X0.3456 Y1.6078 Z0.547 I-0.0258 J-0.0535
G3 X0.3973 Y1.7147 Z0.5405 I0.0258 J0.0535
G3 X0.3456 Y1.6078 Z0.5339 I-0.0258 J-0.0535
G3 X0.3973 Y1.7147 Z0.5274 I0.0258 J0.0535
G3 X0.3456 Y1.6078 Z0.5209 I-0.0258 J-0.0535
G3 X0.371 Y1.6019 Z0.52 I0.0258 J0.0535
G1 X0.3715
X0.3779 F12.
G3 X0.4375 Y1.6615 I0. J0.0596
G1 Y1.9374
X0.4374 Y1.9375
X0.0625
G3 X0.0533 Y1.9165 I0. J-0.0125
G1 X0.328 Y1.6208
G3 X0.3453 Y1.608 I0.0435 J0.0404
G1 X0.3456 Y1.6078 F13.3333
G3 X0.3973 Y1.7147 Z0.5135 I0.0258 J0.0535
G3 X0.3456 Y1.6078 Z0.507 I-0.0258 J-0.0535
G3 X0.3973 Y1.7147 Z0.5005 I0.0258 J0.0535
G3 X0.3456 Y1.6078 Z0.4939 I-0.0258 J-0.0535
G3 X0.3973 Y1.7147 Z0.4874 I0.0258 J0.0535
G3 X0.3456 Y1.6078 Z0.4809 I-0.0258 J-0.0535
G3 X0.371 Y1.6019 Z0.48 I0.0258 J0.0535
G1 X0.3715
X0.3779 F12.
G3 X0.4375 Y1.6615 I0. J0.0596
G1 Y1.9374
X0.4374 Y1.9375
X0.0625
G3 X0.0533 Y1.9165 I0. J-0.0125
G1 X0.328 Y1.6208
G3 X0.3453 Y1.608 I0.0435 J0.0404
G1 X0.3456 Y1.6078 F13.3333
G3 X0.3973 Y1.7147 Z0.4735 I0.0258 J0.0535
G3 X0.3456 Y1.6078 Z0.467 I-0.0258 J-0.0535
G3 X0.3973 Y1.7147 Z0.4605 I0.0258 J0.0535
G3 X0.3456 Y1.6078 Z0.4539 I-0.0258 J-0.0535
G3 X0.3973 Y1.7147 Z0.4474 I0.0258 J0.0535
G3 X0.3456 Y1.6078 Z0.4409 I-0.0258 J-0.0535
G3 X0.371 Y1.6019 Z0.44 I0.0258 J0.0535
G1 X0.3715
X0.3779 F12.
G3 X0.4375 Y1.6615 I0. J0.0596
G1 Y1.9374
X0.4374 Y1.9375
X0.0625
G3 X0.0533 Y1.9165 I0. J-0.0125
G1 X0.328 Y1.6208
G3 X0.3453 Y1.608 I0.0435 J0.0404
G1 X0.3456 Y1.6078 F13.3333
G3 X0.3973 Y1.7147 Z0.4335 I0.0258 J0.0535
G3 X0.3456 Y1.6078 Z0.427 I-0.0258 J-0.0535
G3 X0.3973 Y1.7147 Z0.4205 I0.0258 J0.0535
G3 X0.3456 Y1.6078 Z0.4139 I-0.0258 J-0.0535
G3 X0.3973 Y1.7147 Z0.4074 I0.0258 J0.0535
G3 X0.3456 Y1.6078 Z0.4009 I-0.0258 J-0.0535
G3 X0.371 Y1.6019 Z0.4 I0.0258 J0.0535
G1 X0.3715
X0.3779 F12.
G3 X0.4375 Y1.6615 I0. J0.0596
G1 Y1.9374
X0.4374 Y1.9375
X0.0625
G3 X0.0533 Y1.9165 I0. J-0.0125
G1 X0.328 Y1.6208
G3 X0.3453 Y1.608 I0.0435 J0.0404
G1 X0.3456 Y1.6078 F13.3333
G3 X0.3973 Y1.7147 Z0.3935 I0.0258 J0.0535
G3 X0.3456 Y1.6078 Z0.387 I-0.0258 J-0.0535
G3 X0.3973 Y1.7147 Z0.3805 I0.0258 J0.0535
G3 X0.3456 Y1.6078 Z0.3739 I-0.0258 J-0.0535
G3 X0.3973 Y1.7147 Z0.3674 I0.0258 J0.0535
G3 X0.3456 Y1.6078 Z0.3609 I-0.0258 J-0.0535
G3 X0.371 Y1.6019 Z0.36 I0.0258 J0.0535
G1 X0.3715
X0.3779 F12.
G3 X0.4375 Y1.6615 I0. J0.0596
G1 Y1.9374
X0.4374 Y1.9375
X0.0625
G3 X0.0533 Y1.9165 I0. J-0.0125
G1 X0.328 Y1.6208
G3 X0.3453 Y1.608 I0.0435 J0.0404
G1 X0.3456 Y1.6078 F13.3333
G3 X0.3973 Y1.7147 Z0.3535 I0.0258 J0.0535
G3 X0.3456 Y1.6078 Z0.347 I-0.0258 J-0.0535
G3 X0.3973 Y1.7147 Z0.3405 I0.0258 J0.0535
G3 X0.3456 Y1.6078 Z0.3339 I-0.0258 J-0.0535
G3 X0.3973 Y1.7147 Z0.3274 I0.0258 J0.0535
G3 X0.3456 Y1.6078 Z0.3209 I-0.0258 J-0.0535
G3 X0.371 Y1.6019 Z0.32 I0.0258 J0.0535
G1 X0.3715
X0.3779 F12.
G3 X0.4375 Y1.6615 I0. J0.0596
G1 Y1.9374
X0.4374 Y1.9375
X0.0625
G3 X0.0533 Y1.9165 I0. J-0.0125
G1 X0.328 Y1.6208
G3 X0.3453 Y1.608 I0.0435 J0.0404
G1 X0.3456 Y1.6078 F13.3333
G3 X0.3973 Y1.7147 Z0.3135 I0.0258 J0.0535
G3 X0.3456 Y1.6078 Z0.307 I-0.0258 J-0.0535
G3 X0.3973 Y1.7147 Z0.3005 I0.0258 J0.0535
G3 X0.3456 Y1.6078 Z0.2939 I-0.0258 J-0.0535
G3 X0.3973 Y1.7147 Z0.2874 I0.0258 J0.0535
G3 X0.3456 Y1.6078 Z0.2809 I-0.0258 J-0.0535
G3 X0.371 Y1.6019 Z0.28 I0.0258 J0.0535
G1 X0.3715
X0.3779 F12.
G3 X0.4375 Y1.6615 I0. J0.0596
G1 Y1.9374
X0.4374 Y1.9375
X0.0625
G3 X0.0533 Y1.9165 I0. J-0.0125
G1 X0.328 Y1.6208
G3 X0.3453 Y1.608 I0.0435 J0.0404
G1 X0.3456 Y1.6078 F13.3333
G3 X0.3973 Y1.7147 Z0.2735 I0.0258 J0.0535
G3 X0.3456 Y1.6078 Z0.267 I-0.0258 J-0.0535
G3 X0.3973 Y1.7147 Z0.2605 I0.0258 J0.0535
G3 X0.3456 Y1.6078 Z0.2539 I-0.0258 J-0.0535
G3 X0.3973 Y1.7147 Z0.2474 I0.0258 J0.0535
G3 X0.3456 Y1.6078 Z0.2409 I-0.0258 J-0.0535
G3 X0.371 Y1.6019 Z0.24 I0.0258 J0.0535
G1 X0.3715
X0.3779 F12.
G3 X0.4375 Y1.6615 I0. J0.0596
G1 Y1.9374
X0.4374 Y1.9375
X0.0625
G3 X0.0533 Y1.9165 I0. J-0.0125
G1 X0.328 Y1.6208
G3 X0.3453 Y1.608 I0.0435 J0.0404
G1 X0.3456 Y1.6078 F13.3333
G3 X0.3973 Y1.7147 Z0.2335 I0.0258 J0.0535
G3 X0.3456 Y1.6078 Z0.227 I-0.0258 J-0.0535
G3 X0.3973 Y1.7147 Z0.2205 I0.0258 J0.0535
G3 X0.3456 Y1.6078 Z0.2139 I-0.0258 J-0.0535
G3 X0.3973 Y1.7147 Z0.2074 I0.0258 J0.0535
G3 X0.3456 Y1.6078 Z0.2009 I-0.0258 J-0.0535
G3 X0.371 Y1.6019 Z0.2 I0.0258 J0.0535
G1 X0.3715
X0.3779 F12.
G3 X0.4375 Y1.6615 I0. J0.0596
G1 Y1.9374
X0.4374 Y1.9375
X0.0625
G3 X0.0533 Y1.9165 I0. J-0.0125
G1 X0.328 Y1.6208
G3 X0.3453 Y1.608 I0.0435 J0.0404
G1 X0.3456 Y1.6078 F13.3333
G3 X0.3973 Y1.7147 Z0.1935 I0.0258 J0.0535
G3 X0.3456 Y1.6078 Z0.187 I-0.0258 J-0.0535
G3 X0.3973 Y1.7147 Z0.1805 I0.0258 J0.0535
G3 X0.3456 Y1.6078 Z0.1739 I-0.0258 J-0.0535
G3 X0.3973 Y1.7147 Z0.1674 I0.0258 J0.0535
G3 X0.3456 Y1.6078 Z0.1609 I-0.0258 J-0.0535
G3 X0.371 Y1.6019 Z0.16 I0.0258 J0.0535
G1 X0.3715
X0.3779 F12.
G3 X0.4375 Y1.6615 I0. J0.0596
G1 Y1.9374
X0.4374 Y1.9375
X0.0625
G3 X0.0533 Y1.9165 I0. J-0.0125
G1 X0.328 Y1.6208
G3 X0.3453 Y1.608 I0.0435 J0.0404
G1 X0.3456 Y1.6078 F13.3333
G3 X0.3973 Y1.7147 Z0.1535 I0.0258 J0.0535
G3 X0.3456 Y1.6078 Z0.147 I-0.0258 J-0.0535
G3 X0.3973 Y1.7147 Z0.1405 I0.0258 J0.0535
G3 X0.3456 Y1.6078 Z0.1339 I-0.0258 J-0.0535
G3 X0.3973 Y1.7147 Z0.1274 I0.0258 J0.0535
G3 X0.3456 Y1.6078 Z0.1209 I-0.0258 J-0.0535
G3 X0.371 Y1.6019 Z0.12 I0.0258 J0.0535
G1 X0.3715
X0.3779 F12.
G3 X0.4375 Y1.6615 I0. J0.0596
G1 Y1.9374
X0.4374 Y1.9375
X0.0625
G3 X0.0533 Y1.9165 I0. J-0.0125
G1 X0.328 Y1.6208
G3 X0.3453 Y1.608 I0.0435 J0.0404
G1 X0.3456 Y1.6078 F13.3333
G3 X0.3973 Y1.7147 Z0.1135 I0.0258 J0.0535
G3 X0.3456 Y1.6078 Z0.107 I-0.0258 J-0.0535
G3 X0.3973 Y1.7147 Z0.1005 I0.0258 J0.0535
G3 X0.3456 Y1.6078 Z0.0939 I-0.0258 J-0.0535
G3 X0.3973 Y1.7147 Z0.0874 I0.0258 J0.0535
G3 X0.3456 Y1.6078 Z0.0809 I-0.0258 J-0.0535
G3 X0.371 Y1.6019 Z0.08 I0.0258 J0.0535
G1 X0.3715
X0.3779 F12.
G3 X0.4375 Y1.6615 I0. J0.0596
G1 Y1.9374
X0.4374 Y1.9375
X0.0625
G3 X0.0533 Y1.9165 I0. J-0.0125
G1 X0.328 Y1.6208
G3 X0.3453 Y1.608 I0.0435 J0.0404
G1 X0.3456 Y1.6078 F13.3333
G3 X0.3973 Y1.7147 Z0.0735 I0.0258 J0.0535
G3 X0.3456 Y1.6078 Z0.067 I-0.0258 J-0.0535
G3 X0.3973 Y1.7147 Z0.0605 I0.0258 J0.0535
G3 X0.3456 Y1.6078 Z0.0539 I-0.0258 J-0.0535
G3 X0.3973 Y1.7147 Z0.0474 I0.0258 J0.0535
G3 X0.3456 Y1.6078 Z0.0409 I-0.0258 J-0.0535
G3 X0.371 Y1.6019 Z0.04 I0.0258 J0.0535
G1 X0.3715
X0.3779 F12.
G3 X0.4375 Y1.6615 I0. J0.0596
G1 Y1.9374
X0.4374 Y1.9375
X0.0625
G3 X0.0533 Y1.9165 I0. J-0.0125
G1 X0.328 Y1.6208
G3 X0.3453 Y1.608 I0.0435 J0.0404
G1 X0.3456 Y1.6078 F13.3333
G3 X0.3973 Y1.7147 Z0.0335 I0.0258 J0.0535
G3 X0.3456 Y1.6078 Z0.027 I-0.0258 J-0.0535
G3 X0.3973 Y1.7147 Z0.0205 I0.0258 J0.0535
G3 X0.3456 Y1.6078 Z0.0139 I-0.0258 J-0.0535
G3 X0.3973 Y1.7147 Z0.0074 I0.0258 J0.0535
G3 X0.3456 Y1.6078 Z0.0009 I-0.0258 J-0.0535
G3 X0.371 Y1.6019 Z0. I0.0258 J0.0535
G1 X0.3715
X0.3779 F12.
G3 X0.4375 Y1.6615 I0. J0.0596
G1 Y1.9374
X0.4374 Y1.9375
X0.0625
G3 X0.05 Y1.925 I0. J-0.0125
G1 Y1.9222 Z0.0003
Y1.9196 Z0.0012
Y1.9172 Z0.0027
Y1.9152 Z0.0047
Y1.9137 Z0.0071
Y1.9128 Z0.0097
Y1.9125 Z0.0125
Z1.12
X1.1872 Y0.8861
Z0.9345
Y0.8862 Z0.9331
Y0.8864 Z0.9318
X1.1873 Y0.8868 Z0.9305
Y0.8873 Z0.9292
Y0.8879 Z0.928
X1.1874 Y0.8887 Z0.9268
Y0.8896 Z0.9258
Y0.8906 Z0.9249
Y0.8917 Z0.9241
Y0.8929 Z0.9234
X1.1873 Y0.8941 Z0.9228
X1.1872 Y0.8954 Z0.9224
X1.1871 Y0.8968 Z0.9221
X1.1869 Y0.8981 Z0.922
G3 X1.0693 Y0.8834 Z0.9155 I-0.0588 J-0.0074
G3 X1.1869 Y0.8981 Z0.909 I0.0588 J0.0074
G3 X1.0693 Y0.8834 Z0.9025 I-0.0588 J-0.0074
G3 X1.1869 Y0.8981 Z0.896 I0.0588 J0.0074
G3 X1.0693 Y0.8834 Z0.8895 I-0.0588 J-0.0074
G3 X1.1869 Y0.8981 Z0.883 I0.0588 J0.0074
G3 X1.1286 Y0.95 Z0.88 I-0.0588 J-0.0074
G1 X1.1281
X1.075
G3 X1.0625 Y0.9375 I0. J-0.0125
G1 Y0.5626
X1.0626 Y0.5625
X1.4374
X1.4375 Y0.5626
Y1.0624
X1.4374 Y1.0625
X1.0626
X1.0625 Y1.0624
Y0.9375
Y0.9275
Y0.9176
Y0.9076 Z0.8799
Y0.8976
Y0.8877 Z0.8798
Y0.8777
Y0.8677 Z0.8797
Y0.8578 Z0.8796
Y0.8478 Z0.8795
Y0.8378 Z0.8794
Y0.8278 Z0.8793
Y0.8179 Z0.8792
Y0.8079 Z0.879
Y0.7979 Z0.8789
Y0.788 Z0.8787
Y0.778 Z0.8785
Y0.768 Z0.8784
Y0.758 Z0.8782
Y0.7481 Z0.878
Y0.7431 Z0.8779
Y0.7381 Z0.8778
Y0.7331 Z0.8776
Y0.7281 Z0.8775
Y0.7231 Z0.8774
Y0.7182 Z0.8773
Y0.7132 Z0.8772
Y0.7082 Z0.8771
Y0.7032 Z0.877
Y0.6982 Z0.8768
Y0.6932 Z0.8767
Y0.6882 Z0.8766
Y0.6833 Z0.8765
Y0.6783 Z0.8763
Y0.6733 Z0.8762
Y0.6683 Z0.8761
Y0.6633 Z0.8759
Y0.6583 Z0.8758
Y0.6533 Z0.8756
Y0.6484 Z0.8755
Y0.6434 Z0.8754
Y0.6384 Z0.8752
Y0.6334 Z0.8751
Y0.6284 Z0.8749
Y0.6234 Z0.8748
Y0.6184 Z0.8746
Y0.6135 Z0.8745
Y0.6085 Z0.8743
Y0.6035 Z0.8741
Y0.5985 Z0.874
Y0.5935 Z0.8738
Y0.5885 Z0.8737
Y0.5835 Z0.8735
Y0.5786 Z0.8733
Y0.5736 Z0.8732
Y0.5686 Z0.873
Y0.5643 Z0.8729
Y0.5627 Z0.8728
Y0.5626
X1.0626 Y0.5625
X1.0629
X1.0641
X1.0664
X1.0714 Z0.8726
X1.0814 Z0.8722
X1.0864 Z0.8721
X1.0914 Z0.8719
X1.0963 Z0.8717
X1.1013 Z0.8715
X1.1063 Z0.8714
X1.1113 Z0.8712
X1.1163 Z0.871
X1.1213 Z0.8708
X1.1263 Z0.8707
X1.1312 Z0.8705
X1.1362 Z0.8703
X1.1412 Z0.8701
X1.1462 Z0.87
X1.1512 Z0.8698
X1.1562 Z0.8696
X1.1612 Z0.8694
X1.1661 Z0.8693
X1.1711 Z0.8691
X1.1761 Z0.8689
X1.1811 Z0.8688
X1.1861 Z0.8686
X1.1911 Z0.8684
X1.1961 Z0.8682
X1.201 Z0.8681
X1.206 Z0.8679
X1.211 Z0.8677
X1.221 Z0.8674
X1.2359 Z0.8668
X1.2509 Z0.8663
X1.2658 Z0.8658
X1.2808 Z0.8653
X1.2958 Z0.8647
X1.3107 Z0.8642
X1.3307 Z0.8635
X1.3556 Z0.8627
X1.3905 Z0.8614
X1.4354 Z0.8599
X1.4368 Z0.8598
X1.4372
X1.4374
X1.4375 Y0.5626
Y0.5629
Y0.5637
Y0.5661 Z0.8597
Y0.5704 Z0.8596
Y0.6352 Z0.8573
Y0.6601 Z0.8565
Y0.685 Z0.8556
Y0.7 Z0.8551
Y0.715 Z0.8545
Y0.7299 Z0.854
Y0.7449 Z0.8535
Y0.7598 Z0.853
Y0.7748 Z0.8525
Y0.7798 Z0.8523
Y0.7848 Z0.8521
Y0.7897 Z0.8519
Y0.7947 Z0.8518
Y0.7997 Z0.8516
Y0.8047 Z0.8514
Y0.8097 Z0.8512
Y0.8147 Z0.8511
Y0.8197 Z0.8509
Y0.8246 Z0.8507
Y0.8296 Z0.8505
Y0.8346 Z0.8504
Y0.8396 Z0.8502
Y0.8446 Z0.85
Y0.8496 Z0.8498
Y0.8545 Z0.8497
Y0.8595 Z0.8495
Y0.8645 Z0.8493
Y0.8695 Z0.8491
Y0.8745 Z0.849
Y0.8795 Z0.8488
Y0.8845 Z0.8486
Y0.8894 Z0.8484
Y0.8944 Z0.8483
Y0.8994 Z0.8481
Y0.9044 Z0.8479
Y0.9094 Z0.8478
Y0.9144 Z0.8476
Y0.9194 Z0.8474
Y0.9243 Z0.8472
Y0.9293 Z0.8471
Y0.9343 Z0.8469
Y0.9393 Z0.8467
Y0.9443 Z0.8466
Y0.9493 Z0.8464
Y0.9543 Z0.8462
Y0.9592 Z0.8461
Y0.9642 Z0.8459
Y0.9692 Z0.8458
Y0.9742 Z0.8456
Y0.9792 Z0.8454
Y0.9842 Z0.8453
Y0.9892 Z0.8451
Y0.9941 Z0.845
Y0.9991 Z0.8448
Y1.0041 Z0.8447
Y1.0091 Z0.8446
Y1.0141 Z0.8444
Y1.0191 Z0.8443
Y1.0241 Z0.8441
Y1.029 Z0.844
Y1.034 Z0.8439
Y1.039 Z0.8437
Y1.044 Z0.8436
Y1.049 Z0.8435
Y1.054 Z0.8433
Y1.059 Z0.8432
Y1.0615
Y1.0624 Z0.8431
Y1.0625
X1.4373
X1.4366
X1.4352
X1.431 Z0.843
X1.426 Z0.8429
X1.4211 Z0.8427
X1.4161 Z0.8426
X1.4111 Z0.8425
X1.4061 Z0.8424
X1.4011 Z0.8423
X1.3961 Z0.8422
X1.3911 Z0.8421
X1.3862 Z0.842
X1.3812 Z0.8419
X1.3712 Z0.8417
X1.3612 Z0.8415
X1.3513 Z0.8413
X1.3413 Z0.8412
X1.3313 Z0.841
X1.3213 Z0.8409
X1.3114 Z0.8407
X1.3014 Z0.8406
X1.2914 Z0.8405
X1.2815 Z0.8404
X1.2715 Z0.8403
X1.2615 Z0.8402
X1.2515
X1.2416 Z0.8401
X1.2316
X1.2216 Z0.84
X1.2117
X1.2017
X1.1996
X1.0626
X1.0625 Y1.0624
Y0.5626
X1.0626 Y0.5625
X1.4374
X1.4375 Y0.5626
Y1.0624
X1.4374 Y1.0625
X1.1996
X1.1896
X1.1797
X1.1697 Z0.8399
X1.1597
X1.1497 Z0.8398
X1.1398
X1.1298 Z0.8397
X1.1198 Z0.8396
X1.1099 Z0.8395
X1.0999 Z0.8394
X1.0899 Z0.8393
X1.0799 Z0.8392
X1.07 Z0.839
X1.0658 Z0.8389
X1.0632
X1.0626
X1.0625 Y1.0624
Y1.0621
Y1.0613
Y1.06
Y1.05 Z0.8387
Y1.04 Z0.8385
Y1.03 Z0.8384
Y1.0201 Z0.8382
Y1.0101 Z0.838
Y1.0051 Z0.8379
Y1.0001 Z0.8378
Y0.9951 Z0.8376
Y0.9902 Z0.8375
Y0.9852 Z0.8374
Y0.9802 Z0.8373
Y0.9752 Z0.8372
Y0.9702 Z0.8371
Y0.9652 Z0.837
Y0.9602 Z0.8368
Y0.9553 Z0.8367
Y0.9503 Z0.8366
Y0.9453 Z0.8365
Y0.9403 Z0.8363
Y0.9353 Z0.8362
Y0.9303 Z0.8361
Y0.9253 Z0.8359
Y0.9204 Z0.8358
Y0.9154 Z0.8356
Y0.9104 Z0.8355
Y0.9054 Z0.8354
Y0.9004 Z0.8352
Y0.8954 Z0.8351
Y0.8904 Z0.8349
Y0.8855 Z0.8348
Y0.8805 Z0.8346
Y0.8755 Z0.8345
Y0.8705 Z0.8343
Y0.8655 Z0.8341
Y0.8605 Z0.834
Y0.8555 Z0.8338
Y0.8506 Z0.8337
Y0.8456 Z0.8335
Y0.8406 Z0.8333
Y0.8356 Z0.8332
Y0.8306 Z0.833
Y0.8256 Z0.8328
Y0.8207 Z0.8327
Y0.8157 Z0.8325
Y0.8057 Z0.8321
Y0.8007 Z0.832
Y0.7957 Z0.8318
Y0.7907 Z0.8316
Y0.7858 Z0.8315
Y0.7808 Z0.8313
Y0.7758 Z0.8311
Y0.7708 Z0.8309
Y0.7658 Z0.8308
Y0.7608 Z0.8306
Y0.7558 Z0.8304
Y0.7509 Z0.8302
Y0.7459 Z0.8301
Y0.7409 Z0.8299
Y0.7359 Z0.8297
Y0.7309 Z0.8295
Y0.7259 Z0.8294
Y0.7209 Z0.8292
Y0.716 Z0.829
Y0.711 Z0.8288
Y0.706 Z0.8287
Y0.701 Z0.8285
Y0.696 Z0.8283
Y0.691 Z0.8281
Y0.686 Z0.828
Y0.6811 Z0.8278
Y0.6761 Z0.8276
Y0.6661 Z0.8273
Y0.6511 Z0.8267
Y0.6362 Z0.8262
Y0.6212 Z0.8257
Y0.6063 Z0.8252
Y0.5913 Z0.8247
Y0.5764 Z0.8241
Y0.5714 Z0.824
Y0.5669 Z0.8238
Y0.5645 Z0.8237
Y0.5632
Y0.5628
Y0.5626
X1.0626 Y0.5625
X1.0629
X1.0636
X1.0886 Z0.8228
X1.1185 Z0.8217
X1.1634 Z0.8202
X1.2381 Z0.8176
X1.273 Z0.8163
X1.298 Z0.8155
X1.3129 Z0.8149
X1.3279 Z0.8144
X1.3428 Z0.8139
X1.3578 Z0.8134
X1.3727 Z0.8129
X1.3877 Z0.8123
X1.3927 Z0.8122
X1.3977 Z0.812
X1.4027 Z0.8118
X1.4076 Z0.8116
X1.4126 Z0.8115
X1.4176 Z0.8113
X1.4226 Z0.8111
X1.4276 Z0.8109
X1.4326 Z0.8108
X1.4369 Z0.8107
X1.4374
X1.4375 Y0.5627 Z0.8106
Y0.5676 Z0.8105
Y0.5726 Z0.8103
Y0.5776 Z0.8102
Y0.5825 Z0.81
Y0.5875 Z0.8098
Y0.5925 Z0.8097
Y0.5975 Z0.8095
Y0.6025 Z0.8093
Y0.6075 Z0.8091
Y0.6125 Z0.809
Y0.6174 Z0.8088
Y0.6224 Z0.8086
Y0.6274 Z0.8084
Y0.6324 Z0.8083
Y0.6374 Z0.8081
Y0.6424 Z0.8079
Y0.6474 Z0.8077
Y0.6523 Z0.8076
Y0.6573 Z0.8074
Y0.6623 Z0.8072
Y0.6673 Z0.8071
Y0.6723 Z0.8069
Y0.6773 Z0.8067
Y0.6823 Z0.8065
Y0.6872 Z0.8064
Y0.6922 Z0.8062
Y0.6972 Z0.8061
Y0.7022 Z0.8059
Y0.7072 Z0.8057
Y0.7122 Z0.8056
Y0.7172 Z0.8054
Y0.7221 Z0.8053
Y0.7271 Z0.8051
Y0.7321 Z0.805
Y0.7371 Z0.8048
Y0.7421 Z0.8047
Y0.7471 Z0.8045
Y0.7521 Z0.8044
Y0.757 Z0.8043
Y0.762 Z0.8041
Y0.767 Z0.804
Y0.772 Z0.8039
Y0.777 Z0.8037
Y0.782 Z0.8036
Y0.787 Z0.8035
Y0.7919 Z0.8033
Y0.7969 Z0.8032
Y0.8019 Z0.8031
Y0.8069 Z0.803
Y0.8119 Z0.8028
Y0.8169 Z0.8027
Y0.8219 Z0.8026
Y0.8268 Z0.8025
Y0.8318 Z0.8024
Y0.8368 Z0.8023
Y0.8418 Z0.8022
Y0.8468 Z0.8021
Y0.8518 Z0.802
Y0.8568 Z0.8019
Y0.8667 Z0.8017
Y0.8767 Z0.8015
Y0.8867 Z0.8013
Y0.8966 Z0.8012
Y0.9066 Z0.801
Y0.9166 Z0.8009
Y0.9265 Z0.8007
Y0.9365 Z0.8006
Y0.9465 Z0.8005
Y0.9565 Z0.8004
Y0.9664 Z0.8003
Y0.9764 Z0.8002
Y0.9864
Y0.9963 Z0.8001
Y1.0063
Y1.0163 Z0.8
Y1.0263
Y1.0362
Y1.0379
Y1.0624
X1.4374 Y1.0625
X1.1996
X1.0626
X1.0625 Y1.0624
Y0.5626
X1.0626 Y0.5625
X1.4374
X1.4375 Y0.5626
Y1.0379
Y1.0479
Y1.0578
Y1.0624
X1.4374 Y1.0625
X1.4369
X1.4321 Z0.7999
X1.4222
X1.4122 Z0.7998
X1.4022
X1.3923 Z0.7997
X1.3823 Z0.7996
X1.3723 Z0.7995
X1.3623 Z0.7994
X1.3524 Z0.7993
X1.3424 Z0.7992
X1.3324 Z0.799
X1.3225 Z0.7989
X1.3125 Z0.7987
X1.3025 Z0.7985
X1.2926 Z0.7984
X1.2826 Z0.7982
X1.2726 Z0.798
X1.2676 Z0.7979
X1.2626 Z0.7978
X1.2577 Z0.7976
X1.2527 Z0.7975
X1.2477 Z0.7974
X1.2427 Z0.7973
X1.2377 Z0.7972
X1.2327 Z0.7971
X1.2277 Z0.797
X1.2228 Z0.7968
X1.2178 Z0.7967
X1.2128 Z0.7966
X1.2078 Z0.7965
X1.2028 Z0.7963
X1.1978 Z0.7962
X1.1928 Z0.7961
X1.1879 Z0.7959
X1.1829 Z0.7958
X1.1779 Z0.7956
X1.1729 Z0.7955
X1.1679 Z0.7954
X1.1629 Z0.7952
X1.1579 Z0.7951
X1.153 Z0.7949
X1.148 Z0.7948
X1.143 Z0.7946
X1.138 Z0.7945
X1.133 Z0.7943
X1.128 Z0.7941
X1.123 Z0.794
X1.1181 Z0.7938
X1.1131 Z0.7937
X1.1081 Z0.7935
X1.1031 Z0.7933
X1.0981 Z0.7932
X1.0931 Z0.793
X1.0881 Z0.7928
X1.0832 Z0.7927
X1.0782 Z0.7925
X1.0682 Z0.7921
X1.0632 Z0.792
X1.0628
X1.0625
Y1.0624
Y1.0622
Y1.0615 Z0.7919
Y1.0602
Y1.0579 Z0.7918
Y1.0532 Z0.7916
Y1.0482 Z0.7915
Y1.0432 Z0.7913
Y1.0382 Z0.7911
Y1.0333 Z0.791
Y1.0283 Z0.7908
Y1.0233 Z0.7906
Y1.0183 Z0.7904
Y1.0133 Z0.7903
Y1.0083 Z0.7901
Y1.0033 Z0.7899
Y0.9984 Z0.7897
Y0.9934 Z0.7896
Y0.9884 Z0.7894
Y0.9834 Z0.7892
Y0.9784 Z0.789
Y0.9734 Z0.7889
Y0.9684 Z0.7887
Y0.9635 Z0.7885
Y0.9585 Z0.7883
Y0.9535 Z0.7882
Y0.9485 Z0.788
Y0.9435 Z0.7878
Y0.9385 Z0.7876
Y0.9286 Z0.7873
Y0.9136 Z0.7868
Y0.8986 Z0.7862
Y0.8837 Z0.7857
Y0.8687 Z0.7852
Y0.8538 Z0.7847
Y0.8388 Z0.7842
Y0.8189 Z0.7835
Y0.7939 Z0.7826
Y0.759 Z0.7814
Y0.7092 Z0.7796
Y0.6344 Z0.777
Y0.6095 Z0.7762
Y0.5846 Z0.7753
Y0.5696 Z0.7748
Y0.5646 Z0.7746
Y0.5632
Y0.5627 Z0.7745
Y0.5626
X1.0626 Y0.5625
X1.0629
X1.0637
X1.0662 Z0.7744
X1.0704 Z0.7743
X1.0854 Z0.7738
X1.1003 Z0.7733
X1.1153 Z0.7727
X1.1302 Z0.7722
X1.1352 Z0.772
X1.1402 Z0.7719
X1.1452 Z0.7717
X1.1502 Z0.7715
X1.1552 Z0.7713
X1.1601 Z0.7712
X1.1651 Z0.771
X1.1701 Z0.7708
X1.1751 Z0.7706
X1.1801 Z0.7705
X1.1851 Z0.7703
X1.1901 Z0.7701
X1.195 Z0.7699
X1.2 Z0.7698
X1.205 Z0.7696
X1.21 Z0.7694
X1.215 Z0.7693
X1.22 Z0.7691
X1.225 Z0.7689
X1.2299 Z0.7687
X1.2349 Z0.7686
X1.2399 Z0.7684
X1.2449 Z0.7682
X1.2499 Z0.768
X1.2549 Z0.7679
X1.2648 Z0.7675
X1.2698 Z0.7673
X1.2748 Z0.7672
X1.2798 Z0.767
X1.2848 Z0.7668
X1.2898 Z0.7667
X1.2948 Z0.7665
X1.2997 Z0.7663
X1.3047 Z0.7662
X1.3097 Z0.766
X1.3147 Z0.7659
X1.3197 Z0.7657
X1.3247 Z0.7655
X1.3297 Z0.7654
X1.3346 Z0.7652
X1.3396 Z0.7651
X1.3446 Z0.7649
X1.3496 Z0.7648
X1.3546 Z0.7646
X1.3596 Z0.7645
X1.3646 Z0.7644
X1.3695 Z0.7642
X1.3745 Z0.7641
X1.3795 Z0.7639
X1.3845 Z0.7638
X1.3895 Z0.7637
X1.3945 Z0.7635
X1.3995 Z0.7634
X1.4044 Z0.7633
X1.4094 Z0.7632
X1.4144 Z0.763
X1.4194 Z0.7629
X1.4244 Z0.7628
X1.4294 Z0.7627
X1.4336 Z0.7626
X1.436 Z0.7625
X1.4368
X1.4374
X1.4375 Y0.5626
Y0.5629
Y0.5644
Y0.5694 Z0.7624
Y0.5743 Z0.7622
Y0.5793 Z0.7621
Y0.5843 Z0.762
Y0.5943 Z0.7618
Y0.6043 Z0.7617
Y0.6142 Z0.7615
Y0.6242 Z0.7613
Y0.6342 Z0.7611
Y0.6441 Z0.761
Y0.6541 Z0.7608
Y0.6641 Z0.7607
Y0.6741 Z0.7606
Y0.684 Z0.7605
Y0.694 Z0.7604
Y0.704 Z0.7603
Y0.7139 Z0.7602
Y0.7239
Y0.7339 Z0.7601
Y0.7439
Y0.7538 Z0.76
Y0.7638
Y0.774
Y1.0379
Y1.0624
X1.4374 Y1.0625
X1.0626
X1.0625 Y1.0624
Y0.5626
X1.0626 Y0.5625
X1.4374
X1.4375 Y0.5626
Y0.774
Y0.7839
Y0.7939
Y0.8039 Z0.7599
Y0.8139
Y0.8238 Z0.7598
Y0.8338
Y0.8438 Z0.7597
Y0.8537 Z0.7596
Y0.8637 Z0.7595
Y0.8737 Z0.7594
Y0.8837 Z0.7593
Y0.8936 Z0.7592
Y0.9036 Z0.759
Y0.9136 Z0.7589
Y0.9235 Z0.7587
Y0.9335 Z0.7585
Y0.9435 Z0.7584
Y0.9535 Z0.7582
Y0.9634 Z0.758
Y0.9684 Z0.7579
Y0.9734 Z0.7578
Y0.9784 Z0.7576
Y0.9834 Z0.7575
Y0.9884 Z0.7574
Y0.9933 Z0.7573
Y0.9983 Z0.7572
Y1.0033 Z0.7571
Y1.0083 Z0.757
Y1.0133 Z0.7568
Y1.0183 Z0.7567
Y1.0233 Z0.7566
Y1.0282 Z0.7565
Y1.0332 Z0.7563
Y1.0382 Z0.7562
Y1.0432 Z0.7561
Y1.0482 Z0.7559
Y1.0532 Z0.7558
Y1.0602 Z0.7556
Y1.0615 Z0.7555
Y1.0622
Y1.0625
X1.4374
X1.4372
X1.4368
X1.4318 Z0.7554
X1.4269 Z0.7552
X1.4219 Z0.7551
X1.4169 Z0.7549
X1.4119 Z0.7548
X1.4069 Z0.7546
X1.4019 Z0.7545
X1.3969 Z0.7543
X1.392 Z0.7541
X1.387 Z0.754
X1.382 Z0.7538
X1.377 Z0.7537
X1.372 Z0.7535
X1.367 Z0.7533
X1.362 Z0.7532
X1.3571 Z0.753
X1.3521 Z0.7528
X1.3471 Z0.7527
X1.3421 Z0.7525
X1.3321 Z0.7521
X1.3271 Z0.752
X1.3222 Z0.7518
X1.3172 Z0.7516
X1.3122 Z0.7515
X1.3072 Z0.7513
X1.3022 Z0.7511
X1.2972 Z0.7509
X1.2922 Z0.7508
X1.2873 Z0.7506
X1.2823 Z0.7504
X1.2773 Z0.7502
X1.2723 Z0.7501
X1.2673 Z0.7499
X1.2623 Z0.7497
X1.2573 Z0.7495
X1.2524 Z0.7494
X1.2474 Z0.7492
X1.2424 Z0.749
X1.2374 Z0.7488
X1.2324 Z0.7487
X1.2274 Z0.7485
X1.2224 Z0.7483
X1.2175 Z0.7481
X1.2125 Z0.748
X1.2075 Z0.7478
X1.2025 Z0.7476
X1.1925 Z0.7473
X1.1776 Z0.7467
X1.1626 Z0.7462
X1.1477 Z0.7457
X1.1327 Z0.7452
X1.1177 Z0.7447
X1.1028 Z0.7441
X1.0828 Z0.7434
X1.0679 Z0.7429
X1.0632 Z0.7428
X1.0628
X1.0625
Y1.0624
Y1.0622
Y1.0615
Y1.0602 Z0.7427
Y1.0579
Y1.023 Z0.7415
Y0.9781 Z0.7399
Y0.9033 Z0.7373
Y0.8784 Z0.7364
Y0.8535 Z0.7355
Y0.8385 Z0.735
Y0.8236 Z0.7345
Y0.8086 Z0.734
Y0.7936 Z0.7334
Y0.7787 Z0.7329
Y0.7637 Z0.7324
Y0.7587 Z0.7322
Y0.7538 Z0.7321
Y0.7488 Z0.7319
Y0.7438 Z0.7317
Y0.7388 Z0.7315
Y0.7338 Z0.7314
Y0.7288 Z0.7312
Y0.7238 Z0.731
Y0.7189 Z0.7308
Y0.7139 Z0.7307
Y0.7089 Z0.7305
Y0.7039 Z0.7303
Y0.6989 Z0.7301
Y0.6939 Z0.73
Y0.6889 Z0.7298
Y0.684 Z0.7296
Y0.679 Z0.7294
Y0.674 Z0.7293
Y0.669 Z0.7291
Y0.664 Z0.7289
Y0.659 Z0.7287
Y0.654 Z0.7286
Y0.6491 Z0.7284
Y0.6441 Z0.7282
Y0.6391 Z0.728
Y0.6341 Z0.7279
Y0.6241 Z0.7275
Y0.6191 Z0.7274
Y0.6142 Z0.7272
Y0.6092 Z0.727
Y0.6042 Z0.7268
Y0.5992 Z0.7267
Y0.5942 Z0.7265
Y0.5892 Z0.7264
Y0.5842 Z0.7262
Y0.5793 Z0.726
Y0.5743 Z0.7259
Y0.5651 Z0.7256
Y0.5638 Z0.7255
Y0.563
Y0.5626
Y0.5625
X1.063
X1.0657 Z0.7254
X1.0707 Z0.7253
X1.0757 Z0.7251
X1.0807 Z0.725
X1.0857 Z0.7248
X1.0907 Z0.7247
X1.0956 Z0.7246
X1.1006 Z0.7244
X1.1056 Z0.7243
X1.1106 Z0.7241
X1.1156 Z0.724
X1.1206 Z0.7239
X1.1256 Z0.7237
X1.1305 Z0.7236
X1.1355 Z0.7235
X1.1405 Z0.7233
X1.1455 Z0.7232
X1.1505 Z0.7231
X1.1555 Z0.723
X1.1605 Z0.7229
X1.1654 Z0.7227
X1.1704 Z0.7226
X1.1754 Z0.7225
X1.1804 Z0.7224
X1.1854 Z0.7223
X1.1904 Z0.7222
X1.1954 Z0.7221
X1.2003 Z0.722
X1.2053 Z0.7219
X1.2153 Z0.7217
X1.2253 Z0.7215
X1.2352 Z0.7213
X1.2452 Z0.7212
X1.2552 Z0.721
X1.2652 Z0.7209
X1.2751 Z0.7207
X1.2851 Z0.7206
X1.2951 Z0.7205
X1.305 Z0.7204
X1.315 Z0.7203
X1.325 Z0.7202
X1.3349
X1.3449 Z0.7201
X1.3549
X1.3649 Z0.72
X1.3748
X1.3848
X1.387
X1.4374
X1.4375 Y0.5626
Y1.0624
X1.4374 Y1.0625
X1.0626
X1.0625 Y1.0624
Y0.5626
X1.0626 Y0.5625
X1.387
X1.3969
X1.4069
X1.4169 Z0.7199
X1.4268
X1.4372 Z0.7198
X1.4375
Y0.5626
Y0.5628
Y0.5635
Y0.5648
Y0.5671
Y0.5718
Y0.5818 Z0.7197
Y0.5918 Z0.7196
Y0.6017 Z0.7195
Y0.6117 Z0.7194
Y0.6217 Z0.7193
Y0.6316 Z0.7192
Y0.6416 Z0.719
Y0.6516 Z0.7189
Y0.6616 Z0.7187
Y0.6715 Z0.7185
Y0.6815 Z0.7184
Y0.6915 Z0.7182
Y0.7014 Z0.718
Y0.7064 Z0.7179
Y0.7114 Z0.7178
Y0.7164 Z0.7176
Y0.7214 Z0.7175
Y0.7264 Z0.7174
Y0.7314 Z0.7173
Y0.7363 Z0.7172
Y0.7413 Z0.7171
Y0.7463 Z0.717
Y0.7513 Z0.7168
Y0.7563 Z0.7167
Y0.7613 Z0.7166
Y0.7663 Z0.7165
Y0.7712 Z0.7163
Y0.7762 Z0.7162
Y0.7812 Z0.7161
Y0.7862 Z0.7159
Y0.7912 Z0.7158
Y0.7962 Z0.7156
Y0.8012 Z0.7155
Y0.8061 Z0.7154
Y0.8111 Z0.7152
Y0.8161 Z0.7151
Y0.8211 Z0.7149
Y0.8261 Z0.7148
Y0.8311 Z0.7146
Y0.8361 Z0.7145
Y0.841 Z0.7143
Y0.846 Z0.7141
Y0.851 Z0.714
Y0.856 Z0.7138
Y0.861 Z0.7137
Y0.866 Z0.7135
Y0.871 Z0.7133
Y0.8759 Z0.7132
Y0.8809 Z0.713
Y0.8859 Z0.7128
Y0.8909 Z0.7127
Y0.8959 Z0.7125
Y0.9059 Z0.7121
Y0.9108 Z0.712
Y0.9158 Z0.7118
Y0.9208 Z0.7116
Y0.9258 Z0.7115
Y0.9308 Z0.7113
Y0.9358 Z0.7111
Y0.9408 Z0.7109
Y0.9457 Z0.7108
Y0.9507 Z0.7106
Y0.9557 Z0.7104
Y0.9607 Z0.7102
Y0.9657 Z0.7101
Y0.9707 Z0.7099
Y0.9757 Z0.7097
Y0.9806 Z0.7095
Y0.9856 Z0.7094
Y0.9906 Z0.7092
Y0.9956 Z0.709
Y1.0006 Z0.7088
Y1.0056 Z0.7087
Y1.0106 Z0.7085
Y1.0155 Z0.7083
Y1.0205 Z0.7081
Y1.0255 Z0.708
Y1.0305 Z0.7078
Y1.0355 Z0.7076
Y1.0455 Z0.7073
Y1.0604 Z0.7067
Y1.0618
Y1.0623
Y1.0625
X1.4373
X1.4371
X1.4362
X1.4338 Z0.7066
X1.4296 Z0.7065
X1.4146 Z0.7059
X1.3997 Z0.7054
X1.3847 Z0.7049
X1.3697 Z0.7044
X1.3548 Z0.7039
X1.3299 Z0.703
X1.3049 Z0.7021
X1.27 Z0.7009
X1.2052 Z0.6986
X1.1604 Z0.6971
X1.1354 Z0.6962
X1.1105 Z0.6953
X1.0955 Z0.6948
X1.0806 Z0.6943
X1.0706 Z0.6939
X1.0663 Z0.6938
X1.0639 Z0.6937
X1.0632
X1.0627
X1.0626
X1.0625 Y1.0624
Y1.0621
Y1.0606 Z0.6936
Y1.0456 Z0.6931
Y1.0307 Z0.6926
Y1.0257 Z0.6924
Y1.0207 Z0.6922
Y1.0157 Z0.6921
Y1.0107 Z0.6919
Y1.0058 Z0.6917
Y1.0008 Z0.6915
Y0.9958 Z0.6914
Y0.9908 Z0.6912
Y0.9858 Z0.691
Y0.9808 Z0.6909
Y0.9758 Z0.6907
Y0.9709 Z0.6905
Y0.9659 Z0.6903
Y0.9609 Z0.6902
Y0.9559 Z0.69
Y0.9509 Z0.6898
Y0.9459 Z0.6896
Y0.9409 Z0.6895
Y0.936 Z0.6893
Y0.931 Z0.6891
Y0.926 Z0.6889
Y0.921 Z0.6888
Y0.916 Z0.6886
Y0.911 Z0.6884
Y0.906 Z0.6882
Y0.9011 Z0.6881
Y0.8961 Z0.6879
Y0.8811 Z0.6874
Y0.8761 Z0.6872
Y0.8711 Z0.687
Y0.8662 Z0.6869
Y0.8612 Z0.6867
Y0.8562 Z0.6865
Y0.8512 Z0.6864
Y0.8462 Z0.6862
Y0.8412 Z0.686
Y0.8362 Z0.6859
Y0.8313 Z0.6857
Y0.8263 Z0.6856
Y0.8213 Z0.6854
Y0.8163 Z0.6853
Y0.8113 Z0.6851
Y0.8063 Z0.685
Y0.8013 Z0.6848
Y0.7964 Z0.6847
Y0.7914 Z0.6845
Y0.7864 Z0.6844
Y0.7814 Z0.6842
Y0.7764 Z0.6841
Y0.7714 Z0.684
Y0.7664 Z0.6838
Y0.7615 Z0.6837
Y0.7565 Z0.6836
Y0.7515 Z0.6834
Y0.7465 Z0.6833
Y0.7415 Z0.6832
Y0.7365 Z0.6831
Y0.7315 Z0.683
Y0.7266 Z0.6828
Y0.7216 Z0.6827
Y0.7166 Z0.6826
Y0.7116 Z0.6825
Y0.7066 Z0.6824
Y0.7016 Z0.6823
Y0.6966 Z0.6822
Y0.6917 Z0.6821
Y0.6867 Z0.682
Y0.6817 Z0.6819
Y0.6717 Z0.6817
Y0.6618 Z0.6815
Y0.6518 Z0.6813
Y0.6418 Z0.6812
Y0.6318 Z0.681
Y0.6219 Z0.6809
Y0.6119 Z0.6807
Y0.6019 Z0.6806
Y0.592 Z0.6805
Y0.582 Z0.6804
Y0.572 Z0.6803
Y0.5672
Y0.5636 Z0.6802
Y0.5627
Y0.5626
X1.0626 Y0.5625
X1.063
X1.073
X1.0829 Z0.6801
X1.0929
X1.1029 Z0.68
X1.1129
X1.1228
X1.124
X1.387
X1.4374
X1.4375 Y0.5626
Y1.0624
X1.4374 Y1.0625
X1.0626
X1.0625 Y1.0624
Y0.5626
X1.0626 Y0.5625
X1.124
X1.134
X1.1439
X1.1539 Z0.6799
X1.1639
X1.1738 Z0.6798
X1.1838
X1.1938 Z0.6797
X1.2038 Z0.6796
X1.2137 Z0.6795
X1.2237 Z0.6794
X1.2337 Z0.6793
X1.2436 Z0.6792
X1.2536 Z0.679
X1.2636 Z0.6789
X1.2736 Z0.6787
X1.2835 Z0.6785
X1.2935 Z0.6784
X1.3035 Z0.6782
X1.3134 Z0.678
X1.3184 Z0.6779
X1.3234 Z0.6778
X1.3284 Z0.6776
X1.3334 Z0.6775
X1.3384 Z0.6774
X1.3433 Z0.6773
X1.3483 Z0.6772
X1.3533 Z0.6771
X1.3583 Z0.677
X1.3633 Z0.6768
X1.3683 Z0.6767
X1.3733 Z0.6766
X1.3782 Z0.6765
X1.3832 Z0.6763
X1.3882 Z0.6762
X1.3932 Z0.6761
X1.3982 Z0.6759
X1.4032 Z0.6758
X1.4082 Z0.6756
X1.4131 Z0.6755
X1.4181 Z0.6754
X1.4231 Z0.6752
X1.4281 Z0.6751
X1.4331 Z0.6749
X1.4354
X1.4367 Z0.6748
X1.4373
X1.4374
X1.4375 Y0.5626
Y0.5628
Y0.5636
Y0.5681 Z0.6747
Y0.5731 Z0.6745
Y0.5781 Z0.6744
Y0.5831 Z0.6742
Y0.588 Z0.674
Y0.593 Z0.6739
Y0.598 Z0.6737
Y0.603 Z0.6736
Y0.608 Z0.6734
Y0.613 Z0.6732
Y0.618 Z0.6731
Y0.6229 Z0.6729
Y0.6279 Z0.6727
Y0.6329 Z0.6726
Y0.6429 Z0.6722
Y0.6479 Z0.672
Y0.6529 Z0.6719
Y0.6578 Z0.6717
Y0.6628 Z0.6715
Y0.6678 Z0.6713
Y0.6728 Z0.6712
Y0.6778 Z0.671
Y0.6828 Z0.6708
Y0.6878 Z0.6706
Y0.6927 Z0.6705
Y0.6977 Z0.6703
Y0.7027 Z0.6701
Y0.7077 Z0.6699
Y0.7127 Z0.6698
Y0.7177 Z0.6696
Y0.7227 Z0.6694
Y0.7276 Z0.6692
Y0.7326 Z0.6691
Y0.7376 Z0.6689
Y0.7426 Z0.6687
Y0.7476 Z0.6686
Y0.7526 Z0.6684
Y0.7576 Z0.6682
Y0.7625 Z0.668
Y0.7675 Z0.6679
Y0.7725 Z0.6677
Y0.7825 Z0.6673
Y0.7974 Z0.6668
Y0.8124 Z0.6663
Y0.8274 Z0.6658
Y0.8423 Z0.6652
Y0.8573 Z0.6647
Y0.8722 Z0.6642
Y0.8922 Z0.6635
Y0.9171 Z0.6626
Y0.952 Z0.6614
Y1.0018 Z0.6597
Y1.0567 Z0.6578
Y1.0611 Z0.6576
Y1.0619
Y1.0623
Y1.0625
X1.4373
X1.4371
X1.4356
X1.4333 Z0.6575
X1.4084 Z0.6566
X1.3834 Z0.6558
X1.3685 Z0.6552
X1.3535 Z0.6547
X1.3386 Z0.6542
X1.3236 Z0.6537
X1.3087 Z0.6532
X1.2937 Z0.6526
X1.2887 Z0.6525
X1.2837 Z0.6523
X1.2787 Z0.6521
X1.2738 Z0.6519
X1.2688 Z0.6518
X1.2638 Z0.6516
X1.2588 Z0.6514
X1.2538 Z0.6512
X1.2488 Z0.6511
X1.2438 Z0.6509
X1.2389 Z0.6507
X1.2339 Z0.6505
X1.2289 Z0.6504
X1.2239 Z0.6502
X1.2189 Z0.65
X1.2139 Z0.6498
X1.2089 Z0.6497
X1.204 Z0.6495
X1.199 Z0.6493
X1.194 Z0.6492
X1.189 Z0.649
X1.184 Z0.6488
X1.179 Z0.6486
X1.174 Z0.6485
X1.1691 Z0.6483
X1.1641 Z0.6481
X1.1591 Z0.6479
X1.1541 Z0.6478
X1.1491 Z0.6476
X1.1441 Z0.6474
X1.1391 Z0.6472
X1.1342 Z0.6471
X1.1292 Z0.6469
X1.1242 Z0.6467
X1.1192 Z0.6466
X1.1142 Z0.6464
X1.1092 Z0.6462
X1.1042 Z0.6461
X1.0993 Z0.6459
X1.0943 Z0.6458
X1.0893 Z0.6456
X1.0843 Z0.6455
X1.0793 Z0.6453
X1.0743 Z0.6452
X1.0693 Z0.645
X1.0644 Z0.6449
X1.0628 Z0.6448
X1.0626
X1.0625 Y1.0624
Y1.0622
Y1.0618
Y1.061
Y1.0586 Z0.6447
Y1.0543 Z0.6446
Y1.0494 Z0.6444
Y1.0444 Z0.6443
Y1.0394 Z0.6441
Y1.0344 Z0.644
Y1.0294 Z0.6439
Y1.0244 Z0.6437
Y1.0194 Z0.6436
Y1.0145 Z0.6435
Y1.0095 Z0.6433
Y1.0045 Z0.6432
Y0.9995 Z0.6431
Y0.9945 Z0.643
Y0.9895 Z0.6429
Y0.9845 Z0.6427
Y0.9796 Z0.6426
Y0.9746 Z0.6425
Y0.9696 Z0.6424
Y0.9646 Z0.6423
Y0.9596 Z0.6422
Y0.9546 Z0.6421
Y0.9496 Z0.642
Y0.9447 Z0.6419
Y0.9347 Z0.6417
Y0.9247 Z0.6415
Y0.9148 Z0.6413
Y0.9048 Z0.6412
Y0.8948 Z0.641
Y0.8848 Z0.6409
Y0.8749 Z0.6407
Y0.8649 Z0.6406
Y0.8549 Z0.6405
Y0.845 Z0.6404
Y0.835 Z0.6403
Y0.825 Z0.6402
Y0.815
Y0.8051 Z0.6401
Y0.7951
Y0.7851 Z0.64
Y0.7752
Y0.7652
Y0.7629
Y0.5626
X1.0626 Y0.5625
X1.4374
X1.4375 Y0.5626
Y1.0624
X1.4374 Y1.0625
X1.0626
X1.0625 Y1.0624
Y0.7629
Y0.7529
Y0.743
Y0.733 Z0.6399
Y0.723
Y0.713 Z0.6398
Y0.7031
Y0.6931 Z0.6397
Y0.6831 Z0.6396
Y0.6732 Z0.6395
Y0.6632 Z0.6394
Y0.6532 Z0.6393
Y0.6432 Z0.6392
Y0.6333 Z0.639
Y0.6233 Z0.6389
Y0.6133 Z0.6387
Y0.6034 Z0.6385
Y0.5934 Z0.6384
Y0.5834 Z0.6382
Y0.5734 Z0.638
Y0.5685 Z0.6379
Y0.5635 Z0.6378
Y0.5626 Z0.6377
X1.0626 Y0.5625
X1.0629
X1.0633
X1.0646
X1.067 Z0.6376
X1.0715 Z0.6375
X1.0765 Z0.6374
X1.0815 Z0.6373
X1.0865 Z0.6372
X1.0915 Z0.6371
X1.0965 Z0.637
X1.1015 Z0.6368
X1.1064 Z0.6367
X1.1114 Z0.6366
X1.1164 Z0.6365
X1.1214 Z0.6363
X1.1264 Z0.6362
X1.1314 Z0.6361
X1.1364 Z0.6359
X1.1413 Z0.6358
X1.1463 Z0.6356
X1.1513 Z0.6355
X1.1563 Z0.6354
X1.1613 Z0.6352
X1.1663 Z0.6351
X1.1713 Z0.6349
X1.1762 Z0.6348
X1.1812 Z0.6346
X1.1862 Z0.6345
X1.1912 Z0.6343
X1.1962 Z0.6341
X1.2012 Z0.634
X1.2062 Z0.6338
X1.2111 Z0.6337
X1.2161 Z0.6335
X1.2211 Z0.6333
X1.2261 Z0.6332
X1.2311 Z0.633
X1.2361 Z0.6328
X1.241 Z0.6327
X1.246 Z0.6325
X1.256 Z0.6321
X1.261 Z0.632
X1.266 Z0.6318
X1.271 Z0.6316
X1.2759 Z0.6315
X1.2809 Z0.6313
X1.2859 Z0.6311
X1.2909 Z0.6309
X1.2959 Z0.6308
X1.3009 Z0.6306
X1.3059 Z0.6304
X1.3108 Z0.6302
X1.3158 Z0.6301
X1.3208 Z0.6299
X1.3258 Z0.6297
X1.3308 Z0.6295
X1.3358 Z0.6294
X1.3408 Z0.6292
X1.3457 Z0.629
X1.3507 Z0.6288
X1.3557 Z0.6287
X1.3607 Z0.6285
X1.3657 Z0.6283
X1.3707 Z0.6281
X1.3757 Z0.628
X1.3806 Z0.6278
X1.3856 Z0.6276
X1.3956 Z0.6273
X1.4106 Z0.6267
X1.4255 Z0.6262
X1.4305 Z0.6261
X1.4347 Z0.6259
X1.4372
X1.4374
X1.4375
Y0.5627
Y0.5655 Z0.6258
Y0.5805 Z0.6253
Y0.5954 Z0.6247
Y0.6104 Z0.6242
Y0.6303 Z0.6235
Y0.6553 Z0.6227
Y0.6902 Z0.6214
Y0.735 Z0.6199
Y0.8098 Z0.6173
Y0.8347 Z0.6164
Y0.8597 Z0.6155
Y0.8746 Z0.615
Y0.8896 Z0.6145
Y0.9045 Z0.6139
Y0.9195 Z0.6134
Y0.9344 Z0.6129
Y0.9494 Z0.6124
Y0.9544 Z0.6122
Y0.9594 Z0.612
Y0.9644 Z0.6119
Y0.9693 Z0.6117
Y0.9743 Z0.6115
Y0.9793 Z0.6113
Y0.9843 Z0.6112
Y0.9893 Z0.611
Y0.9943 Z0.6108
Y0.9993 Z0.6106
Y1.0042 Z0.6105
Y1.0092 Z0.6103
Y1.0142 Z0.6101
Y1.0192 Z0.6099
Y1.0242 Z0.6098
Y1.0292 Z0.6096
Y1.0342 Z0.6094
Y1.0391 Z0.6092
Y1.0441 Z0.6091
Y1.0491 Z0.6089
Y1.0541 Z0.6087
Y1.0585 Z0.6086
Y1.0608 Z0.6085
Y1.0624
X1.4374 Y1.0625
X1.4371
X1.4359 Z0.6084
X1.4309 Z0.6083
X1.4259 Z0.6081
X1.4209 Z0.6079
X1.406 Z0.6074
X1.401 Z0.6072
X1.396 Z0.607
X1.391 Z0.6069
X1.386 Z0.6067
X1.381 Z0.6065
X1.3761 Z0.6064
X1.3711 Z0.6062
X1.3661 Z0.6061
X1.3611 Z0.6059
X1.3561 Z0.6057
X1.3511 Z0.6056
X1.3461 Z0.6054
X1.3412 Z0.6053
X1.3362 Z0.6051
X1.3312 Z0.605
X1.3262 Z0.6048
X1.3212 Z0.6047
X1.3162 Z0.6045
X1.3112 Z0.6044
X1.3063 Z0.6043
X1.3013 Z0.6041
X1.2963 Z0.604
X1.2913 Z0.6038
X1.2863 Z0.6037
X1.2813 Z0.6036
X1.2763 Z0.6035
X1.2714 Z0.6033
X1.2664 Z0.6032
X1.2614 Z0.6031
X1.2564 Z0.603
X1.2514 Z0.6028
X1.2464 Z0.6027
X1.2414 Z0.6026
X1.2365 Z0.6025
X1.2315 Z0.6024
X1.2265 Z0.6023
X1.2215 Z0.6022
X1.2165 Z0.6021
X1.2115 Z0.602
X1.2065 Z0.6019
X1.1966 Z0.6017
X1.1866 Z0.6015
X1.1766 Z0.6013
X1.1667 Z0.6012
X1.1567 Z0.601
X1.1467 Z0.6009
X1.1367 Z0.6007
X1.1268 Z0.6006
X1.1168 Z0.6005
X1.1068 Z0.6004
X1.0969 Z0.6003
X1.0869 Z0.6002
X1.0769
X1.0669 Z0.6001
X1.0646
X1.0629
X1.0627
X1.0625
Y1.0623
Y1.0615
Y1.0569
Y1.047 Z0.6
Y1.037
Y1.027
Y1.0255
Y0.7629
Y0.5626
X1.0626 Y0.5625
X1.4374
X1.4375 Y0.5626
Y1.0624
X1.4374 Y1.0625
X1.0626
X1.0625 Y1.0624
Y1.0255
Y1.0155
Y1.0056
Y0.9956 Z0.5999
Y0.9856
Y0.9757 Z0.5998
Y0.9657
Y0.9557 Z0.5997
Y0.9457 Z0.5996
Y0.9358 Z0.5995
Y0.9258 Z0.5994
Y0.9158 Z0.5993
Y0.9059 Z0.5992
Y0.8959 Z0.599
Y0.8859 Z0.5989
Y0.8759 Z0.5987
Y0.866 Z0.5985
Y0.856 Z0.5984
Y0.846 Z0.5982
Y0.8361 Z0.598
Y0.8311 Z0.5979
Y0.8261 Z0.5978
Y0.8211 Z0.5976
Y0.8161 Z0.5975
Y0.8111 Z0.5974
Y0.8061 Z0.5973
Y0.8012 Z0.5972
Y0.7962 Z0.5971
Y0.7912 Z0.597
Y0.7862 Z0.5968
Y0.7812 Z0.5967
Y0.7762 Z0.5966
Y0.7712 Z0.5965
Y0.7663 Z0.5963
Y0.7613 Z0.5962
Y0.7563 Z0.5961
Y0.7513 Z0.5959
Y0.7463 Z0.5958
Y0.7413 Z0.5956
Y0.7363 Z0.5955
Y0.7314 Z0.5954
Y0.7264 Z0.5952
Y0.7214 Z0.5951
Y0.7164 Z0.5949
Y0.7114 Z0.5948
Y0.7064 Z0.5946
Y0.7014 Z0.5945
Y0.6965 Z0.5943
Y0.6915 Z0.5941
Y0.6865 Z0.594
Y0.6815 Z0.5938
Y0.6765 Z0.5937
Y0.6715 Z0.5935
Y0.6665 Z0.5933
Y0.6616 Z0.5932
Y0.6566 Z0.593
Y0.6516 Z0.5928
Y0.6466 Z0.5927
Y0.6416 Z0.5925
Y0.6316 Z0.5921
Y0.6267 Z0.592
Y0.6217 Z0.5918
Y0.6167 Z0.5916
Y0.6117 Z0.5915
Y0.6067 Z0.5913
Y0.6017 Z0.5911
Y0.5967 Z0.5909
Y0.5918 Z0.5908
Y0.5868 Z0.5906
Y0.5818 Z0.5904
Y0.5768 Z0.5902
Y0.5718 Z0.5901
Y0.5668 Z0.5899
Y0.5645 Z0.5898
Y0.5632
Y0.5627
Y0.5625
X1.0627
X1.0629
X1.0637
X1.0682 Z0.5896
X1.0732 Z0.5895
X1.0781 Z0.5893
X1.0831 Z0.5891
X1.0881 Z0.5889
X1.0931 Z0.5888
X1.0981 Z0.5886
X1.1031 Z0.5884
X1.1081 Z0.5882
X1.113 Z0.5881
X1.118 Z0.5879
X1.123 Z0.5877
X1.128 Z0.5875
X1.138 Z0.5872
X1.1529 Z0.5867
X1.1679 Z0.5862
X1.1828 Z0.5856
X1.1978 Z0.5851
X1.2128 Z0.5846
X1.2277 Z0.5841
X1.2526 Z0.5832
X1.2776 Z0.5823
X1.3125 Z0.5811
X1.3673 Z0.5792
X1.4222 Z0.5773
X1.4371 Z0.5768
X1.4374 Z0.5767
X1.4375 Y0.5626
Y0.563
Y0.5637
Y0.5649
Y0.5721 Z0.5764
Y0.5971 Z0.5755
Y0.612 Z0.575
Y0.627 Z0.5745
Y0.6419 Z0.574
Y0.6569 Z0.5735
Y0.6718 Z0.5729
Y0.6868 Z0.5724
Y0.6918 Z0.5722
Y0.6968 Z0.5721
Y0.7017 Z0.5719
Y0.7067 Z0.5717
Y0.7117 Z0.5715
Y0.7167 Z0.5714
Y0.7217 Z0.5712
Y0.7267 Z0.571
Y0.7317 Z0.5708
Y0.7366 Z0.5707
Y0.7416 Z0.5705
Y0.7466 Z0.5703
Y0.7516 Z0.5701
Y0.7566 Z0.57
Y0.7616 Z0.5698
Y0.7666 Z0.5696
Y0.7715 Z0.5695
Y0.7765 Z0.5693
Y0.7815 Z0.5691
Y0.7865 Z0.5689
Y0.7915 Z0.5688
Y0.7965 Z0.5686
Y0.8015 Z0.5684
Y0.8064 Z0.5682
Y0.8114 Z0.5681
Y0.8164 Z0.5679
Y0.8314 Z0.5674
Y0.8364 Z0.5672
Y0.8413 Z0.567
Y0.8463 Z0.5669
Y0.8513 Z0.5667
Y0.8563 Z0.5665
Y0.8613 Z0.5664
Y0.8663 Z0.5662
Y0.8713 Z0.566
Y0.8762 Z0.5659
Y0.8812 Z0.5657
Y0.8862 Z0.5656
Y0.8912 Z0.5654
Y0.8962 Z0.5653
Y0.9012 Z0.5651
Y0.9062 Z0.565
Y0.9111 Z0.5648
Y0.9161 Z0.5647
Y0.9211 Z0.5645
Y0.9261 Z0.5644
Y0.9311 Z0.5642
Y0.9361 Z0.5641
Y0.9411 Z0.564
Y0.946 Z0.5638
Y0.951 Z0.5637
Y0.956 Z0.5636
Y0.961 Z0.5634
Y0.966 Z0.5633
Y0.971 Z0.5632
Y0.976 Z0.5631
Y0.9809 Z0.5629
Y0.9859 Z0.5628
Y0.9909 Z0.5627
Y0.9959 Z0.5626
Y1.0009 Z0.5625
Y1.0059 Z0.5624
Y1.0109 Z0.5623
Y1.0158 Z0.5622
Y1.0208 Z0.5621
Y1.0308 Z0.5619
Y1.0408 Z0.5617
Y1.0507 Z0.5615
Y1.0607 Z0.5613
Y1.0624
X1.4374 Y1.0625
X1.4372
X1.4359
X1.4336 Z0.5612
X1.4293 Z0.5611
X1.4193 Z0.561
X1.4093 Z0.5609
X1.3994 Z0.5607
X1.3894 Z0.5606
X1.3794 Z0.5605
X1.3694 Z0.5604
X1.3595 Z0.5603
X1.3495 Z0.5602
X1.3395
X1.3296 Z0.5601
X1.3196
X1.3096 Z0.56
X1.2996
X1.2897
X1.2888
X1.0626
X1.0625 Y1.0624
Y0.5626
X1.0626 Y0.5625
X1.4374
X1.4375 Y0.5626
Y1.0624
X1.4374 Y1.0625
X1.2888
X1.2788
X1.2688
X1.2589 Z0.5599
X1.2489
X1.2389 Z0.5598
X1.2289
X1.219 Z0.5597
X1.209 Z0.5596
X1.199 Z0.5595
X1.1891 Z0.5594
X1.1791 Z0.5593
X1.1691 Z0.5592
X1.1591 Z0.559
X1.1492 Z0.5589
X1.1392 Z0.5587
X1.1292 Z0.5585
X1.1193 Z0.5584
X1.1093 Z0.5582
X1.0993 Z0.558
X1.0943 Z0.5579
X1.0893 Z0.5578
X1.0844 Z0.5576
X1.0794 Z0.5575
X1.0744 Z0.5574
X1.0694 Z0.5573
X1.0652 Z0.5572
X1.0631
X1.0626 Z0.5571
X1.0625 Y1.0624
Y1.0622
Y1.0594
Y1.0544 Z0.557
Y1.0494 Z0.5568
Y1.0444 Z0.5567
Y1.0394 Z0.5566
Y1.0345 Z0.5565
Y1.0295 Z0.5563
Y1.0245 Z0.5562
Y1.0195 Z0.5561
Y1.0145 Z0.5559
Y1.0095 Z0.5558
Y1.0045 Z0.5556
Y0.9996 Z0.5555
Y0.9946 Z0.5554
Y0.9896 Z0.5552
Y0.9846 Z0.5551
Y0.9796 Z0.5549
Y0.9746 Z0.5548
Y0.9696 Z0.5546
Y0.9647 Z0.5545
Y0.9597 Z0.5543
Y0.9547 Z0.5541
Y0.9497 Z0.554
Y0.9447 Z0.5538
Y0.9397 Z0.5537
Y0.9347 Z0.5535
Y0.9298 Z0.5533
Y0.9248 Z0.5532
Y0.9198 Z0.553
Y0.9148 Z0.5528
Y0.9098 Z0.5527
Y0.9048 Z0.5525
Y0.8949 Z0.5521
Y0.8899 Z0.552
Y0.8849 Z0.5518
Y0.8799 Z0.5516
Y0.8749 Z0.5515
Y0.8699 Z0.5513
Y0.8649 Z0.5511
Y0.86 Z0.5509
Y0.855 Z0.5508
Y0.85 Z0.5506
Y0.845 Z0.5504
Y0.84 Z0.5502
Y0.835 Z0.5501
Y0.8301 Z0.5499
Y0.8251 Z0.5497
Y0.8201 Z0.5495
Y0.8151 Z0.5494
Y0.8101 Z0.5492
Y0.8051 Z0.549
Y0.8001 Z0.5488
Y0.7952 Z0.5487
Y0.7902 Z0.5485
Y0.7852 Z0.5483
Y0.7802 Z0.5481
Y0.7752 Z0.548
Y0.7702 Z0.5478
Y0.7652 Z0.5476
Y0.7553 Z0.5473
Y0.7403 Z0.5467
Y0.7254 Z0.5462
Y0.7104 Z0.5457
Y0.6954 Z0.5452
Y0.6805 Z0.5447
Y0.6655 Z0.5441
Y0.6456 Z0.5434
Y0.6207 Z0.5426
Y0.5858 Z0.5414
Y0.5708 Z0.5408
Y0.5665 Z0.5407
Y0.5641 Z0.5406
Y0.5626
X1.0626 Y0.5625
X1.0642 Z0.5405
X1.139 Z0.5379
X1.1739 Z0.5367
X1.1988 Z0.5358
X1.2138 Z0.5353
X1.2287 Z0.5348
X1.2437 Z0.5343
X1.2587 Z0.5337
X1.2736 Z0.5332
X1.2886 Z0.5327
X1.3035 Z0.5322
X1.3085 Z0.532
X1.3135 Z0.5318
X1.3185 Z0.5317
X1.3235 Z0.5315
X1.3284 Z0.5313
X1.3334 Z0.5311
X1.3384 Z0.531
X1.3434 Z0.5308
X1.3484 Z0.5306
X1.3534 Z0.5304
X1.3584 Z0.5303
X1.3633 Z0.5301
X1.3683 Z0.5299
X1.3733 Z0.5297
X1.3783 Z0.5296
X1.3833 Z0.5294
X1.3883 Z0.5292
X1.3933 Z0.529
X1.3982 Z0.5289
X1.4032 Z0.5287
X1.4082 Z0.5285
X1.4132 Z0.5283
X1.4182 Z0.5282
X1.4232 Z0.528
X1.4282 Z0.5278
X1.4331 Z0.5277
X1.4355 Z0.5276
X1.4368
X1.4373
X1.4374 Z0.5275
X1.4375 Y0.5626
Y0.5629
Y0.5637
Y0.5682 Z0.5274
Y0.5731 Z0.5272
Y0.5781 Z0.5271
Y0.5831 Z0.5269
Y0.5881 Z0.5267
Y0.5931 Z0.5266
Y0.5981 Z0.5264
Y0.6031 Z0.5262
Y0.608 Z0.5261
Y0.613 Z0.5259
Y0.618 Z0.5258
Y0.623 Z0.5256
Y0.628 Z0.5254
Y0.633 Z0.5253
Y0.638 Z0.5251
Y0.6429 Z0.525
Y0.6479 Z0.5248
Y0.6529 Z0.5247
Y0.6579 Z0.5246
Y0.6629 Z0.5244
Y0.6679 Z0.5243
Y0.6729 Z0.5241
Y0.6778 Z0.524
Y0.6828 Z0.5239
Y0.6878 Z0.5237
Y0.6928 Z0.5236
Y0.6978 Z0.5235
Y0.7028 Z0.5233
Y0.7078 Z0.5232
Y0.7127 Z0.5231
Y0.7177 Z0.523
Y0.7227 Z0.5229
Y0.7277 Z0.5227
Y0.7327 Z0.5226
Y0.7377 Z0.5225
Y0.7427 Z0.5224
Y0.7476 Z0.5223
Y0.7526 Z0.5222
Y0.7576 Z0.5221
Y0.7626 Z0.522
Y0.7676 Z0.5219
Y0.7776 Z0.5217
Y0.7875 Z0.5215
Y0.7975 Z0.5213
Y0.8075 Z0.5212
Y0.8174 Z0.521
Y0.8274 Z0.5209
Y0.8374 Z0.5207
Y0.8474 Z0.5206
Y0.8573 Z0.5205
Y0.8673 Z0.5204
Y0.8773 Z0.5203
Y0.8872 Z0.5202
Y0.8972
Y0.9072 Z0.5201
Y0.9171
Y0.9271 Z0.52
Y0.9371
Y0.9471
Y0.9491
Y1.0624
X1.4374 Y1.0625
X1.0626
X1.0625 Y1.0624
Y0.5626
X1.0626 Y0.5625
X1.4374
X1.4375 Y0.5626
Y0.9491
Y0.9591
Y0.969
Y0.979 Z0.5199
Y0.989
Y0.999 Z0.5198
Y1.0089
Y1.0189 Z0.5197
Y1.0289 Z0.5196
Y1.0388 Z0.5195
Y1.0488 Z0.5194
Y1.0588 Z0.5193
Y1.0612
Y1.062 Z0.5192
Y1.0624
X1.4374 Y1.0625
X1.4369
X1.4354
X1.4312
X1.4212 Z0.519
X1.4113 Z0.5189
X1.4013 Z0.5187
X1.3913 Z0.5185
X1.3813 Z0.5184
X1.3714 Z0.5182
X1.3614 Z0.518
X1.3564 Z0.5179
X1.3514 Z0.5178
X1.3464 Z0.5176
X1.3415 Z0.5175
X1.3365 Z0.5174
X1.3315 Z0.5173
X1.3265 Z0.5172
X1.3215 Z0.5171
X1.3165 Z0.517
X1.3115 Z0.5168
X1.3066 Z0.5167
X1.3016 Z0.5166
X1.2966 Z0.5165
X1.2916 Z0.5163
X1.2866 Z0.5162
X1.2816 Z0.5161
X1.2767 Z0.5159
X1.2717 Z0.5158
X1.2667 Z0.5156
X1.2617 Z0.5155
X1.2567 Z0.5154
X1.2517 Z0.5152
X1.2467 Z0.5151
X1.2418 Z0.5149
X1.2368 Z0.5148
X1.2318 Z0.5146
X1.2268 Z0.5145
X1.2218 Z0.5143
X1.2168 Z0.5141
X1.2118 Z0.514
X1.2069 Z0.5138
X1.2019 Z0.5137
X1.1969 Z0.5135
X1.1919 Z0.5133
X1.1869 Z0.5132
X1.1819 Z0.513
X1.1769 Z0.5128
X1.172 Z0.5127
X1.167 Z0.5125
X1.157 Z0.5121
X1.152 Z0.512
X1.147 Z0.5118
X1.142 Z0.5116
X1.1371 Z0.5115
X1.1321 Z0.5113
X1.1271 Z0.5111
X1.1221 Z0.5109
X1.1171 Z0.5108
X1.1121 Z0.5106
X1.1071 Z0.5104
X1.1022 Z0.5102
X1.0972 Z0.5101
X1.0922 Z0.5099
X1.0872 Z0.5097
X1.0822 Z0.5095
X1.0772 Z0.5094
X1.0722 Z0.5092
X1.0631 Z0.5089
X1.0627
X1.0626
X1.0625
Y1.0622 Z0.5088
Y1.0572 Z0.5087
Y1.0523 Z0.5085
Y1.0473 Z0.5083
Y1.0423 Z0.5082
Y1.0373 Z0.508
Y1.0323 Z0.5078
Y1.0273 Z0.5076
Y1.0174 Z0.5073
Y1.0024 Z0.5068
Y0.9874 Z0.5062
Y0.9725 Z0.5057
Y0.9575 Z0.5052
Y0.9426 Z0.5047
Y0.9276 Z0.5041
Y0.9077 Z0.5034
Y0.8827 Z0.5026
Y0.8478 Z0.5014
Y0.798 Z0.4996
Y0.7232 Z0.497
Y0.6983 Z0.4961
Y0.6734 Z0.4953
Y0.6584 Z0.4947
Y0.6434 Z0.4942
Y0.6285 Z0.4937
Y0.6135 Z0.4932
Y0.5986 Z0.4927
Y0.5836 Z0.4921
Y0.5786 Z0.492
Y0.5736 Z0.4918
Y0.5687 Z0.4916
Y0.5637 Z0.4914
Y0.5629
Y0.5626
X1.0626 Y0.5625
X1.0627
X1.0632
X1.0645
X1.0668 Z0.4913
X1.0713 Z0.4911
X1.0763 Z0.491
X1.0813 Z0.4908
X1.0863 Z0.4906
X1.0913 Z0.4904
X1.0963 Z0.4903
X1.1013 Z0.4901
X1.1062 Z0.4899
X1.1112 Z0.4897
X1.1162 Z0.4896
X1.1212 Z0.4894
X1.1262 Z0.4892
X1.1312 Z0.489
X1.1362 Z0.4889
X1.1411 Z0.4887
X1.1461 Z0.4885
X1.1511 Z0.4883
X1.1561 Z0.4882
X1.1611 Z0.488
X1.1661 Z0.4878
X1.176 Z0.4875
X1.181 Z0.4873
X1.186 Z0.4871
X1.191 Z0.487
X1.196 Z0.4868
X1.201 Z0.4866
X1.206 Z0.4865
X1.2109 Z0.4863
X1.2159 Z0.4861
X1.2209 Z0.486
X1.2259 Z0.4858
X1.2309 Z0.4857
X1.2359 Z0.4855
X1.2409 Z0.4854
X1.2458 Z0.4852
X1.2508 Z0.4851
X1.2558 Z0.4849
X1.2608 Z0.4848
X1.2658 Z0.4846
X1.2708 Z0.4845
X1.2758 Z0.4843
X1.2807 Z0.4842
X1.2857 Z0.4841
X1.2907 Z0.4839
X1.2957 Z0.4838
X1.3007 Z0.4836
X1.3057 Z0.4835
X1.3107 Z0.4834
X1.3156 Z0.4833
X1.3206 Z0.4831
X1.3256 Z0.483
X1.3306 Z0.4829
X1.3356 Z0.4828
X1.3406 Z0.4827
X1.3456 Z0.4826
X1.3505 Z0.4824
X1.3555 Z0.4823
X1.3605 Z0.4822
X1.3655 Z0.4821
X1.3705 Z0.482
X1.3805 Z0.4818
X1.3904 Z0.4816
X1.4004 Z0.4815
X1.4104 Z0.4813
X1.4203 Z0.4811
X1.4303 Z0.481
X1.4345 Z0.4809
X1.4374
X1.4375 Y0.5626
Y0.5628
Y0.5639 Z0.4808
Y0.5653
Y0.5753 Z0.4807
Y0.5853 Z0.4806
Y0.5952 Z0.4805
Y0.6052 Z0.4804
Y0.6152 Z0.4803
Y0.6251 Z0.4802
Y0.6351 Z0.4801
Y0.6451
Y0.6551
Y0.665 Z0.48
Y0.675
Y0.684
Y0.9491
Y1.0624
X1.4374 Y1.0625
X1.0626
X1.0625 Y1.0624
Y0.5626
X1.0626 Y0.5625
X1.4374
X1.4375 Y0.5626
Y0.684
Y0.694
Y0.7039
Y0.7139 Z0.4799
Y0.7239
Y0.7338 Z0.4798
Y0.7438
Y0.7538 Z0.4797
Y0.7638 Z0.4796
Y0.7737 Z0.4795
Y0.7837 Z0.4794
Y0.7937 Z0.4793
Y0.8036 Z0.4792
Y0.8136 Z0.479
Y0.8236 Z0.4789
Y0.8336 Z0.4787
Y0.8435 Z0.4785
Y0.8535 Z0.4784
Y0.8635 Z0.4782
Y0.8734 Z0.478
Y0.8784 Z0.4779
Y0.8834 Z0.4778
Y0.8884 Z0.4776
Y0.8934 Z0.4775
Y0.8984 Z0.4774
Y0.9034 Z0.4773
Y0.9083 Z0.4772
Y0.9133 Z0.4771
Y0.9183 Z0.477
Y0.9233 Z0.4768
Y0.9283 Z0.4767
Y0.9333 Z0.4766
Y0.9383 Z0.4765
Y0.9432 Z0.4763
Y0.9482 Z0.4762
Y0.9532 Z0.4761
Y0.9582 Z0.4759
Y0.9632 Z0.4758
Y0.9682 Z0.4756
Y0.9732 Z0.4755
Y0.9781 Z0.4754
Y0.9831 Z0.4752
Y0.9881 Z0.4751
Y0.9931 Z0.4749
Y0.9981 Z0.4748
Y1.0031 Z0.4746
Y1.0081 Z0.4745
Y1.013 Z0.4743
Y1.018 Z0.4741
Y1.023 Z0.474
Y1.028 Z0.4738
Y1.033 Z0.4737
Y1.038 Z0.4735
Y1.043 Z0.4733
Y1.0479 Z0.4732
Y1.0529 Z0.473
Y1.0614 Z0.4727
Y1.062
Y1.0625
X1.4374
X1.4371
X1.4321 Z0.4725
X1.4221 Z0.4722
X1.4171 Z0.472
X1.4121 Z0.4718
X1.4071 Z0.4716
X1.4022 Z0.4715
X1.3972 Z0.4713
X1.3922 Z0.4711
X1.3872 Z0.4709
X1.3822 Z0.4708
X1.3772 Z0.4706
X1.3722 Z0.4704
X1.3673 Z0.4702
X1.3623 Z0.4701
X1.3573 Z0.4699
X1.3523 Z0.4697
X1.3473 Z0.4695
X1.3423 Z0.4694
X1.3373 Z0.4692
X1.3324 Z0.469
X1.3274 Z0.4688
X1.3224 Z0.4687
X1.3174 Z0.4685
X1.3124 Z0.4683
X1.3074 Z0.4681
X1.3024 Z0.468
X1.2975 Z0.4678
X1.2925 Z0.4676
X1.2825 Z0.4673
X1.2675 Z0.4668
X1.2526 Z0.4662
X1.2376 Z0.4657
X1.2227 Z0.4652
X1.2077 Z0.4647
X1.1928 Z0.4641
X1.1728 Z0.4634
X1.1479 Z0.4626
X1.113 Z0.4614
X1.0681 Z0.4598
X1.0636 Z0.4597
X1.0628
X1.0627 Z0.4596
X1.0625
Y1.0622
Y1.0618
Y1.0604
Y1.0581 Z0.4595
Y0.9933 Z0.4573
Y0.9684 Z0.4564
Y0.9434 Z0.4555
Y0.9285 Z0.455
Y0.9135 Z0.4545
Y0.8986 Z0.454
Y0.8836 Z0.4534
Y0.8687 Z0.4529
Y0.8537 Z0.4524
Y0.8487 Z0.4522
Y0.8437 Z0.4521
Y0.8387 Z0.4519
Y0.8338 Z0.4517
Y0.8288 Z0.4515
Y0.8238 Z0.4514
Y0.8188 Z0.4512
Y0.8138 Z0.451
Y0.8088 Z0.4508
Y0.8038 Z0.4507
Y0.7989 Z0.4505
Y0.7939 Z0.4503
Y0.7889 Z0.4501
Y0.7839 Z0.45
Y0.7789 Z0.4498
Y0.7739 Z0.4496
Y0.7689 Z0.4494
Y0.764 Z0.4493
Y0.759 Z0.4491
Y0.754 Z0.4489
Y0.749 Z0.4488
Y0.744 Z0.4486
Y0.739 Z0.4484
Y0.734 Z0.4482
Y0.7291 Z0.4481
Y0.7241 Z0.4479
Y0.7141 Z0.4475
Y0.7091 Z0.4474
Y0.7041 Z0.4472
Y0.6991 Z0.447
Y0.6942 Z0.4469
Y0.6892 Z0.4467
Y0.6842 Z0.4465
Y0.6792 Z0.4464
Y0.6742 Z0.4462
Y0.6692 Z0.446
Y0.6642 Z0.4459
Y0.6593 Z0.4457
Y0.6543 Z0.4456
Y0.6493 Z0.4454
Y0.6443 Z0.4453
Y0.6393 Z0.4451
Y0.6343 Z0.445
Y0.6293 Z0.4448
Y0.6244 Z0.4447
Y0.6194 Z0.4445
Y0.6144 Z0.4444
Y0.6094 Z0.4442
Y0.6044 Z0.4441
Y0.5994 Z0.444
Y0.5944 Z0.4438
Y0.5895 Z0.4437
Y0.5845 Z0.4436
Y0.5795 Z0.4434
Y0.5745 Z0.4433
Y0.5695 Z0.4432
Y0.5654 Z0.4431
Y0.5627 Z0.443
X1.0626 Y0.5625
X1.0655 Z0.4429
X1.0705 Z0.4428
X1.0755 Z0.4427
X1.0804 Z0.4426
X1.0854 Z0.4425
X1.0904 Z0.4424
X1.0954 Z0.4423
X1.1004 Z0.4422
X1.1054 Z0.4421
X1.1153 Z0.4419
X1.1253 Z0.4417
X1.1353 Z0.4415
X1.1453 Z0.4413
X1.1552 Z0.4411
X1.1652 Z0.441
X1.1752 Z0.4409
X1.1851 Z0.4407
X1.1951 Z0.4406
X1.2051 Z0.4405
X1.2151 Z0.4404
X1.225 Z0.4403
X1.235 Z0.4402
X1.245
X1.2549 Z0.4401
X1.2649
X1.2749 Z0.44
X1.2849
X1.2956
X1.4374
X1.4375 Y0.5626
Y1.0624
X1.4374 Y1.0625
X1.0626
X1.0625 Y1.0624
Y0.5626
X1.0626 Y0.5625
X1.2956
X1.3055
X1.3155
X1.3255 Z0.4399
X1.3355
X1.3454 Z0.4398
X1.3554
X1.3654 Z0.4397
X1.3753 Z0.4396
X1.3853 Z0.4395
X1.3953 Z0.4394
X1.4053 Z0.4393
X1.4152 Z0.4392
X1.4252 Z0.439
X1.4352 Z0.4389
X1.4365 Z0.4388
X1.4375
Y0.5626
Y0.5635
Y0.566
Y0.5702 Z0.4387
Y0.5801 Z0.4385
Y0.5901 Z0.4384
Y0.6001 Z0.4382
Y0.6101 Z0.438
Y0.615 Z0.4379
Y0.62 Z0.4378
Y0.625 Z0.4376
Y0.63 Z0.4375
Y0.635 Z0.4374
Y0.64 Z0.4373
Y0.645 Z0.4372
Y0.6499 Z0.4371
Y0.6549 Z0.437
Y0.6599 Z0.4368
Y0.6649 Z0.4367
Y0.6699 Z0.4366
Y0.6749 Z0.4365
Y0.6799 Z0.4363
Y0.6848 Z0.4362
Y0.6898 Z0.4361
Y0.6948 Z0.4359
Y0.6998 Z0.4358
Y0.7048 Z0.4356
Y0.7098 Z0.4355
Y0.7148 Z0.4354
Y0.7197 Z0.4352
Y0.7247 Z0.4351
Y0.7297 Z0.4349
Y0.7347 Z0.4348
Y0.7397 Z0.4346
Y0.7447 Z0.4345
Y0.7497 Z0.4343
Y0.7546 Z0.4341
Y0.7596 Z0.434
Y0.7646 Z0.4338
Y0.7696 Z0.4337
Y0.7746 Z0.4335
Y0.7796 Z0.4333
Y0.7846 Z0.4332
Y0.7895 Z0.433
Y0.7945 Z0.4328
Y0.7995 Z0.4327
Y0.8045 Z0.4325
Y0.8145 Z0.4321
Y0.8195 Z0.432
Y0.8244 Z0.4318
Y0.8294 Z0.4316
Y0.8344 Z0.4315
Y0.8394 Z0.4313
Y0.8444 Z0.4311
Y0.8494 Z0.4309
Y0.8544 Z0.4308
Y0.8593 Z0.4306
Y0.8643 Z0.4304
Y0.8693 Z0.4302
Y0.8743 Z0.4301
Y0.8793 Z0.4299
Y0.8843 Z0.4297
Y0.8893 Z0.4295
Y0.8942 Z0.4294
Y0.8992 Z0.4292
Y0.9042 Z0.429
Y0.9092 Z0.4288
Y0.9142 Z0.4287
Y0.9192 Z0.4285
Y0.9242 Z0.4283
Y0.9291 Z0.4281
Y0.9341 Z0.428
Y0.9391 Z0.4278
Y0.9441 Z0.4276
Y0.9541 Z0.4273
Y0.969 Z0.4267
Y0.984 Z0.4262
Y0.9989 Z0.4257
Y1.0139 Z0.4252
Y1.0289 Z0.4247
Y1.0438 Z0.4241
Y1.0588 Z0.4236
Y1.0612
Y1.062 Z0.4235
Y1.0624
X1.4374 Y1.0625
X1.4369
X1.4355
X1.4312 Z0.4234
X1.4063 Z0.4225
X1.3714 Z0.4213
X1.3166 Z0.4194
X1.2517 Z0.4171
X1.2268 Z0.4162
X1.2019 Z0.4154
X1.1869 Z0.4148
X1.172 Z0.4143
X1.157 Z0.4138
X1.1421 Z0.4133
X1.1271 Z0.4127
X1.1121 Z0.4122
X1.1072 Z0.412
X1.1022 Z0.4119
X1.0972 Z0.4117
X1.0922 Z0.4115
X1.0872 Z0.4113
X1.0822 Z0.4112
X1.0772 Z0.411
X1.0723 Z0.4108
X1.0649 Z0.4106
X1.0631 Z0.4105
X1.0627
X1.0626
X1.0625
Y1.0622
Y1.0573 Z0.4103
Y1.0523 Z0.4101
Y1.0473 Z0.41
Y1.0423 Z0.4098
Y1.0373 Z0.4096
Y1.0323 Z0.4094
Y1.0273 Z0.4093
Y1.0224 Z0.4091
Y1.0174 Z0.4089
Y1.0124 Z0.4087
Y1.0074 Z0.4086
Y1.0024 Z0.4084
Y0.9974 Z0.4082
Y0.9924 Z0.408
Y0.9875 Z0.4079
Y0.9775 Z0.4075
Y0.9725 Z0.4074
Y0.9675 Z0.4072
Y0.9625 Z0.407
Y0.9575 Z0.4068
Y0.9526 Z0.4067
Y0.9476 Z0.4065
Y0.9426 Z0.4064
Y0.9376 Z0.4062
Y0.9326 Z0.406
Y0.9276 Z0.4059
Y0.9226 Z0.4057
Y0.9177 Z0.4056
Y0.9127 Z0.4054
Y0.9077 Z0.4053
Y0.9027 Z0.4051
Y0.8977 Z0.405
Y0.8927 Z0.4048
Y0.8877 Z0.4047
Y0.8828 Z0.4045
Y0.8778 Z0.4044
Y0.8728 Z0.4042
Y0.8678 Z0.4041
Y0.8628 Z0.404
Y0.8578 Z0.4038
Y0.8528 Z0.4037
Y0.8479 Z0.4036
Y0.8429 Z0.4034
Y0.8379 Z0.4033
Y0.8329 Z0.4032
Y0.8279 Z0.4031
Y0.8229 Z0.4029
Y0.818 Z0.4028
Y0.813 Z0.4027
Y0.808 Z0.4026
Y0.803 Z0.4025
Y0.798 Z0.4024
Y0.793 Z0.4023
Y0.788 Z0.4022
Y0.7831 Z0.4021
Y0.7731 Z0.4019
Y0.7631 Z0.4017
Y0.7531 Z0.4015
Y0.7432 Z0.4013
Y0.7332 Z0.4011
Y0.7232 Z0.401
Y0.7133 Z0.4009
Y0.7033 Z0.4007
Y0.6933 Z0.4006
Y0.6833 Z0.4005
Y0.6734 Z0.4004
Y0.6634 Z0.4003
Y0.6534 Z0.4002
Y0.6435
Y0.6335 Z0.4001
Y0.6235
Y0.6135 Z0.4
Y0.6036
Y0.593
Y0.5626
X1.0626 Y0.5625
X1.4374
X1.4375 Y0.5626
Y1.0624
X1.4374 Y1.0625
X1.0626
X1.0625 Y1.0624
Y0.593
Y0.583
Y0.573
Y0.5627 Z0.3999
Y0.5625
X1.0629
X1.0636
X1.0648
X1.0672
X1.0719
X1.0819 Z0.3998
X1.0919
X1.1019 Z0.3997
X1.1118 Z0.3996
X1.1218 Z0.3995
X1.1318 Z0.3994
X1.1417 Z0.3993
X1.1517 Z0.3992
X1.1617 Z0.399
X1.1717 Z0.3989
X1.1816 Z0.3987
X1.1916 Z0.3985
X1.2016 Z0.3984
X1.2115 Z0.3982
X1.2215 Z0.398
X1.2265 Z0.3979
X1.2315 Z0.3978
X1.2365 Z0.3976
X1.2414 Z0.3975
X1.2464 Z0.3974
X1.2514 Z0.3973
X1.2564 Z0.3972
X1.2614 Z0.3971
X1.2664 Z0.397
X1.2714 Z0.3968
X1.2763 Z0.3967
X1.2813 Z0.3966
X1.2863 Z0.3965
X1.2913 Z0.3963
X1.2963 Z0.3962
X1.3013 Z0.3961
X1.3063 Z0.3959
X1.3112 Z0.3958
X1.3162 Z0.3956
X1.3212 Z0.3955
X1.3262 Z0.3954
X1.3312 Z0.3952
X1.3362 Z0.3951
X1.3412 Z0.3949
X1.3461 Z0.3948
X1.3511 Z0.3946
X1.3561 Z0.3945
X1.3611 Z0.3943
X1.3661 Z0.3941
X1.3711 Z0.394
X1.3761 Z0.3938
X1.381 Z0.3937
X1.386 Z0.3935
X1.391 Z0.3933
X1.396 Z0.3932
X1.401 Z0.393
X1.406 Z0.3928
X1.411 Z0.3927
X1.4159 Z0.3925
X1.4259 Z0.3921
X1.4309 Z0.392
X1.4351 Z0.3918
X1.4364
X1.4373
X1.4375
Y0.5627
Y0.5629
Y0.5634
Y0.5659 Z0.3917
Y0.5709 Z0.3915
Y0.5759 Z0.3914
Y0.5809 Z0.3912
Y0.5859 Z0.391
Y0.5908 Z0.3908
Y0.5958 Z0.3907
Y0.6008 Z0.3905
Y0.6058 Z0.3903
Y0.6108 Z0.3901
Y0.6158 Z0.39
Y0.6208 Z0.3898
Y0.6257 Z0.3896
Y0.6307 Z0.3895
Y0.6357 Z0.3893
Y0.6407 Z0.3891
Y0.6457 Z0.3889
Y0.6507 Z0.3888
Y0.6557 Z0.3886
Y0.6606 Z0.3884
Y0.6656 Z0.3882
Y0.6706 Z0.3881
Y0.6756 Z0.3879
Y0.6806 Z0.3877
Y0.6906 Z0.3874
Y0.7055 Z0.3868
Y0.7205 Z0.3863
Y0.7354 Z0.3858
Y0.7504 Z0.3853
Y0.7653 Z0.3847
Y0.7803 Z0.3842
Y0.8002 Z0.3835
Y0.8252 Z0.3827
Y0.8601 Z0.3814
Y0.9049 Z0.3799
Y0.9797 Z0.3773
Y1.0046 Z0.3764
Y1.0296 Z0.3755
Y1.0445 Z0.375
Y1.0545 Z0.3747
Y1.0588 Z0.3745
Y1.0612 Z0.3744
Y1.062
Y1.0624
Y1.0625
X1.4369
X1.4355
X1.4205 Z0.3738
X1.4056 Z0.3733
X1.3906 Z0.3728
X1.3757 Z0.3723
X1.3707 Z0.3721
X1.3657 Z0.3719
X1.3607 Z0.3718
X1.3557 Z0.3716
X1.3507 Z0.3714
X1.3457 Z0.3712
X1.3408 Z0.3711
X1.3358 Z0.3709
X1.3308 Z0.3707
X1.3258 Z0.3705
X1.3208 Z0.3704
X1.3158 Z0.3702
X1.3108 Z0.37
X1.3059 Z0.3698
X1.3009 Z0.3697
X1.2959 Z0.3695
X1.2909 Z0.3693
X1.2859 Z0.3691
X1.2809 Z0.369
X1.2759 Z0.3688
X1.271 Z0.3686
X1.266 Z0.3684
X1.261 Z0.3683
X1.256 Z0.3681
X1.251 Z0.3679
X1.246 Z0.3677
X1.241 Z0.3676
X1.2361 Z0.3674
X1.2311 Z0.3672
X1.2261 Z0.3671
X1.2211 Z0.3669
X1.2161 Z0.3667
X1.2111 Z0.3666
X1.2061 Z0.3664
X1.2012 Z0.3662
X1.1962 Z0.3661
X1.1912 Z0.3659
X1.1862 Z0.3658
X1.1812 Z0.3656
X1.1762 Z0.3654
X1.1712 Z0.3653
X1.1663 Z0.3651
X1.1613 Z0.365
X1.1563 Z0.3648
X1.1513 Z0.3647
X1.1463 Z0.3646
X1.1413 Z0.3644
X1.1363 Z0.3643
X1.1314 Z0.3641
X1.1264 Z0.364
X1.1214 Z0.3639
X1.1164 Z0.3637
X1.1114 Z0.3636
X1.1064 Z0.3635
X1.1014 Z0.3633
X1.0965 Z0.3632
X1.0915 Z0.3631
X1.0865 Z0.363
X1.0815 Z0.3629
X1.0765 Z0.3627
X1.0715 Z0.3626
X1.0665 Z0.3625
X1.0642
X1.0626 Z0.3624
X1.0625 Y1.0624
Y1.0621
Y1.0609
Y1.0565 Z0.3623
Y1.0515 Z0.3622
Y1.0466 Z0.3621
Y1.0416 Z0.362
Y1.0366 Z0.3619
Y1.0266 Z0.3617
Y1.0167 Z0.3615
Y1.0067 Z0.3613
Y0.9967 Z0.3612
Y0.9867 Z0.361
Y0.9768 Z0.3609
Y0.9668 Z0.3607
Y0.9568 Z0.3606
Y0.9469 Z0.3605
Y0.9369 Z0.3604
Y0.9269 Z0.3603
Y0.9169 Z0.3602
Y0.907
Y0.897 Z0.3601
Y0.887
Y0.8771 Z0.36
Y0.8671
Y0.8571
Y0.8551
Y0.593
Y0.5626
X1.0626 Y0.5625
X1.4374
X1.4375 Y0.5626
Y1.0624
X1.4374 Y1.0625
X1.0626
X1.0625 Y1.0624
Y0.8551
Y0.8451
Y0.8352
Y0.8252 Z0.3599
Y0.8152
Y0.8052 Z0.3598
Y0.7953
Y0.7853 Z0.3597
Y0.7753 Z0.3596
Y0.7654 Z0.3595
Y0.7554 Z0.3594
Y0.7454 Z0.3593
Y0.7355 Z0.3592
Y0.7255 Z0.359
Y0.7155 Z0.3589
Y0.7055 Z0.3587
Y0.6956 Z0.3585
Y0.6856 Z0.3584
Y0.6756 Z0.3582
Y0.6657 Z0.358
Y0.6607 Z0.3579
Y0.6557 Z0.3578
Y0.6507 Z0.3576
Y0.6457 Z0.3575
Y0.6407 Z0.3574
Y0.6357 Z0.3573
Y0.6308 Z0.3572
Y0.6258 Z0.3571
Y0.6208 Z0.357
Y0.6158 Z0.3568
Y0.6108 Z0.3567
Y0.6058 Z0.3566
Y0.6008 Z0.3565
Y0.5959 Z0.3563
Y0.5909 Z0.3562
Y0.5859 Z0.3561
Y0.5809 Z0.3559
Y0.5759 Z0.3558
Y0.5709 Z0.3556
Y0.5659 Z0.3555
Y0.5634 Z0.3554
Y0.5626
X1.0626 Y0.5625
X1.0635
X1.0649
X1.0691 Z0.3552
X1.0741 Z0.3551
X1.079 Z0.3549
X1.084 Z0.3548
X1.089 Z0.3546
X1.094 Z0.3545
X1.099 Z0.3543
X1.104 Z0.3542
X1.109 Z0.354
X1.1139 Z0.3539
X1.1189 Z0.3537
X1.1239 Z0.3535
X1.1289 Z0.3534
X1.1339 Z0.3532
X1.1389 Z0.353
X1.1439 Z0.3529
X1.1488 Z0.3527
X1.1538 Z0.3525
X1.1638 Z0.3522
X1.1688 Z0.352
X1.1738 Z0.3518
X1.1788 Z0.3517
X1.1837 Z0.3515
X1.1887 Z0.3513
X1.1937 Z0.3511
X1.1987 Z0.351
X1.2037 Z0.3508
X1.2087 Z0.3506
X1.2137 Z0.3504
X1.2186 Z0.3503
X1.2236 Z0.3501
X1.2286 Z0.3499
X1.2336 Z0.3497
X1.2386 Z0.3496
X1.2436 Z0.3494
X1.2486 Z0.3492
X1.2535 Z0.349
X1.2585 Z0.3489
X1.2635 Z0.3487
X1.2685 Z0.3485
X1.2735 Z0.3484
X1.2785 Z0.3482
X1.2835 Z0.348
X1.2884 Z0.3478
X1.2934 Z0.3477
X1.3034 Z0.3473
X1.3184 Z0.3468
X1.3333 Z0.3463
X1.3483 Z0.3457
X1.3632 Z0.3452
X1.3782 Z0.3447
X1.3931 Z0.3442
X1.4131 Z0.3435
X1.428 Z0.343
X1.4352 Z0.3427
X1.4364
X1.4371 Z0.3426
X1.4374
X1.4375 Y0.5626
Y0.563
Y0.5979 Z0.3414
Y0.6478 Z0.3397
Y0.7226 Z0.3371
Y0.7475 Z0.3362
Y0.7724 Z0.3353
Y0.7874 Z0.3348
Y0.8024 Z0.3343
Y0.8173 Z0.3337
Y0.8323 Z0.3332
Y0.8472 Z0.3327
Y0.8622 Z0.3322
Y0.8672 Z0.332
Y0.8722 Z0.3318
Y0.8771 Z0.3317
Y0.8821 Z0.3315
Y0.8871 Z0.3313
Y0.8921 Z0.3311
Y0.8971 Z0.331
Y0.9021 Z0.3308
Y0.9071 Z0.3306
Y0.912 Z0.3304
Y0.917 Z0.3303
Y0.922 Z0.3301
Y0.927 Z0.3299
Y0.932 Z0.3297
Y0.937 Z0.3296
Y0.942 Z0.3294
Y0.9469 Z0.3292
Y0.9519 Z0.329
Y0.9569 Z0.3289
Y0.9619 Z0.3287
Y0.9669 Z0.3285
Y0.9719 Z0.3283
Y0.9768 Z0.3282
Y0.9818 Z0.328
Y0.9868 Z0.3278
Y0.9968 Z0.3275
Y1.0018 Z0.3273
Y1.0068 Z0.3271
Y1.0117 Z0.327
Y1.0167 Z0.3268
Y1.0217 Z0.3266
Y1.0267 Z0.3265
Y1.0317 Z0.3263
Y1.0367 Z0.3261
Y1.0417 Z0.326
Y1.0466 Z0.3258
Y1.0516 Z0.3257
Y1.0566 Z0.3255
Y1.0616 Z0.3254
Y1.0624 Z0.3253
Y1.0625
X1.4366
X1.4353
X1.433 Z0.3252
X1.4284 Z0.3251
X1.4234 Z0.3249
X1.4184 Z0.3248
X1.4134 Z0.3246
X1.4084 Z0.3245
X1.4035 Z0.3243
X1.3985 Z0.3242
X1.3935 Z0.3241
X1.3885 Z0.3239
X1.3835 Z0.3238
X1.3785 Z0.3237
X1.3735 Z0.3235
X1.3686 Z0.3234
X1.3636 Z0.3233
X1.3586 Z0.3231
X1.3536 Z0.323
X1.3486 Z0.3229
X1.3436 Z0.3228
X1.3386 Z0.3227
X1.3337 Z0.3226
X1.3287 Z0.3224
X1.3237 Z0.3223
X1.3187 Z0.3222
X1.3137 Z0.3221
X1.3087 Z0.322
X1.2988 Z0.3218
X1.2888 Z0.3216
X1.2788 Z0.3215
X1.2688 Z0.3213
X1.2589 Z0.3211
X1.2489 Z0.321
X1.2389 Z0.3208
X1.229 Z0.3207
X1.219 Z0.3206
X1.209 Z0.3205
X1.199 Z0.3204
X1.1891 Z0.3203
X1.1791 Z0.3202
X1.1691 Z0.3201
X1.1592
X1.1492
X1.1392 Z0.32
X1.1292
X1.12
X1.0626
X1.0625 Y1.0624
Y0.5626
X1.0626 Y0.5625
X1.4374
X1.4375 Y0.5626
Y1.0624
X1.4374 Y1.0625
X1.12
X1.1101
X1.1001
X1.0901 Z0.3199
X1.0801
X1.0702 Z0.3198
X1.066
X1.0635
X1.0626
X1.0625
Y1.0615
Y1.0602
Y1.0502 Z0.3197
Y1.0402 Z0.3196
Y1.0302 Z0.3195
Y1.0203 Z0.3194
Y1.0103 Z0.3193
Y1.0003 Z0.3192
Y0.9904 Z0.319
Y0.9804 Z0.3189
Y0.9704 Z0.3187
Y0.9604 Z0.3185
Y0.9505 Z0.3184
Y0.9405 Z0.3182
Y0.9305 Z0.318
Y0.9255 Z0.3179
Y0.9206 Z0.3178
Y0.9156 Z0.3176
Y0.9106 Z0.3175
Y0.9056 Z0.3174
Y0.9006 Z0.3173
Y0.8956 Z0.3172
Y0.8906 Z0.3171
Y0.8857 Z0.317
Y0.8807 Z0.3168
Y0.8757 Z0.3167
Y0.8707 Z0.3166
Y0.8657 Z0.3165
Y0.8607 Z0.3163
Y0.8558 Z0.3162
Y0.8508 Z0.3161
Y0.8458 Z0.3159
Y0.8408 Z0.3158
Y0.8358 Z0.3156
Y0.8308 Z0.3155
Y0.8258 Z0.3154
Y0.8209 Z0.3152
Y0.8159 Z0.3151
Y0.8109 Z0.3149
Y0.8059 Z0.3148
Y0.8009 Z0.3146
Y0.7959 Z0.3145
Y0.7909 Z0.3143
Y0.786 Z0.3141
Y0.781 Z0.314
Y0.776 Z0.3138
Y0.771 Z0.3137
Y0.766 Z0.3135
Y0.761 Z0.3133
Y0.756 Z0.3132
Y0.7511 Z0.313
Y0.7461 Z0.3128
Y0.7411 Z0.3127
Y0.7361 Z0.3125
Y0.7261 Z0.3121
Y0.7211 Z0.312
Y0.7162 Z0.3118
Y0.7112 Z0.3116
Y0.7062 Z0.3115
Y0.7012 Z0.3113
Y0.6962 Z0.3111
Y0.6912 Z0.3109
Y0.6862 Z0.3108
Y0.6813 Z0.3106
Y0.6763 Z0.3104
Y0.6713 Z0.3102
Y0.6663 Z0.3101
Y0.6613 Z0.3099
Y0.6563 Z0.3097
Y0.6513 Z0.3095
Y0.6464 Z0.3094
Y0.6414 Z0.3092
Y0.6364 Z0.309
Y0.6314 Z0.3088
Y0.6264 Z0.3087
Y0.6214 Z0.3085
Y0.6164 Z0.3083
Y0.6115 Z0.3081
Y0.6065 Z0.308
Y0.6015 Z0.3078
Y0.5965 Z0.3076
Y0.5865 Z0.3073
Y0.5716 Z0.3067
Y0.567 Z0.3066
Y0.5646 Z0.3065
Y0.5634
Y0.5626
X1.0626 Y0.5625
X1.0634 Z0.3064
X1.0784 Z0.3059
X1.0934 Z0.3054
X1.1083 Z0.3049
X1.1233 Z0.3043
X1.1382 Z0.3038
X1.1632 Z0.3029
X1.1881 Z0.3021
X1.223 Z0.3009
X1.2878 Z0.2986
X1.3327 Z0.297
X1.3576 Z0.2962
X1.3825 Z0.2953
X1.3975 Z0.2948
X1.4124 Z0.2942
X1.4274 Z0.2937
X1.4324 Z0.2935
X1.4373 Z0.2934
X1.4374
X1.4375
Y0.5627
Y0.5631
Y0.5649
Y0.5674 Z0.2933
Y0.5823 Z0.2928
Y0.5973 Z0.2923
Y0.6023 Z0.2921
Y0.6073 Z0.2919
Y0.6123 Z0.2917
Y0.6172 Z0.2916
Y0.6222 Z0.2914
Y0.6272 Z0.2912
Y0.6322 Z0.291
Y0.6372 Z0.2909
Y0.6422 Z0.2907
Y0.6472 Z0.2905
Y0.6521 Z0.2903
Y0.6571 Z0.2902
Y0.6621 Z0.29
Y0.6671 Z0.2898
Y0.6721 Z0.2896
Y0.6771 Z0.2895
Y0.6821 Z0.2893
Y0.687 Z0.2891
Y0.692 Z0.2889
Y0.697 Z0.2888
Y0.702 Z0.2886
Y0.707 Z0.2884
Y0.712 Z0.2883
Y0.717 Z0.2881
Y0.7219 Z0.2879
Y0.7369 Z0.2874
Y0.7419 Z0.2872
Y0.7469 Z0.287
Y0.7519 Z0.2869
Y0.7568 Z0.2867
Y0.7618 Z0.2865
Y0.7668 Z0.2864
Y0.7718 Z0.2862
Y0.7768 Z0.2861
Y0.7818 Z0.2859
Y0.7868 Z0.2857
Y0.7917 Z0.2856
Y0.7967 Z0.2854
Y0.8017 Z0.2853
Y0.8067 Z0.2851
Y0.8117 Z0.285
Y0.8167 Z0.2848
Y0.8217 Z0.2847
Y0.8266 Z0.2845
Y0.8316 Z0.2844
Y0.8366 Z0.2843
Y0.8416 Z0.2841
Y0.8466 Z0.284
Y0.8516 Z0.2838
Y0.8566 Z0.2837
Y0.8615 Z0.2836
Y0.8665 Z0.2835
Y0.8715 Z0.2833
Y0.8765 Z0.2832
Y0.8815 Z0.2831
Y0.8865 Z0.283
Y0.8915 Z0.2828
Y0.8964 Z0.2827
Y0.9014 Z0.2826
Y0.9064 Z0.2825
Y0.9114 Z0.2824
Y0.9164 Z0.2823
Y0.9214 Z0.2822
Y0.9263 Z0.2821
Y0.9313 Z0.282
Y0.9363 Z0.2819
Y0.9463 Z0.2817
Y0.9563 Z0.2815
Y0.9662 Z0.2813
Y0.9762 Z0.2812
Y0.9862 Z0.281
Y0.9961 Z0.2809
Y1.0061 Z0.2807
Y1.0161 Z0.2806
Y1.0261 Z0.2805
Y1.036 Z0.2804
Y1.046 Z0.2803
Y1.056 Z0.2802
Y1.0602
Y1.0615
Y1.0624
Y1.0625
X1.4365
X1.434
X1.424 Z0.2801
X1.4141
X1.4041 Z0.28
X1.3941
X1.3842
X1.3827
X1.12
X1.0626
X1.0625 Y1.0624
Y0.5626
X1.0626 Y0.5625
X1.4374
X1.4375 Y0.5626
Y1.0624
X1.4374 Y1.0625
X1.3827
X1.3727
X1.3627
X1.3528 Z0.2799
X1.3428
X1.3328 Z0.2798
X1.3228
X1.3129 Z0.2797
X1.3029 Z0.2796
X1.2929 Z0.2795
X1.283 Z0.2794
X1.273 Z0.2793
X1.263 Z0.2792
X1.253 Z0.279
X1.2431 Z0.2789
X1.2331 Z0.2787
X1.2231 Z0.2785
X1.2132 Z0.2784
X1.2032 Z0.2782
X1.1932 Z0.278
X1.1882 Z0.2779
X1.1832 Z0.2778
X1.1783 Z0.2776
X1.1733 Z0.2775
X1.1683 Z0.2774
X1.1633 Z0.2773
X1.1583 Z0.2772
X1.1533 Z0.2771
X1.1483 Z0.277
X1.1434 Z0.2768
X1.1384 Z0.2767
X1.1334 Z0.2766
X1.1284 Z0.2765
X1.1234 Z0.2763
X1.1184 Z0.2762
X1.1134 Z0.2761
X1.1085 Z0.2759
X1.1035 Z0.2758
X1.0985 Z0.2756
X1.0935 Z0.2755
X1.0885 Z0.2754
X1.0835 Z0.2752
X1.0785 Z0.2751
X1.0736 Z0.2749
X1.0686 Z0.2748
X1.0636 Z0.2746
X1.0628
X1.0626
X1.0625
Y1.0622
Y1.0618
Y1.0604 Z0.2745
Y1.0581
Y1.0536 Z0.2743
Y1.0486 Z0.2741
Y1.0436 Z0.274
Y1.0386 Z0.2738
Y1.0336 Z0.2737
Y1.0287 Z0.2735
Y1.0237 Z0.2733
Y1.0187 Z0.2732
Y1.0137 Z0.273
Y1.0087 Z0.2728
Y1.0037 Z0.2727
Y0.9987 Z0.2725
Y0.9888 Z0.2721
Y0.9838 Z0.272
Y0.9788 Z0.2718
Y0.9738 Z0.2716
Y0.9688 Z0.2715
Y0.9638 Z0.2713
Y0.9589 Z0.2711
Y0.9539 Z0.2709
Y0.9489 Z0.2708
Y0.9439 Z0.2706
Y0.9389 Z0.2704
Y0.9339 Z0.2702
Y0.9289 Z0.2701
Y0.924 Z0.2699
Y0.919 Z0.2697
Y0.914 Z0.2695
Y0.909 Z0.2694
Y0.904 Z0.2692
Y0.899 Z0.269
Y0.894 Z0.2688
Y0.8891 Z0.2687
Y0.8841 Z0.2685
Y0.8791 Z0.2683
Y0.8741 Z0.2681
Y0.8691 Z0.268
Y0.8641 Z0.2678
Y0.8591 Z0.2676
Y0.8492 Z0.2673
Y0.8342 Z0.2667
Y0.8193 Z0.2662
Y0.8043 Z0.2657
Y0.7893 Z0.2652
Y0.7744 Z0.2647
Y0.7594 Z0.2641
Y0.7395 Z0.2634
Y0.7146 Z0.2626
Y0.6797 Z0.2614
Y0.6298 Z0.2596
Y0.565 Z0.2573
Y0.5636
Y0.5628
Y0.5625
X1.0627
X1.0628
X1.0632
X1.0658 Z0.2572
X1.07 Z0.2571
X1.095 Z0.2562
X1.1199 Z0.2553
X1.1348 Z0.2548
X1.1498 Z0.2543
X1.1647 Z0.2538
X1.1797 Z0.2532
X1.1947 Z0.2527
X1.2096 Z0.2522
X1.2146 Z0.252
X1.2196 Z0.2519
X1.2246 Z0.2517
X1.2296 Z0.2515
X1.2345 Z0.2513
X1.2395 Z0.2512
X1.2445 Z0.251
X1.2495 Z0.2508
X1.2545 Z0.2506
X1.2595 Z0.2505
X1.2645 Z0.2503
X1.2694 Z0.2501
X1.2744 Z0.2499
X1.2794 Z0.2498
X1.2844 Z0.2496
X1.2894 Z0.2494
X1.2944 Z0.2492
X1.2994 Z0.2491
X1.3043 Z0.2489
X1.3093 Z0.2487
X1.3143 Z0.2485
X1.3193 Z0.2484
X1.3243 Z0.2482
X1.3293 Z0.248
X1.3343 Z0.2478
X1.3442 Z0.2475
X1.3492 Z0.2473
X1.3542 Z0.2472
X1.3592 Z0.247
X1.3642 Z0.2468
X1.3692 Z0.2467
X1.3741 Z0.2465
X1.3791 Z0.2463
X1.3841 Z0.2462
X1.3891 Z0.246
X1.3941 Z0.2458
X1.3991 Z0.2457
X1.4041 Z0.2455
X1.409 Z0.2454
X1.414 Z0.2452
X1.419 Z0.2451
X1.424 Z0.2449
X1.429 Z0.2448
X1.4334 Z0.2446
X1.4357
X1.4372 Z0.2445
X1.4374
X1.4375
Y0.5628
Y0.5632
Y0.564
Y0.569 Z0.2443
Y0.574 Z0.2442
Y0.579 Z0.2441
Y0.5839 Z0.2439
Y0.5889 Z0.2438
Y0.5939 Z0.2437
Y0.5989 Z0.2435
Y0.6039 Z0.2434
Y0.6089 Z0.2433
Y0.6139 Z0.2432
Y0.6188 Z0.243
Y0.6238 Z0.2429
Y0.6288 Z0.2428
Y0.6338 Z0.2427
Y0.6388 Z0.2426
Y0.6438 Z0.2425
Y0.6488 Z0.2423
Y0.6537 Z0.2422
Y0.6587 Z0.2421
Y0.6637 Z0.242
Y0.6737 Z0.2418
Y0.6837 Z0.2416
Y0.6936 Z0.2415
Y0.7036 Z0.2413
Y0.7136 Z0.2411
Y0.7235 Z0.241
Y0.7335 Z0.2408
Y0.7435 Z0.2407
Y0.7534 Z0.2406
Y0.7634 Z0.2405
Y0.7734 Z0.2404
Y0.7834 Z0.2403
Y0.7933 Z0.2402
Y0.8033
Y0.8133 Z0.2401
Y0.8232
Y0.8332 Z0.24
Y0.8432
Y0.853
Y1.0624
X1.4374 Y1.0625
X1.0626
X1.0625 Y1.0624
Y0.5626
X1.0626 Y0.5625
X1.4374
X1.4375 Y0.5626
Y0.853
Y0.8629
Y0.8729
Y0.8829 Z0.2399
Y0.8928
Y0.9028 Z0.2398
Y0.9128
Y0.9228 Z0.2397
Y0.9327 Z0.2396
Y0.9427 Z0.2395
Y0.9527 Z0.2394
Y0.9626 Z0.2393
Y0.9726 Z0.2392
Y0.9826 Z0.239
Y0.9925 Z0.2389
Y1.0025 Z0.2387
Y1.0125 Z0.2385
Y1.0225 Z0.2384
Y1.0324 Z0.2382
Y1.0424 Z0.238
Y1.0474 Z0.2379
Y1.0524 Z0.2378
Y1.0574 Z0.2376
Y1.0623 Z0.2375
X1.4374 Y1.0625
X1.4372
X1.4363
X1.4326 Z0.2374
X1.4276 Z0.2373
X1.4227 Z0.2372
X1.4177 Z0.2371
X1.4127 Z0.237
X1.4077 Z0.2368
X1.4027 Z0.2367
X1.3977 Z0.2366
X1.3927 Z0.2365
X1.3878 Z0.2363
X1.3828 Z0.2362
X1.3778 Z0.2361
X1.3728 Z0.2359
X1.3678 Z0.2358
X1.3628 Z0.2356
X1.3578 Z0.2355
X1.3529 Z0.2354
X1.3479 Z0.2352
X1.3429 Z0.2351
X1.3379 Z0.2349
X1.3329 Z0.2348
X1.3279 Z0.2346
X1.3229 Z0.2345
X1.318 Z0.2343
X1.313 Z0.2341
X1.308 Z0.234
X1.303 Z0.2338
X1.298 Z0.2337
X1.293 Z0.2335
X1.288 Z0.2333
X1.2831 Z0.2332
X1.2781 Z0.233
X1.2731 Z0.2328
X1.2681 Z0.2327
X1.2631 Z0.2325
X1.2531 Z0.2321
X1.2482 Z0.232
X1.2432 Z0.2318
X1.2382 Z0.2316
X1.2332 Z0.2315
X1.2282 Z0.2313
X1.2232 Z0.2311
X1.2182 Z0.2309
X1.2133 Z0.2308
X1.2083 Z0.2306
X1.2033 Z0.2304
X1.1983 Z0.2302
X1.1933 Z0.2301
X1.1883 Z0.2299
X1.1833 Z0.2297
X1.1784 Z0.2295
X1.1734 Z0.2294
X1.1684 Z0.2292
X1.1634 Z0.229
X1.1584 Z0.2288
X1.1534 Z0.2287
X1.1484 Z0.2285
X1.1435 Z0.2283
X1.1385 Z0.2281
X1.1335 Z0.228
X1.1285 Z0.2278
X1.1235 Z0.2276
X1.1135 Z0.2273
X1.0986 Z0.2267
X1.0836 Z0.2262
X1.0687 Z0.2257
X1.0644 Z0.2256
X1.0629 Z0.2255
X1.0626
X1.0625 Y1.0624
Y1.0623
Y1.0618
Y1.061
Y1.0587
Y1.0437 Z0.2249
Y1.0287 Z0.2244
Y1.0138 Z0.2239
Y0.9889 Z0.223
Y0.9639 Z0.2221
Y0.929 Z0.2209
Y0.8642 Z0.2187
Y0.8194 Z0.2171
Y0.7944 Z0.2162
Y0.7695 Z0.2154
Y0.7545 Z0.2148
Y0.7396 Z0.2143
Y0.7246 Z0.2138
Y0.7097 Z0.2133
Y0.6947 Z0.2127
Y0.6798 Z0.2122
Y0.6748 Z0.212
Y0.6698 Z0.2119
Y0.6648 Z0.2117
Y0.6598 Z0.2115
Y0.6548 Z0.2114
Y0.6498 Z0.2112
Y0.6449 Z0.211
Y0.6399 Z0.2108
Y0.6349 Z0.2107
Y0.6299 Z0.2105
Y0.6249 Z0.2103
Y0.6199 Z0.2101
Y0.6149 Z0.21
Y0.61 Z0.2098
Y0.605 Z0.2096
Y0.6 Z0.2094
Y0.595 Z0.2093
Y0.59 Z0.2091
Y0.585 Z0.2089
Y0.58 Z0.2087
Y0.5751 Z0.2086
Y0.5701 Z0.2084
Y0.5659 Z0.2083
Y0.5633 Z0.2082
Y0.5627
Y0.5626
X1.0626 Y0.5625
X1.0627
X1.0636 Z0.2081
X1.0649
X1.0699 Z0.2079
X1.0749 Z0.2078
X1.0799 Z0.2076
X1.0849 Z0.2074
X1.0899 Z0.2072
X1.0949 Z0.2071
X1.0998 Z0.2069
X1.1048 Z0.2067
X1.1098 Z0.2066
X1.1148 Z0.2064
X1.1198 Z0.2062
X1.1248 Z0.2061
X1.1298 Z0.2059
X1.1347 Z0.2058
X1.1397 Z0.2056
X1.1447 Z0.2055
X1.1497 Z0.2053
X1.1547 Z0.2052
X1.1597 Z0.205
X1.1647 Z0.2049
X1.1696 Z0.2047
X1.1746 Z0.2046
X1.1796 Z0.2044
X1.1846 Z0.2043
X1.1896 Z0.2041
X1.1946 Z0.204
X1.1996 Z0.2039
X1.2045 Z0.2037
X1.2095 Z0.2036
X1.2145 Z0.2035
X1.2195 Z0.2034
X1.2245 Z0.2032
X1.2295 Z0.2031
X1.2344 Z0.203
X1.2394 Z0.2029
X1.2444 Z0.2027
X1.2494 Z0.2026
X1.2544 Z0.2025
X1.2594 Z0.2024
X1.2644 Z0.2023
X1.2693 Z0.2022
X1.2743 Z0.2021
X1.2793 Z0.202
X1.2843 Z0.2019
X1.2943 Z0.2017
X1.3042 Z0.2015
X1.3142 Z0.2013
X1.3242 Z0.2012
X1.3342 Z0.201
X1.3441 Z0.2009
X1.3541 Z0.2007
X1.3641 Z0.2006
X1.374 Z0.2005
X1.384 Z0.2004
X1.394 Z0.2003
X1.404 Z0.2002
X1.4139
X1.4239 Z0.2001
X1.4339
X1.4363
X1.4375
Y0.5627
Y0.5633
Y0.5647 Z0.2
Y0.5689
Y0.5789
Y0.5888
Y0.5913
Y0.853
Y1.0624
X1.4374 Y1.0625
X1.0626
X1.0625 Y1.0624
Y0.5626
X1.0626 Y0.5625
X1.4374
X1.4375 Y0.5626
Y0.5913
Y0.6013
Y0.6112
Y0.6212 Z0.1999
Y0.6312
Y0.6411 Z0.1998
Y0.6511
Y0.6611 Z0.1997
Y0.6711 Z0.1996
Y0.681 Z0.1995
Y0.691 Z0.1994
Y0.701 Z0.1993
Y0.7109 Z0.1992
Y0.7209 Z0.199
Y0.7309 Z0.1989
Y0.7409 Z0.1987
Y0.7508 Z0.1985
Y0.7608 Z0.1984
Y0.7708 Z0.1982
Y0.7807 Z0.198
Y0.7857 Z0.1979
Y0.7907 Z0.1978
Y0.7957 Z0.1976
Y0.8007 Z0.1975
Y0.8057 Z0.1974
Y0.8106 Z0.1973
Y0.8156 Z0.1972
Y0.8206 Z0.1971
Y0.8256 Z0.197
Y0.8306 Z0.1968
Y0.8356 Z0.1967
Y0.8406 Z0.1966
Y0.8455 Z0.1965
Y0.8505 Z0.1963
Y0.8555 Z0.1962
Y0.8605 Z0.1961
Y0.8655 Z0.1959
Y0.8705 Z0.1958
Y0.8755 Z0.1956
Y0.8804 Z0.1955
Y0.8854 Z0.1954
Y0.8904 Z0.1952
Y0.8954 Z0.1951
Y0.9004 Z0.1949
Y0.9054 Z0.1948
Y0.9104 Z0.1946
Y0.9153 Z0.1945
Y0.9203 Z0.1943
Y0.9253 Z0.1941
Y0.9303 Z0.194
Y0.9353 Z0.1938
Y0.9403 Z0.1937
Y0.9453 Z0.1935
Y0.9502 Z0.1933
Y0.9552 Z0.1932
Y0.9602 Z0.193
Y0.9652 Z0.1928
Y0.9702 Z0.1927
Y0.9752 Z0.1925
Y0.9851 Z0.1921
Y0.9901 Z0.192
Y0.9951 Z0.1918
Y1.0001 Z0.1916
Y1.0051 Z0.1915
Y1.0101 Z0.1913
Y1.0151 Z0.1911
Y1.02 Z0.1909
Y1.025 Z0.1908
Y1.03 Z0.1906
Y1.035 Z0.1904
Y1.04 Z0.1902
Y1.045 Z0.1901
Y1.05 Z0.1899
Y1.0549 Z0.1897
Y1.0599 Z0.1895
Y1.0613
Y1.0621
Y1.0623
Y1.0625
X1.4373
X1.4369
X1.4342 Z0.1894
X1.4301 Z0.1893
X1.4251 Z0.1891
X1.4201 Z0.1889
X1.4151 Z0.1887
X1.4101 Z0.1886
X1.4051 Z0.1884
X1.4001 Z0.1882
X1.3952 Z0.188
X1.3902 Z0.1879
X1.3852 Z0.1877
X1.3752 Z0.1873
X1.3603 Z0.1868
X1.3453 Z0.1863
X1.3303 Z0.1858
X1.3154 Z0.1853
X1.3004 Z0.1847
X1.2855 Z0.1842
X1.2655 Z0.1835
X1.2406 Z0.1826
X1.2057 Z0.1814
X1.1608 Z0.1799
X1.0861 Z0.1772
X1.0711 Z0.1767
X1.0667 Z0.1766
X1.0643 Z0.1765
X1.0629
X1.0626
X1.0625 Y1.0624
Y1.0623
Y1.0618 Z0.1764
Y1.0611
Y1.0362 Z0.1756
Y1.0212 Z0.175
Y1.0062 Z0.1745
Y0.9913 Z0.174
Y0.9763 Z0.1735
Y0.9614 Z0.1729
Y0.9464 Z0.1724
Y0.9414 Z0.1722
Y0.9364 Z0.1721
Y0.9315 Z0.1719
Y0.9265 Z0.1717
Y0.9215 Z0.1715
Y0.9165 Z0.1714
Y0.9115 Z0.1712
Y0.9065 Z0.171
Y0.9015 Z0.1709
Y0.8966 Z0.1707
Y0.8916 Z0.1705
Y0.8866 Z0.1703
Y0.8816 Z0.1702
Y0.8766 Z0.17
Y0.8716 Z0.1698
Y0.8666 Z0.1696
Y0.8617 Z0.1695
Y0.8567 Z0.1693
Y0.8517 Z0.1691
Y0.8467 Z0.1689
Y0.8417 Z0.1688
Y0.8367 Z0.1686
Y0.8317 Z0.1684
Y0.8268 Z0.1682
Y0.8218 Z0.1681
Y0.8168 Z0.1679
Y0.8018 Z0.1674
Y0.7968 Z0.1672
Y0.7919 Z0.167
Y0.7869 Z0.1669
Y0.7819 Z0.1667
Y0.7769 Z0.1665
Y0.7719 Z0.1664
Y0.7669 Z0.1662
Y0.7619 Z0.166
Y0.757 Z0.1659
Y0.752 Z0.1657
Y0.747 Z0.1656
Y0.742 Z0.1654
Y0.737 Z0.1653
Y0.732 Z0.1651
Y0.727 Z0.165
Y0.7221 Z0.1648
Y0.7171 Z0.1647
Y0.7121 Z0.1645
Y0.7071 Z0.1644
Y0.7021 Z0.1642
Y0.6971 Z0.1641
Y0.6921 Z0.164
Y0.6872 Z0.1638
Y0.6822 Z0.1637
Y0.6772 Z0.1636
Y0.6722 Z0.1634
Y0.6672 Z0.1633
Y0.6622 Z0.1632
Y0.6572 Z0.1631
Y0.6523 Z0.1629
Y0.6473 Z0.1628
Y0.6423 Z0.1627
Y0.6373 Z0.1626
Y0.6323 Z0.1625
Y0.6273 Z0.1624
Y0.6223 Z0.1623
Y0.6174 Z0.1622
Y0.6124 Z0.1621
Y0.6074 Z0.162
Y0.6024 Z0.1619
Y0.5924 Z0.1617
Y0.5825 Z0.1615
Y0.5725 Z0.1613
Y0.5675 Z0.1612
Y0.5628
Y0.5627
Y0.5625
X1.0627
X1.0675 Z0.1611
X1.0725 Z0.161
X1.0825 Z0.1609
X1.0924 Z0.1607
X1.1024 Z0.1606
X1.1124 Z0.1605
X1.1223 Z0.1604
X1.1323 Z0.1603
X1.1423 Z0.1602
X1.1523
X1.1622 Z0.1601
X1.1722
X1.1822 Z0.16
X1.1921
X1.2021
X1.2032
X1.4374
X1.4375 Y0.5626
Y1.0624
X1.4374 Y1.0625
X1.0626
X1.0625 Y1.0624
Y0.5626
X1.0626 Y0.5625
X1.2032
X1.2132
X1.2232
X1.2331 Z0.1599
X1.2431
X1.2531 Z0.1598
X1.263
X1.273 Z0.1597
X1.283 Z0.1596
X1.293 Z0.1595
X1.3029 Z0.1594
X1.3129 Z0.1593
X1.3229 Z0.1592
X1.3328 Z0.159
X1.3428 Z0.1589
X1.3528 Z0.1587
X1.3628 Z0.1585
X1.3727 Z0.1584
X1.3827 Z0.1582
X1.3927 Z0.158
X1.3977 Z0.1579
X1.4026 Z0.1578
X1.4076 Z0.1576
X1.4126 Z0.1575
X1.4176 Z0.1574
X1.4226 Z0.1573
X1.4276 Z0.1572
X1.4326 Z0.1571
X1.4374 Z0.157
X1.4375 Y0.5626
Y0.5651 Z0.1569
Y0.5676 Z0.1568
Y0.5726 Z0.1567
Y0.5775 Z0.1566
Y0.5825 Z0.1565
Y0.5875 Z0.1563
Y0.5925 Z0.1562
Y0.5975 Z0.1561
Y0.6025 Z0.1559
Y0.6074 Z0.1558
Y0.6124 Z0.1556
Y0.6174 Z0.1555
Y0.6224 Z0.1554
Y0.6274 Z0.1552
Y0.6324 Z0.1551
Y0.6374 Z0.1549
Y0.6423 Z0.1548
Y0.6473 Z0.1546
Y0.6523 Z0.1545
Y0.6573 Z0.1543
Y0.6623 Z0.1541
Y0.6673 Z0.154
Y0.6723 Z0.1538
Y0.6772 Z0.1537
Y0.6822 Z0.1535
Y0.6872 Z0.1533
Y0.6922 Z0.1532
Y0.6972 Z0.153
Y0.7022 Z0.1528
Y0.7072 Z0.1527
Y0.7121 Z0.1525
Y0.7221 Z0.1521
Y0.7271 Z0.152
Y0.7321 Z0.1518
Y0.7371 Z0.1516
Y0.7421 Z0.1515
Y0.747 Z0.1513
Y0.752 Z0.1511
Y0.757 Z0.1509
Y0.762 Z0.1508
Y0.767 Z0.1506
Y0.772 Z0.1504
Y0.777 Z0.1502
Y0.7819 Z0.1501
Y0.7869 Z0.1499
Y0.7919 Z0.1497
Y0.7969 Z0.1495
Y0.8019 Z0.1494
Y0.8069 Z0.1492
Y0.8119 Z0.149
Y0.8168 Z0.1488
Y0.8218 Z0.1487
Y0.8268 Z0.1485
Y0.8318 Z0.1483
Y0.8368 Z0.1481
Y0.8418 Z0.148
Y0.8468 Z0.1478
Y0.8517 Z0.1476
Y0.8617 Z0.1473
Y0.8767 Z0.1467
Y0.8916 Z0.1462
Y0.9066 Z0.1457
Y0.9215 Z0.1452
Y0.9365 Z0.1447
Y0.9515 Z0.1441
Y0.9714 Z0.1434
Y0.9963 Z0.1426
Y1.0312 Z0.1414
Y1.0562 Z0.1405
Y1.0604 Z0.1404
Y1.0618 Z0.1403
Y1.0623
Y1.0624
X1.4374 Y1.0625
X1.4371
X1.4363
X1.4338 Z0.1402
X1.359 Z0.1376
X1.3241 Z0.1364
X1.2992 Z0.1355
X1.2843 Z0.135
X1.2693 Z0.1345
X1.2544 Z0.134
X1.2394 Z0.1334
X1.2244 Z0.1329
X1.2095 Z0.1324
X1.2045 Z0.1322
X1.1995 Z0.132
X1.1945 Z0.1319
X1.1895 Z0.1317
X1.1846 Z0.1315
X1.1796 Z0.1313
X1.1746 Z0.1312
X1.1696 Z0.131
X1.1646 Z0.1308
X1.1596 Z0.1307
X1.1546 Z0.1305
X1.1497 Z0.1303
X1.1447 Z0.1301
X1.1397 Z0.13
X1.1347 Z0.1298
X1.1297 Z0.1296
X1.1247 Z0.1294
X1.1197 Z0.1293
X1.1148 Z0.1291
X1.1098 Z0.1289
X1.1048 Z0.1287
X1.0998 Z0.1286
X1.0948 Z0.1284
X1.0898 Z0.1282
X1.0848 Z0.128
X1.0799 Z0.1279
X1.0699 Z0.1275
X1.0649 Z0.1273
X1.0635
X1.0627
X1.0625
Y1.0623
Y1.0616
Y1.0591 Z0.1272
Y1.0549 Z0.1271
Y1.0499 Z0.1269
Y1.0449 Z0.1267
Y1.0399 Z0.1266
Y1.0349 Z0.1264
Y1.03 Z0.1262
Y1.025 Z0.1261
Y1.02 Z0.1259
Y1.015 Z0.1258
Y1.01 Z0.1256
Y1.005 Z0.1255
Y1. Z0.1253
Y0.9951 Z0.1251
Y0.9901 Z0.125
Y0.9851 Z0.1249
Y0.9801 Z0.1247
Y0.9751 Z0.1246
Y0.9701 Z0.1244
Y0.9651 Z0.1243
Y0.9602 Z0.1241
Y0.9552 Z0.124
Y0.9502 Z0.1239
Y0.9452 Z0.1237
Y0.9402 Z0.1236
Y0.9352 Z0.1235
Y0.9302 Z0.1233
Y0.9253 Z0.1232
Y0.9203 Z0.1231
Y0.9153 Z0.123
Y0.9103 Z0.1229
Y0.9053 Z0.1227
Y0.9003 Z0.1226
Y0.8953 Z0.1225
Y0.8904 Z0.1224
Y0.8854 Z0.1223
Y0.8804 Z0.1222
Y0.8754 Z0.1221
Y0.8704 Z0.122
Y0.8654 Z0.1219
Y0.8555 Z0.1217
Y0.8455 Z0.1215
Y0.8355 Z0.1213
Y0.8255 Z0.1212
Y0.8156 Z0.121
Y0.8056 Z0.1209
Y0.7956 Z0.1207
Y0.7857 Z0.1206
Y0.7757 Z0.1205
Y0.7657 Z0.1204
Y0.7557 Z0.1203
Y0.7458 Z0.1202
Y0.7358
Y0.7258 Z0.1201
Y0.7159
Y0.7059 Z0.12
Y0.6959
Y0.686
Y0.6837
Y0.5626
X1.0626 Y0.5625
X1.4374
X1.4375 Y0.5626
Y1.0624
X1.4374 Y1.0625
X1.0626
X1.0625 Y1.0624
Y0.6837
Y0.6738
Y0.6638
Y0.6538 Z0.1199
Y0.6439
Y0.6339 Z0.1198
Y0.6239
Y0.614 Z0.1197
Y0.604 Z0.1196
Y0.594 Z0.1195
Y0.584 Z0.1194
Y0.5741 Z0.1193
Y0.5641 Z0.1192
Y0.5625 Z0.1191
X1.0626
X1.0642
X1.0666
X1.0709 Z0.119
X1.0809 Z0.1189
X1.0909 Z0.1187
X1.1008 Z0.1185
X1.1108 Z0.1184
X1.1208 Z0.1182
X1.1307 Z0.118
X1.1357 Z0.1179
X1.1407 Z0.1178
X1.1457 Z0.1176
X1.1507 Z0.1175
X1.1557 Z0.1174
X1.1607 Z0.1173
X1.1656 Z0.1172
X1.1706 Z0.1171
X1.1756 Z0.117
X1.1806 Z0.1168
X1.1856 Z0.1167
X1.1906 Z0.1166
X1.1956 Z0.1165
X1.2005 Z0.1163
X1.2055 Z0.1162
X1.2105 Z0.1161
X1.2155 Z0.1159
X1.2205 Z0.1158
X1.2255 Z0.1156
X1.2305 Z0.1155
X1.2354 Z0.1154
X1.2404 Z0.1152
X1.2454 Z0.1151
X1.2504 Z0.1149
X1.2554 Z0.1148
X1.2604 Z0.1146
X1.2654 Z0.1145
X1.2703 Z0.1143
X1.2753 Z0.1141
X1.2803 Z0.114
X1.2853 Z0.1138
X1.2903 Z0.1137
X1.2953 Z0.1135
X1.3003 Z0.1133
X1.3052 Z0.1132
X1.3102 Z0.113
X1.3152 Z0.1128
X1.3202 Z0.1127
X1.3252 Z0.1125
X1.3352 Z0.1121
X1.3401 Z0.112
X1.3451 Z0.1118
X1.3501 Z0.1116
X1.3551 Z0.1115
X1.3601 Z0.1113
X1.3651 Z0.1111
X1.3701 Z0.1109
X1.375 Z0.1108
X1.38 Z0.1106
X1.385 Z0.1104
X1.39 Z0.1102
X1.395 Z0.1101
X1.4 Z0.1099
X1.405 Z0.1097
X1.4099 Z0.1095
X1.4149 Z0.1094
X1.4199 Z0.1092
X1.4249 Z0.109
X1.4299 Z0.1088
X1.4341 Z0.1087
X1.4366 Z0.1086
X1.4373
X1.4375
Y0.5626
Y0.5635
Y0.5649
Y0.5699 Z0.1084
Y0.5749 Z0.1082
Y0.5798 Z0.108
Y0.5848 Z0.1079
Y0.5898 Z0.1077
Y0.5998 Z0.1073
Y0.6147 Z0.1068
Y0.6297 Z0.1063
Y0.6447 Z0.1058
Y0.6596 Z0.1053
Y0.6746 Z0.1047
Y0.6895 Z0.1042
Y0.7095 Z0.1035
Y0.7344 Z0.1026
Y0.7693 Z0.1014
Y0.8142 Z0.0999
Y0.889 Z0.0972
Y0.9139 Z0.0964
Y0.9388 Z0.0955
Y0.9538 Z0.095
Y0.9687 Z0.0945
Y0.9837 Z0.0939
Y0.9986 Z0.0934
Y1.0136 Z0.0929
Y1.0286 Z0.0924
Y1.0335 Z0.0922
Y1.0385 Z0.092
Y1.0435 Z0.0918
Y1.0485 Z0.0917
Y1.058 Z0.0913
Y1.0604
Y1.0617 Z0.0912
Y1.0623
Y1.0625
X1.4373
X1.4365
X1.4315 Z0.091
X1.4265 Z0.0908
X1.4215 Z0.0907
X1.4166 Z0.0905
X1.4116 Z0.0903
X1.4066 Z0.0901
X1.4016 Z0.09
X1.3966 Z0.0898
X1.3916 Z0.0896
X1.3866 Z0.0894
X1.3817 Z0.0893
X1.3767 Z0.0891
X1.3717 Z0.0889
X1.3667 Z0.0887
X1.3617 Z0.0886
X1.3567 Z0.0884
X1.3518 Z0.0882
X1.3468 Z0.088
X1.3418 Z0.0879
X1.3318 Z0.0875
X1.3268 Z0.0874
X1.3218 Z0.0872
X1.3169 Z0.087
X1.3119 Z0.0868
X1.3069 Z0.0867
X1.3019 Z0.0865
X1.2969 Z0.0864
X1.2919 Z0.0862
X1.2869 Z0.086
X1.282 Z0.0859
X1.277 Z0.0857
X1.272 Z0.0856
X1.267 Z0.0854
X1.262 Z0.0853
X1.257 Z0.0851
X1.252 Z0.085
X1.2471 Z0.0848
X1.2421 Z0.0847
X1.2371 Z0.0845
X1.2321 Z0.0844
X1.2271 Z0.0842
X1.2221 Z0.0841
X1.2171 Z0.084
X1.2122 Z0.0838
X1.2072 Z0.0837
X1.2022 Z0.0836
X1.1972 Z0.0834
X1.1922 Z0.0833
X1.1872 Z0.0832
X1.1822 Z0.0831
X1.1773 Z0.0829
X1.1723 Z0.0828
X1.1673 Z0.0827
X1.1623 Z0.0826
X1.1573 Z0.0825
X1.1523 Z0.0824
X1.1473 Z0.0823
X1.1424 Z0.0822
X1.1374 Z0.0821
X1.1274 Z0.0819
X1.1174 Z0.0817
X1.1075 Z0.0815
X1.0975 Z0.0813
X1.0875 Z0.0811
X1.0775 Z0.081
X1.0676 Z0.0809
X1.0628 Z0.0808
X1.0626
X1.0625 Y1.0624
Y1.0619
Y1.0576 Z0.0807
Y1.0476 Z0.0806
Y1.0376 Z0.0805
Y1.0276 Z0.0804
Y1.0177 Z0.0803
Y1.0077 Z0.0802
Y0.9977
Y0.9878 Z0.0801
Y0.9778
Y0.9678 Z0.08
Y0.9578
Y0.9473
Y0.6837
Y0.5626
X1.0626 Y0.5625
X1.4374
X1.4375 Y0.5626
Y1.0624
X1.4374 Y1.0625
X1.0626
X1.0625 Y1.0624
Y0.9473
Y0.9373
Y0.9273
Y0.9173 Z0.0799
Y0.9074
Y0.8974 Z0.0798
Y0.8874
Y0.8775 Z0.0797
Y0.8675 Z0.0796
Y0.8575 Z0.0795
Y0.8475 Z0.0794
Y0.8376 Z0.0793
Y0.8276 Z0.0792
Y0.8176 Z0.079
Y0.8077 Z0.0789
Y0.7977 Z0.0787
Y0.7877 Z0.0785
Y0.7777 Z0.0784
Y0.7678 Z0.0782
Y0.7578 Z0.078
Y0.7528 Z0.0779
Y0.7478 Z0.0778
Y0.7428 Z0.0776
Y0.7379 Z0.0775
Y0.7329 Z0.0774
Y0.7279 Z0.0773
Y0.7229 Z0.0772
Y0.7179 Z0.0771
Y0.7129 Z0.077
Y0.7079 Z0.0768
Y0.703 Z0.0767
Y0.698 Z0.0766
Y0.693 Z0.0765
Y0.688 Z0.0763
Y0.683 Z0.0762
Y0.678 Z0.0761
Y0.673 Z0.0759
Y0.6681 Z0.0758
Y0.6631 Z0.0756
Y0.6581 Z0.0755
Y0.6531 Z0.0754
Y0.6481 Z0.0752
Y0.6431 Z0.0751
Y0.6381 Z0.0749
Y0.6332 Z0.0748
Y0.6282 Z0.0746
Y0.6232 Z0.0745
Y0.6182 Z0.0743
Y0.6132 Z0.0741
Y0.6082 Z0.074
Y0.6032 Z0.0738
Y0.5983 Z0.0737
Y0.5933 Z0.0735
Y0.5883 Z0.0733
Y0.5833 Z0.0732
Y0.5783 Z0.073
Y0.5733 Z0.0728
Y0.5683 Z0.0727
Y0.5639 Z0.0725
Y0.5632
Y0.5626
X1.0626 Y0.5625
X1.0628
X1.0643
X1.0667 Z0.0724
X1.0716 Z0.0722
X1.0766 Z0.0721
X1.0816 Z0.0719
X1.0866 Z0.0717
X1.0916 Z0.0715
X1.0966 Z0.0714
X1.1016 Z0.0712
X1.1065 Z0.071
X1.1115 Z0.0708
X1.1165 Z0.0707
X1.1215 Z0.0705
X1.1265 Z0.0703
X1.1315 Z0.0702
X1.1365 Z0.07
X1.1414 Z0.0698
X1.1464 Z0.0696
X1.1514 Z0.0695
X1.1564 Z0.0693
X1.1614 Z0.0691
X1.1664 Z0.0689
X1.1714 Z0.0688
X1.1763 Z0.0686
X1.1813 Z0.0684
X1.1863 Z0.0682
X1.1913 Z0.0681
X1.1963 Z0.0679
X1.2013 Z0.0677
X1.2112 Z0.0674
X1.2262 Z0.0668
X1.2412 Z0.0663
X1.2561 Z0.0658
X1.2711 Z0.0653
X1.286 Z0.0648
X1.301 Z0.0642
X1.3209 Z0.0635
X1.3459 Z0.0627
X1.3808 Z0.0614
X1.4256 Z0.0599
X1.4356 Z0.0595
X1.4371
X1.4374
X1.4375 Y0.5626
Y0.5627
Y0.5632
Y0.5639
Y0.5663 Z0.0594
Y0.5706 Z0.0592
Y0.6255 Z0.0573
Y0.6504 Z0.0565
Y0.6753 Z0.0556
Y0.6903 Z0.0551
Y0.7052 Z0.0545
Y0.7202 Z0.054
Y0.7351 Z0.0535
Y0.7501 Z0.053
Y0.765 Z0.0525
Y0.77 Z0.0523
Y0.775 Z0.0521
Y0.78 Z0.0519
Y0.785 Z0.0518
Y0.79 Z0.0516
Y0.795 Z0.0514
Y0.7999 Z0.0512
Y0.8049 Z0.0511
Y0.8099 Z0.0509
Y0.8149 Z0.0507
Y0.8199 Z0.0505
Y0.8249 Z0.0504
Y0.8299 Z0.0502
Y0.8348 Z0.05
Y0.8398 Z0.0498
Y0.8448 Z0.0497
Y0.8498 Z0.0495
Y0.8548 Z0.0493
Y0.8598 Z0.0491
Y0.8648 Z0.049
Y0.8697 Z0.0488
Y0.8747 Z0.0486
Y0.8797 Z0.0484
Y0.8847 Z0.0483
Y0.8897 Z0.0481
Y0.8947 Z0.0479
Y0.8997 Z0.0478
Y0.9046 Z0.0476
Y0.9096 Z0.0474
Y0.9146 Z0.0472
Y0.9196 Z0.0471
Y0.9246 Z0.0469
Y0.9296 Z0.0467
Y0.9346 Z0.0466
Y0.9395 Z0.0464
Y0.9445 Z0.0462
Y0.9495 Z0.0461
Y0.9545 Z0.0459
Y0.9595 Z0.0458
Y0.9645 Z0.0456
Y0.9695 Z0.0454
Y0.9744 Z0.0453
Y0.9794 Z0.0451
Y0.9844 Z0.045
Y0.9894 Z0.0448
Y0.9944 Z0.0447
Y0.9994 Z0.0446
Y1.0044 Z0.0444
Y1.0093 Z0.0443
Y1.0143 Z0.0441
Y1.0193 Z0.044
Y1.0243 Z0.0439
Y1.0293 Z0.0437
Y1.0343 Z0.0436
Y1.0393 Z0.0435
Y1.0442 Z0.0433
Y1.0492 Z0.0432
Y1.0542 Z0.0431
Y1.0592 Z0.043
Y1.0618 Z0.0429
Y1.0623
Y1.0624
X1.4374 Y1.0625
X1.4371
X1.4363
X1.435
X1.4308 Z0.0427
X1.4258 Z0.0426
X1.4208 Z0.0425
X1.4158 Z0.0424
X1.4108 Z0.0423
X1.4059 Z0.0422
X1.4009 Z0.0421
X1.3959 Z0.042
X1.3909 Z0.0419
X1.3809 Z0.0417
X1.371 Z0.0415
X1.361 Z0.0413
X1.351 Z0.0412
X1.341 Z0.041
X1.3311 Z0.0409
X1.3211 Z0.0407
X1.3111 Z0.0406
X1.3012 Z0.0405
X1.2912 Z0.0404
X1.2812 Z0.0403
X1.2712 Z0.0402
X1.2613
X1.2513 Z0.0401
X1.2413
X1.2314 Z0.04
X1.2214
X1.2114
X1.2093
X1.0626
X1.0625 Y1.0624
Y0.5626
X1.0626 Y0.5625
X1.4374
X1.4375 Y0.5626
Y1.0624
X1.4374 Y1.0625
X1.2093
X1.1993
X1.1894
X1.1794 Z0.0399
X1.1694
X1.1595 Z0.0398
X1.1495
X1.1395 Z0.0397
X1.1296 Z0.0396
X1.1196 Z0.0395
X1.1096 Z0.0394
X1.0996 Z0.0393
X1.0897 Z0.0392
X1.0797 Z0.039
X1.0697 Z0.0389
X1.0656 Z0.0388
X1.0628 Z0.0387
X1.0626
X1.0625
Y1.0622
Y1.0618
Y1.0597
Y1.0497 Z0.0385
Y1.0398 Z0.0384
Y1.0298 Z0.0382
Y1.0198 Z0.038
Y1.0148 Z0.0379
Y1.0099 Z0.0378
Y1.0049 Z0.0376
Y0.9999 Z0.0375
Y0.9949 Z0.0374
Y0.9899 Z0.0373
Y0.9849 Z0.0372
Y0.9799 Z0.0371
Y0.975 Z0.037
Y0.97 Z0.0368
Y0.965 Z0.0367
Y0.96 Z0.0366
Y0.955 Z0.0365
Y0.95 Z0.0363
Y0.945 Z0.0362
Y0.9401 Z0.0361
Y0.9351 Z0.0359
Y0.9301 Z0.0358
Y0.9251 Z0.0356
Y0.9201 Z0.0355
Y0.9151 Z0.0354
Y0.9101 Z0.0352
Y0.9052 Z0.0351
Y0.9002 Z0.0349
Y0.8952 Z0.0348
Y0.8902 Z0.0346
Y0.8852 Z0.0345
Y0.8802 Z0.0343
Y0.8752 Z0.0341
Y0.8703 Z0.034
Y0.8653 Z0.0338
Y0.8603 Z0.0337
Y0.8553 Z0.0335
Y0.8503 Z0.0333
Y0.8453 Z0.0332
Y0.8403 Z0.033
Y0.8354 Z0.0328
Y0.8304 Z0.0327
Y0.8254 Z0.0325
Y0.8154 Z0.0321
Y0.8104 Z0.032
Y0.8054 Z0.0318
Y0.8005 Z0.0316
Y0.7955 Z0.0315
Y0.7905 Z0.0313
Y0.7855 Z0.0311
Y0.7805 Z0.0309
Y0.7755 Z0.0308
Y0.7705 Z0.0306
Y0.7656 Z0.0304
Y0.7606 Z0.0302
Y0.7556 Z0.0301
Y0.7506 Z0.0299
Y0.7456 Z0.0297
Y0.7406 Z0.0295
Y0.7356 Z0.0294
Y0.7307 Z0.0292
Y0.7257 Z0.029
Y0.7207 Z0.0288
Y0.7157 Z0.0287
Y0.7107 Z0.0285
Y0.7057 Z0.0283
Y0.7007 Z0.0281
Y0.6958 Z0.028
Y0.6908 Z0.0278
Y0.6858 Z0.0276
Y0.6758 Z0.0273
Y0.6609 Z0.0267
Y0.6459 Z0.0262
Y0.6309 Z0.0257
Y0.616 Z0.0252
Y0.601 Z0.0247
Y0.5861 Z0.0241
Y0.5711 Z0.0236
Y0.5667 Z0.0235
Y0.5644 Z0.0234
Y0.5629 Z0.0233
Y0.5627
Y0.5625
X1.0627
X1.0631
X1.0639
X1.0888 Z0.0224
X1.1237 Z0.0212
X1.1786 Z0.0193
X1.2434 Z0.017
X1.2683 Z0.0162
X1.2932 Z0.0153
X1.3082 Z0.0148
X1.3231 Z0.0143
X1.3381 Z0.0137
X1.3531 Z0.0132
X1.368 Z0.0127
X1.383 Z0.0122
X1.388 Z0.012
X1.3929 Z0.0118
X1.3979 Z0.0116
X1.4029 Z0.0115
X1.4079 Z0.0113
X1.4129 Z0.0111
X1.4179 Z0.011
X1.4229 Z0.0108
X1.4278 Z0.0106
X1.4328 Z0.0104
X1.4352
X1.4364 Z0.0103
X1.4371
X1.4374
X1.4375 Y0.5626
Y0.5627
Y0.5631
Y0.5678 Z0.0102
Y0.5728 Z0.01
Y0.5778 Z0.0098
Y0.5828 Z0.0097
Y0.5878 Z0.0095
Y0.5928 Z0.0093
Y0.5978 Z0.0091
Y0.6027 Z0.009
Y0.6077 Z0.0088
Y0.6127 Z0.0086
Y0.6177 Z0.0084
Y0.6227 Z0.0083
Y0.6277 Z0.0081
Y0.6326 Z0.0079
Y0.6376 Z0.0077
Y0.6426 Z0.0076
Y0.6476 Z0.0074
Y0.6526 Z0.0072
Y0.6576 Z0.0071
Y0.6626 Z0.0069
Y0.6675 Z0.0067
Y0.6725 Z0.0066
Y0.6775 Z0.0064
Y0.6825 Z0.0062
Y0.6875 Z0.0061
Y0.6925 Z0.0059
Y0.6975 Z0.0058
Y0.7024 Z0.0056
Y0.7074 Z0.0054
Y0.7124 Z0.0053
Y0.7174 Z0.0051
Y0.7224 Z0.005
Y0.7274 Z0.0048
Y0.7324 Z0.0047
Y0.7373 Z0.0046
Y0.7423 Z0.0044
Y0.7473 Z0.0043
Y0.7523 Z0.0041
Y0.7573 Z0.004
Y0.7623 Z0.0039
Y0.7673 Z0.0037
Y0.7722 Z0.0036
Y0.7772 Z0.0035
Y0.7822 Z0.0033
Y0.7872 Z0.0032
Y0.7922 Z0.0031
Y0.7972 Z0.003
Y0.8022 Z0.0028
Y0.8071 Z0.0027
Y0.8121 Z0.0026
Y0.8171 Z0.0025
Y0.8221 Z0.0024
Y0.8271 Z0.0023
Y0.8321 Z0.0022
Y0.8371 Z0.0021
Y0.842 Z0.002
Y0.847 Z0.0019
Y0.857 Z0.0017
Y0.867 Z0.0015
Y0.8769 Z0.0013
Y0.8869 Z0.0012
Y0.8969 Z0.001
Y0.9069 Z0.0009
Y0.9168 Z0.0007
Y0.9268 Z0.0006
Y0.9368 Z0.0005
Y0.9467 Z0.0004
Y0.9567 Z0.0003
Y0.9667 Z0.0002
Y0.9767
Y0.9866 Z0.0001
Y0.9966
Y1.0066 Z0.
Y1.0165
Y1.0265
Y1.0284
Y1.0624
X1.4374 Y1.0625
X1.2093
X1.0626
X1.0625 Y1.0624
Y0.5626
X1.0626 Y0.5625
X1.4374
X1.4375 Y0.5626
Y1.0284
G3 X1.425 Y1.0409 I-0.0125 J0.
G1 X1.4222 Z0.0003
X1.4196 Z0.0012
X1.4172 Z0.0027
X1.4152 Z0.0047
X1.4137 Z0.0071
X1.4128 Z0.0097
X1.4125 Z0.0125
Z1.12
X2.3927 Y1.8773
Z0.9718
Z0.9356 F10.
Z0.8925 F12.
Y1.8777 Z0.8897
Y1.8786 Z0.8871
Y1.8801 Z0.8847
Y1.8821 Z0.8827
Y1.8844 Z0.8812
Y1.8871 Z0.8803
Y1.8898 Z0.88
Y1.925
G3 X2.3802 Y1.9375 I-0.0125 J0.
G1 X2.0626
X2.0625 Y1.9374
Y0.0625
G3 X2.075 Y0.05 I0.0125 J0.
G1 X2.0778 Z0.8803
X2.0804 Z0.8812
X2.0828 Z0.8827
X2.0848 Z0.8847
X2.0863 Z0.8871
X2.0872 Z0.8897
X2.0875 Z0.8925
Z1.12
X2.3927 Y1.859
Z0.9317
Z0.8956 F10.
Z0.8525 F12.
Y1.8593 Z0.8497
Y1.8602 Z0.8471
Y1.8617 Z0.8447
Y1.8637 Z0.8427
Y1.8661 Z0.8412
Y1.8687 Z0.8403
Y1.8715 Z0.84
Y1.925
G3 X2.3802 Y1.9375 I-0.0125 J0.
G1 X2.0626
X2.0625 Y1.9374
Y0.0625
G3 X2.075 Y0.05 I0.0125 J0.
G1 X2.0778 Z0.8403
X2.0804 Z0.8412
X2.0828 Z0.8427
X2.0848 Z0.8447
X2.0863 Z0.8471
X2.0872 Z0.8497
X2.0875 Z0.8525
Z1.12
X2.3927 Y1.858
Z0.8125
Y1.8584 Z0.8097
Y1.8593 Z0.8071
Y1.8608 Z0.8047
Y1.8628 Z0.8027
Y1.8651 Z0.8012
Y1.8678 Z0.8003
Y1.8705 Z0.8
Y1.925
G3 X2.3802 Y1.9375 I-0.0125 J0.
G1 X2.0626
X2.0625 Y1.9374
Y0.0625
G3 X2.075 Y0.05 I0.0125 J0.
G1 X2.0778 Z0.8003
X2.0804 Z0.8012
X2.0828 Z0.8027
X2.0848 Z0.8047
X2.0863 Z0.8071
X2.0872 Z0.8097
X2.0875 Z0.8125
Z1.12
X2.3927 Y1.858
Z0.7725
Y1.8584 Z0.7697
Y1.8593 Z0.7671
Y1.8608 Z0.7647
Y1.8628 Z0.7627
Y1.8651 Z0.7612
Y1.8678 Z0.7603
Y1.8705 Z0.76
Y1.925
G3 X2.3802 Y1.9375 I-0.0125 J0.
G1 X2.0626
X2.0625 Y1.9374
Y0.0625
G3 X2.075 Y0.05 I0.0125 J0.
G1 X2.0778 Z0.7603
X2.0804 Z0.7612
X2.0828 Z0.7627
X2.0848 Z0.7647
X2.0863 Z0.7671
X2.0872 Z0.7697
X2.0875 Z0.7725
Z1.12
X2.3927 Y1.858
Z0.7325
Y1.8584 Z0.7297
Y1.8593 Z0.7271
Y1.8608 Z0.7247
Y1.8628 Z0.7227
Y1.8651 Z0.7212
Y1.8678 Z0.7203
Y1.8705 Z0.72
Y1.925
G3 X2.3802 Y1.9375 I-0.0125 J0.
G1 X2.0626
X2.0625 Y1.9374
Y0.0625
G3 X2.075 Y0.05 I0.0125 J0.
G1 X2.0778 Z0.7203
X2.0804 Z0.7212
X2.0828 Z0.7227
X2.0848 Z0.7247
X2.0863 Z0.7271
X2.0872 Z0.7297
X2.0875 Z0.7325
Z1.12
X2.3927 Y1.858
Z0.6925
Y1.8584 Z0.6897
Y1.8593 Z0.6871
Y1.8608 Z0.6847
Y1.8628 Z0.6827
Y1.8651 Z0.6812
Y1.8678 Z0.6803
Y1.8705 Z0.68
Y1.925
G3 X2.3802 Y1.9375 I-0.0125 J0.
G1 X2.0626
X2.0625 Y1.9374
Y0.0625
G3 X2.075 Y0.05 I0.0125 J0.
G1 X2.0778 Z0.6803
X2.0804 Z0.6812
X2.0828 Z0.6827
X2.0848 Z0.6847
X2.0863 Z0.6871
X2.0872 Z0.6897
X2.0875 Z0.6925
Z1.12
X2.3927 Y1.858
Z0.6525
Y1.8584 Z0.6497
Y1.8593 Z0.6471
Y1.8608 Z0.6447
Y1.8628 Z0.6427
Y1.8651 Z0.6412
Y1.8678 Z0.6403
Y1.8705 Z0.64
Y1.925
G3 X2.3802 Y1.9375 I-0.0125 J0.
G1 X2.0626
X2.0625 Y1.9374
Y0.0625
G3 X2.075 Y0.05 I0.0125 J0.
G1 X2.0778 Z0.6403
X2.0804 Z0.6412
X2.0828 Z0.6427
X2.0848 Z0.6447
X2.0863 Z0.6471
X2.0872 Z0.6497
X2.0875 Z0.6525
Z1.12
X2.3927 Y1.858
Z0.6125
Y1.8584 Z0.6097
Y1.8593 Z0.6071
Y1.8608 Z0.6047
Y1.8628 Z0.6027
Y1.8651 Z0.6012
Y1.8678 Z0.6003
Y1.8705 Z0.6
Y1.925
G3 X2.3802 Y1.9375 I-0.0125 J0.
G1 X2.0626
X2.0625 Y1.9374
Y0.0625
G3 X2.075 Y0.05 I0.0125 J0.
G1 X2.0778 Z0.6003
X2.0804 Z0.6012
X2.0828 Z0.6027
X2.0848 Z0.6047
X2.0863 Z0.6071
X2.0872 Z0.6097
X2.0875 Z0.6125
Z1.12
X2.3927 Y1.858
Z0.5725
Y1.8584 Z0.5697
Y1.8593 Z0.5671
Y1.8608 Z0.5647
Y1.8628 Z0.5627
Y1.8651 Z0.5612
Y1.8678 Z0.5603
Y1.8705 Z0.56
Y1.925
G3 X2.3802 Y1.9375 I-0.0125 J0.
G1 X2.0626
X2.0625 Y1.9374
Y0.0625
G3 X2.075 Y0.05 I0.0125 J0.
G1 X2.0778 Z0.5603
X2.0804 Z0.5612
X2.0828 Z0.5627
X2.0848 Z0.5647
X2.0863 Z0.5671
X2.0872 Z0.5697
X2.0875 Z0.5725
Z1.12
X2.3927 Y1.858
Z0.5325
Y1.8584 Z0.5297
Y1.8593 Z0.5271
Y1.8608 Z0.5247
Y1.8628 Z0.5227
Y1.8651 Z0.5212
Y1.8678 Z0.5203
Y1.8705 Z0.52
Y1.925
G3 X2.3802 Y1.9375 I-0.0125 J0.
G1 X2.0626
X2.0625 Y1.9374
Y0.0625
G3 X2.075 Y0.05 I0.0125 J0.
G1 X2.0778 Z0.5203
X2.0804 Z0.5212
X2.0828 Z0.5227
X2.0848 Z0.5247
X2.0863 Z0.5271
X2.0872 Z0.5297
X2.0875 Z0.5325
Z1.12
X2.3927 Y1.858
Z0.4925
Y1.8584 Z0.4897
Y1.8593 Z0.4871
Y1.8608 Z0.4847
Y1.8628 Z0.4827
Y1.8651 Z0.4812
Y1.8678 Z0.4803
Y1.8705 Z0.48
Y1.925
G3 X2.3802 Y1.9375 I-0.0125 J0.
G1 X2.0626
X2.0625 Y1.9374
Y0.0625
G3 X2.075 Y0.05 I0.0125 J0.
G1 X2.0778 Z0.4803
X2.0804 Z0.4812
X2.0828 Z0.4827
X2.0848 Z0.4847
X2.0863 Z0.4871
X2.0872 Z0.4897
X2.0875 Z0.4925
Z1.12
X2.3927 Y1.858
Z0.4525
Y1.8584 Z0.4497
Y1.8593 Z0.4471
Y1.8608 Z0.4447
Y1.8628 Z0.4427
Y1.8651 Z0.4412
Y1.8678 Z0.4403
Y1.8705 Z0.44
Y1.925
G3 X2.3802 Y1.9375 I-0.0125 J0.
G1 X2.0626
X2.0625 Y1.9374
Y0.0625
G3 X2.075 Y0.05 I0.0125 J0.
G1 X2.0778 Z0.4403
X2.0804 Z0.4412
X2.0828 Z0.4427
X2.0848 Z0.4447
X2.0863 Z0.4471
X2.0872 Z0.4497
X2.0875 Z0.4525
Z1.12
X2.3927 Y1.858
Z0.4125
Y1.8584 Z0.4097
Y1.8593 Z0.4071
Y1.8608 Z0.4047
Y1.8628 Z0.4027
Y1.8651 Z0.4012
Y1.8678 Z0.4003
Y1.8705 Z0.4
Y1.925
G3 X2.3802 Y1.9375 I-0.0125 J0.
G1 X2.0626
X2.0625 Y1.9374
Y0.0625
G3 X2.075 Y0.05 I0.0125 J0.
G1 X2.0778 Z0.4003
X2.0804 Z0.4012
X2.0828 Z0.4027
X2.0848 Z0.4047
X2.0863 Z0.4071
X2.0872 Z0.4097
X2.0875 Z0.4125
Z1.12
X2.3927 Y1.858
Z0.3725
Y1.8584 Z0.3697
Y1.8593 Z0.3671
Y1.8608 Z0.3647
Y1.8628 Z0.3627
Y1.8651 Z0.3612
Y1.8678 Z0.3603
Y1.8705 Z0.36
Y1.925
G3 X2.3802 Y1.9375 I-0.0125 J0.
G1 X2.0626
X2.0625 Y1.9374
Y0.0625
G3 X2.075 Y0.05 I0.0125 J0.
G1 X2.0778 Z0.3603
X2.0804 Z0.3612
X2.0828 Z0.3627
X2.0848 Z0.3647
X2.0863 Z0.3671
X2.0872 Z0.3697
X2.0875 Z0.3725
Z1.12
X2.3927 Y1.858
Z0.3325
Y1.8584 Z0.3297
Y1.8593 Z0.3271
Y1.8608 Z0.3247
Y1.8628 Z0.3227
Y1.8651 Z0.3212
Y1.8678 Z0.3203
Y1.8705 Z0.32
Y1.925
G3 X2.3802 Y1.9375 I-0.0125 J0.
G1 X2.0626
X2.0625 Y1.9374
Y0.0625
G3 X2.075 Y0.05 I0.0125 J0.
G1 X2.0778 Z0.3203
X2.0804 Z0.3212
X2.0828 Z0.3227
X2.0848 Z0.3247
X2.0863 Z0.3271
X2.0872 Z0.3297
X2.0875 Z0.3325
Z1.12
X2.3927 Y1.858
Z0.2925
Y1.8584 Z0.2897
Y1.8593 Z0.2871
Y1.8608 Z0.2847
Y1.8628 Z0.2827
Y1.8651 Z0.2812
Y1.8678 Z0.2803
Y1.8705 Z0.28
Y1.925
G3 X2.3802 Y1.9375 I-0.0125 J0.
G1 X2.0626
X2.0625 Y1.9374
Y0.0625
G3 X2.075 Y0.05 I0.0125 J0.
G1 X2.0778 Z0.2803
X2.0804 Z0.2812
X2.0828 Z0.2827
X2.0848 Z0.2847
X2.0863 Z0.2871
X2.0872 Z0.2897
X2.0875 Z0.2925
Z1.12
X2.3927 Y1.858
Z0.2525
Y1.8584 Z0.2497
Y1.8593 Z0.2471
Y1.8608 Z0.2447
Y1.8628 Z0.2427
Y1.8651 Z0.2412
Y1.8678 Z0.2403
Y1.8705 Z0.24
Y1.925
G3 X2.3802 Y1.9375 I-0.0125 J0.
G1 X2.0626
X2.0625 Y1.9374
Y0.0625
G3 X2.075 Y0.05 I0.0125 J0.
G1 X2.0778 Z0.2403
X2.0804 Z0.2412
X2.0828 Z0.2427
X2.0848 Z0.2447
X2.0863 Z0.2471
X2.0872 Z0.2497
X2.0875 Z0.2525
Z1.12
X2.3927 Y1.858
Z0.2125
Y1.8584 Z0.2097
Y1.8593 Z0.2071
Y1.8608 Z0.2047
Y1.8628 Z0.2027
Y1.8651 Z0.2012
Y1.8678 Z0.2003
Y1.8705 Z0.2
Y1.925
G3 X2.3802 Y1.9375 I-0.0125 J0.
G1 X2.0626
X2.0625 Y1.9374
Y0.0625
G3 X2.075 Y0.05 I0.0125 J0.
G1 X2.0778 Z0.2003
X2.0804 Z0.2012
X2.0828 Z0.2027
X2.0848 Z0.2047
X2.0863 Z0.2071
X2.0872 Z0.2097
X2.0875 Z0.2125
Z1.12
X2.3927 Y1.858
Z0.1725
Y1.8584 Z0.1697
Y1.8593 Z0.1671
Y1.8608 Z0.1647
Y1.8628 Z0.1627
Y1.8651 Z0.1612
Y1.8678 Z0.1603
Y1.8705 Z0.16
Y1.925
G3 X2.3802 Y1.9375 I-0.0125 J0.
G1 X2.0626
X2.0625 Y1.9374
Y0.0625
G3 X2.075 Y0.05 I0.0125 J0.
G1 X2.0778 Z0.1603
X2.0804 Z0.1612
X2.0828 Z0.1627
X2.0848 Z0.1647
X2.0863 Z0.1671
X2.0872 Z0.1697
X2.0875 Z0.1725
Z1.12
X2.3927 Y1.858
Z0.1325
Y1.8584 Z0.1297
Y1.8593 Z0.1271
Y1.8608 Z0.1247
Y1.8628 Z0.1227
Y1.8651 Z0.1212
Y1.8678 Z0.1203
Y1.8705 Z0.12
Y1.925
G3 X2.3802 Y1.9375 I-0.0125 J0.
G1 X2.0626
X2.0625 Y1.9374
Y0.0625
G3 X2.075 Y0.05 I0.0125 J0.
G1 X2.0778 Z0.1203
X2.0804 Z0.1212
X2.0828 Z0.1227
X2.0848 Z0.1247
X2.0863 Z0.1271
X2.0872 Z0.1297
X2.0875 Z0.1325
Z1.12
X2.3927 Y1.858
Z0.0925
Y1.8584 Z0.0897
Y1.8593 Z0.0871
Y1.8608 Z0.0847
Y1.8628 Z0.0827
Y1.8651 Z0.0812
Y1.8678 Z0.0803
Y1.8705 Z0.08
Y1.925
G3 X2.3802 Y1.9375 I-0.0125 J0.
G1 X2.0626
X2.0625 Y1.9374
Y0.0625
G3 X2.075 Y0.05 I0.0125 J0.
G1 X2.0778 Z0.0803
X2.0804 Z0.0812
X2.0828 Z0.0827
X2.0848 Z0.0847
X2.0863 Z0.0871
X2.0872 Z0.0897
X2.0875 Z0.0925
Z1.12
X2.3927 Y1.858
Z0.0525
Y1.8584 Z0.0497
Y1.8593 Z0.0471
Y1.8608 Z0.0447
Y1.8628 Z0.0427
Y1.8651 Z0.0412
Y1.8678 Z0.0403
Y1.8705 Z0.04
Y1.925
G3 X2.3802 Y1.9375 I-0.0125 J0.
G1 X2.0626
X2.0625 Y1.9374
Y0.0625
G3 X2.075 Y0.05 I0.0125 J0.
G1 X2.0778 Z0.0403
X2.0804 Z0.0412
X2.0828 Z0.0427
X2.0848 Z0.0447
X2.0863 Z0.0471
X2.0872 Z0.0497
X2.0875 Z0.0525
Z1.12
X2.3927 Y1.858
Z0.0125
Y1.8584 Z0.0097
Y1.8593 Z0.0071
Y1.8608 Z0.0047
Y1.8628 Z0.0027
Y1.8651 Z0.0012
Y1.8678 Z0.0003
Y1.8705 Z0.
Y1.925
G3 X2.3802 Y1.9375 I-0.0125 J0.
G1 X2.0626
X2.0625 Y1.9374
Y0.0625
G3 X2.075 Y0.05 I0.0125 J0.
G1 X2.0778 Z0.0003
X2.0804 Z0.0012
X2.0828 Z0.0027
X2.0848 Z0.0047
X2.0863 Z0.0071
X2.0872 Z0.0097
X2.0875 Z0.0125
Z1.52
G53 Z
M5
G53 P10
