[test_tenon_t4]
[Machine]
[  vendor: Nova Labs]
[  model: ShopSaber]
[  description: Generic 3-axis]
[T4 D=0.125 CR=0. - ZMIN=0. - flat end mill]
G90
G20
[When using Fusion for Personal Use, the feedrate of rapid]
[moves is reduced to match the feedrate of cutting moves,]
[which can increase machining time. Unrestricted rapid moves]
[are available with a Fusion Subscription.]
G53 Z
[Contour3]
M0
[MANUAL TOOL CHANGE TO T4]
S15000
M3
G4 X4.
G90
G0 X2.2501 Y1.8761
Z1.26
G1 Z0.7118 F12.
Z0.6756 F10.
Z0.6325 F12.
Y1.8764 Z0.6297 F12.
Y1.8773 Z0.6271
Y1.8788 Z0.6247
Y1.8808 Z0.6227
Y1.8831 Z0.6212
Y1.8858 Z0.6203
Y1.8886 Z0.62
Y1.925
G3 X2.2376 Y1.9375 I-0.0125 J0.
G1 X1.9376
X1.9375 Y1.9374
Y0.0032
Y-0.0025
X1.9373 Y-0.0053
X1.937 Y-0.0081
X1.9365 Y-0.011
X1.936 Y-0.0138
X1.9359 Y-0.014
X1.9352 Y-0.0167
X1.9344 Y-0.0194
X1.9334 Y-0.0222
X1.9323 Y-0.0251
X1.9312 Y-0.0274
X1.9303 Y-0.0292
X1.9294 Y-0.0307
X1.9277 Y-0.0335
X1.9258 Y-0.0363
X1.9246 Y-0.038
X1.9213 Y-0.042
X1.919 Y-0.0444
X1.9155 Y-0.0476
X1.9133 Y-0.0494
X1.9105 Y-0.0514
X1.9077 Y-0.0533
X1.9048 Y-0.0549
X1.902 Y-0.0564
X1.8992 Y-0.0576
X1.8964 Y-0.0587
X1.8958 Y-0.0589
X1.8907 Y-0.0605
X1.8879 Y-0.0612
X1.8851 Y-0.0617
X1.8822 Y-0.0621
X1.8794 Y-0.0623
X1.8737 Y-0.0625
X0.3763
X0.3706 Y-0.0623
X0.3678 Y-0.0621
X0.3649 Y-0.0617
X0.3621 Y-0.0612
X0.3593 Y-0.0605
X0.3542 Y-0.0589
X0.3536 Y-0.0587
X0.3508 Y-0.0576
X0.348 Y-0.0564
X0.3452 Y-0.0549
X0.3423 Y-0.0533
X0.3395 Y-0.0514
X0.3367 Y-0.0494
X0.3345 Y-0.0476
X0.331 Y-0.0444
X0.3287 Y-0.042
X0.3254 Y-0.038
X0.3242 Y-0.0363
X0.3223 Y-0.0335
X0.3206 Y-0.0307
X0.3197 Y-0.0292
X0.3188 Y-0.0274
X0.3177 Y-0.0251
X0.3166 Y-0.0222
X0.3156 Y-0.0194
X0.3148 Y-0.0167
X0.3141 Y-0.014
X0.314 Y-0.0138
X0.3135 Y-0.011
X0.313 Y-0.0081
X0.3127 Y-0.0053
X0.3125 Y-0.0025
Y0.0032
Y1.9374
X0.3124 Y1.9375
X0.0124
G3 X-0.0001 Y1.925 I0. J-0.0125
G1 Y1.9222 Z0.6203
Y1.9196 Z0.6212
Y1.9172 Z0.6227
Y1.9152 Z0.6247
Y1.9137 Z0.6271
Y1.9128 Z0.6297
Y1.9125 Z0.6325
Z0.86
X2.2501 Y1.8579
Z0.6713
Z0.6356 F10.
Z0.5925 F12.
Y1.8582 Z0.5897
Y1.8592 Z0.5871
Y1.8607 Z0.5847
Y1.8626 Z0.5827
Y1.865 Z0.5812
Y1.8677 Z0.5803
Y1.8704 Z0.58
Y1.925
G3 X2.2376 Y1.9375 I-0.0125 J0.
G1 X1.9376
X1.9375 Y1.9374
Y0.0032
Y-0.0025
X1.9373 Y-0.0053
X1.937 Y-0.0081
X1.9365 Y-0.011
X1.936 Y-0.0138
X1.9359 Y-0.014
X1.9352 Y-0.0167
X1.9344 Y-0.0194
X1.9334 Y-0.0222
X1.9323 Y-0.0251
X1.9312 Y-0.0274
X1.9303 Y-0.0292
X1.9294 Y-0.0307
X1.9277 Y-0.0335
X1.9258 Y-0.0363
X1.9246 Y-0.038
X1.9213 Y-0.042
X1.919 Y-0.0444
X1.9155 Y-0.0476
X1.9133 Y-0.0494
X1.9105 Y-0.0514
X1.9077 Y-0.0533
X1.9048 Y-0.0549
X1.902 Y-0.0564
X1.8992 Y-0.0576
X1.8964 Y-0.0587
X1.8958 Y-0.0589
X1.8907 Y-0.0605
X1.8879 Y-0.0612
X1.8851 Y-0.0617
X1.8822 Y-0.0621
X1.8794 Y-0.0623
X1.8737 Y-0.0625
X0.3763
X0.3706 Y-0.0623
X0.3678 Y-0.0621
X0.3649 Y-0.0617
X0.3621 Y-0.0612
X0.3593 Y-0.0605
X0.3542 Y-0.0589
X0.3536 Y-0.0587
X0.3508 Y-0.0576
X0.348 Y-0.0564
X0.3452 Y-0.0549
X0.3423 Y-0.0533
X0.3395 Y-0.0514
X0.3367 Y-0.0494
X0.3345 Y-0.0476
X0.331 Y-0.0444
X0.3287 Y-0.042
X0.3254 Y-0.038
X0.3242 Y-0.0363
X0.3223 Y-0.0335
X0.3206 Y-0.0307
X0.3197 Y-0.0292
X0.3188 Y-0.0274
X0.3177 Y-0.0251
X0.3166 Y-0.0222
X0.3156 Y-0.0194
X0.3148 Y-0.0167
X0.3141 Y-0.014
X0.314 Y-0.0138
X0.3135 Y-0.011
X0.313 Y-0.0081
X0.3127 Y-0.0053
X0.3125 Y-0.0025
Y0.0032
Y1.9374
X0.3124 Y1.9375
X0.0124
G3 X-0.0001 Y1.925 I0. J-0.0125
G1 Y1.9222 Z0.5803
Y1.9196 Z0.5812
Y1.9172 Z0.5827
Y1.9152 Z0.5847
Y1.9137 Z0.5871
Y1.9128 Z0.5897
Y1.9125 Z0.5925
Z0.86
X2.2501 Y1.8571
Z0.5525
Y1.8574 Z0.5497
Y1.8583 Z0.5471
Y1.8598 Z0.5447
Y1.8618 Z0.5427
Y1.8642 Z0.5412
Y1.8668 Z0.5403
Y1.8696 Z0.54
Y1.925
G3 X2.2376 Y1.9375 I-0.0125 J0.
G1 X1.9376
X1.9375 Y1.9374
Y0.0032
Y-0.0025
X1.9373 Y-0.0053
X1.937 Y-0.0081
X1.9365 Y-0.011
X1.936 Y-0.0138
X1.9359 Y-0.014
X1.9352 Y-0.0167
X1.9344 Y-0.0194
X1.9334 Y-0.0222
X1.9323 Y-0.0251
X1.9312 Y-0.0274
X1.9303 Y-0.0292
X1.9294 Y-0.0307
X1.9277 Y-0.0335
X1.9258 Y-0.0363
X1.9246 Y-0.038
X1.9213 Y-0.042
X1.919 Y-0.0444
X1.9155 Y-0.0476
X1.9133 Y-0.0494
X1.9105 Y-0.0514
X1.9077 Y-0.0533
X1.9048 Y-0.0549
X1.902 Y-0.0564
X1.8992 Y-0.0576
X1.8964 Y-0.0587
X1.8958 Y-0.0589
X1.8907 Y-0.0605
X1.8879 Y-0.0612
X1.8851 Y-0.0617
X1.8822 Y-0.0621
X1.8794 Y-0.0623
X1.8737 Y-0.0625
X0.3763
X0.3706 Y-0.0623
X0.3678 Y-0.0621
X0.3649 Y-0.0617
X0.3621 Y-0.0612
X0.3593 Y-0.0605
X0.3542 Y-0.0589
X0.3536 Y-0.0587
X0.3508 Y-0.0576
X0.348 Y-0.0564
X0.3452 Y-0.0549
X0.3423 Y-0.0533
X0.3395 Y-0.0514
X0.3367 Y-0.0494
X0.3345 Y-0.0476
X0.331 Y-0.0444
X0.3287 Y-0.042
X0.3254 Y-0.038
X0.3242 Y-0.0363
X0.3223 Y-0.0335
X0.3206 Y-0.0307
X0.3197 Y-0.0292
X0.3188 Y-0.0274
X0.3177 Y-0.0251
X0.3166 Y-0.0222
X0.3156 Y-0.0194
X0.3148 Y-0.0167
X0.3141 Y-0.014
X0.314 Y-0.0138
X0.3135 Y-0.011
X0.313 Y-0.0081
X0.3127 Y-0.0053
X0.3125 Y-0.0025
Y0.0032
Y1.9374
X0.3124 Y1.9375
X0.0124
G3 X-0.0001 Y1.925 I0. J-0.0125
G1 Y1.9222 Z0.5403
Y1.9196 Z0.5412
Y1.9172 Z0.5427
Y1.9152 Z0.5447
Y1.9137 Z0.5471
Y1.9128 Z0.5497
Y1.9125 Z0.5525
Z0.86
X2.2501 Y1.8571
Z0.5125
Y1.8574 Z0.5097
Y1.8583 Z0.5071
Y1.8598 Z0.5047
Y1.8618 Z0.5027
Y1.8642 Z0.5012
Y1.8668 Z0.5003
Y1.8696 Z0.5
Y1.925
G3 X2.2376 Y1.9375 I-0.0125 J0.
G1 X1.9376
X1.9375 Y1.9374
Y0.0032
Y-0.0025
X1.9373 Y-0.0053
X1.937 Y-0.0081
X1.9365 Y-0.011
X1.936 Y-0.0138
X1.9359 Y-0.014
X1.9352 Y-0.0167
X1.9344 Y-0.0194
X1.9334 Y-0.0222
X1.9323 Y-0.0251
X1.9312 Y-0.0274
X1.9303 Y-0.0292
X1.9294 Y-0.0307
X1.9277 Y-0.0335
X1.9258 Y-0.0363
X1.9246 Y-0.038
X1.9213 Y-0.042
X1.919 Y-0.0444
X1.9155 Y-0.0476
X1.9133 Y-0.0494
X1.9105 Y-0.0514
X1.9077 Y-0.0533
X1.9048 Y-0.0549
X1.902 Y-0.0564
X1.8992 Y-0.0576
X1.8964 Y-0.0587
X1.8958 Y-0.0589
X1.8907 Y-0.0605
X1.8879 Y-0.0612
X1.8851 Y-0.0617
X1.8822 Y-0.0621
X1.8794 Y-0.0623
X1.8737 Y-0.0625
X0.3763
X0.3706 Y-0.0623
X0.3678 Y-0.0621
X0.3649 Y-0.0617
X0.3621 Y-0.0612
X0.3593 Y-0.0605
X0.3542 Y-0.0589
X0.3536 Y-0.0587
X0.3508 Y-0.0576
X0.348 Y-0.0564
X0.3452 Y-0.0549
X0.3423 Y-0.0533
X0.3395 Y-0.0514
X0.3367 Y-0.0494
X0.3345 Y-0.0476
X0.331 Y-0.0444
X0.3287 Y-0.042
X0.3254 Y-0.038
X0.3242 Y-0.0363
X0.3223 Y-0.0335
X0.3206 Y-0.0307
X0.3197 Y-0.0292
X0.3188 Y-0.0274
X0.3177 Y-0.0251
X0.3166 Y-0.0222
X0.3156 Y-0.0194
X0.3148 Y-0.0167
X0.3141 Y-0.014
X0.314 Y-0.0138
X0.3135 Y-0.011
X0.313 Y-0.0081
X0.3127 Y-0.0053
X0.3125 Y-0.0025
Y0.0032
Y1.9374
X0.3124 Y1.9375
X0.0124
G3 X-0.0001 Y1.925 I0. J-0.0125
G1 Y1.9222 Z0.5003
Y1.9196 Z0.5012
Y1.9172 Z0.5027
Y1.9152 Z0.5047
Y1.9137 Z0.5071
Y1.9128 Z0.5097
Y1.9125 Z0.5125
Z0.86
X2.2501 Y1.8571
Z0.4725
Y1.8574 Z0.4697
Y1.8583 Z0.4671
Y1.8598 Z0.4647
Y1.8618 Z0.4627
Y1.8642 Z0.4612
Y1.8668 Z0.4603
Y1.8696 Z0.46
Y1.925
G3 X2.2376 Y1.9375 I-0.0125 J0.
G1 X1.9376
X1.9375 Y1.9374
Y0.0032
Y-0.0025
X1.9373 Y-0.0053
X1.937 Y-0.0081
X1.9365 Y-0.011
X1.936 Y-0.0138
X1.9359 Y-0.014
X1.9352 Y-0.0167
X1.9344 Y-0.0194
X1.9334 Y-0.0222
X1.9323 Y-0.0251
X1.9312 Y-0.0274
X1.9303 Y-0.0292
X1.9294 Y-0.0307
X1.9277 Y-0.0335
X1.9258 Y-0.0363
X1.9246 Y-0.038
X1.9213 Y-0.042
X1.919 Y-0.0444
X1.9155 Y-0.0476
X1.9133 Y-0.0494
X1.9105 Y-0.0514
X1.9077 Y-0.0533
X1.9048 Y-0.0549
X1.902 Y-0.0564
X1.8992 Y-0.0576
X1.8964 Y-0.0587
X1.8958 Y-0.0589
X1.8907 Y-0.0605
X1.8879 Y-0.0612
X1.8851 Y-0.0617
X1.8822 Y-0.0621
X1.8794 Y-0.0623
X1.8737 Y-0.0625
X0.3763
X0.3706 Y-0.0623
X0.3678 Y-0.0621
X0.3649 Y-0.0617
X0.3621 Y-0.0612
X0.3593 Y-0.0605
X0.3542 Y-0.0589
X0.3536 Y-0.0587
X0.3508 Y-0.0576
X0.348 Y-0.0564
X0.3452 Y-0.0549
X0.3423 Y-0.0533
X0.3395 Y-0.0514
X0.3367 Y-0.0494
X0.3345 Y-0.0476
X0.331 Y-0.0444
X0.3287 Y-0.042
X0.3254 Y-0.038
X0.3242 Y-0.0363
X0.3223 Y-0.0335
X0.3206 Y-0.0307
X0.3197 Y-0.0292
X0.3188 Y-0.0274
X0.3177 Y-0.0251
X0.3166 Y-0.0222
X0.3156 Y-0.0194
X0.3148 Y-0.0167
X0.3141 Y-0.014
X0.314 Y-0.0138
X0.3135 Y-0.011
X0.313 Y-0.0081
X0.3127 Y-0.0053
X0.3125 Y-0.0025
Y0.0032
Y1.9374
X0.3124 Y1.9375
X0.0124
G3 X-0.0001 Y1.925 I0. J-0.0125
G1 Y1.9222 Z0.4603
Y1.9196 Z0.4612
Y1.9172 Z0.4627
Y1.9152 Z0.4647
Y1.9137 Z0.4671
Y1.9128 Z0.4697
Y1.9125 Z0.4725
Z0.86
X2.2501 Y1.8571
Z0.4325
Y1.8574 Z0.4297
Y1.8583 Z0.4271
Y1.8598 Z0.4247
Y1.8618 Z0.4227
Y1.8642 Z0.4212
Y1.8668 Z0.4203
Y1.8696 Z0.42
Y1.925
G3 X2.2376 Y1.9375 I-0.0125 J0.
G1 X1.9376
X1.9375 Y1.9374
Y0.0032
Y-0.0025
X1.9373 Y-0.0053
X1.937 Y-0.0081
X1.9365 Y-0.011
X1.936 Y-0.0138
X1.9359 Y-0.014
X1.9352 Y-0.0167
X1.9344 Y-0.0194
X1.9334 Y-0.0222
X1.9323 Y-0.0251
X1.9312 Y-0.0274
X1.9303 Y-0.0292
X1.9294 Y-0.0307
X1.9277 Y-0.0335
X1.9258 Y-0.0363
X1.9246 Y-0.038
X1.9213 Y-0.042
X1.919 Y-0.0444
X1.9155 Y-0.0476
X1.9133 Y-0.0494
X1.9105 Y-0.0514
X1.9077 Y-0.0533
X1.9048 Y-0.0549
X1.902 Y-0.0564
X1.8992 Y-0.0576
X1.8964 Y-0.0587
X1.8958 Y-0.0589
X1.8907 Y-0.0605
X1.8879 Y-0.0612
X1.8851 Y-0.0617
X1.8822 Y-0.0621
X1.8794 Y-0.0623
X1.8737 Y-0.0625
X0.3763
X0.3706 Y-0.0623
X0.3678 Y-0.0621
X0.3649 Y-0.0617
X0.3621 Y-0.0612
X0.3593 Y-0.0605
X0.3542 Y-0.0589
X0.3536 Y-0.0587
X0.3508 Y-0.0576
X0.348 Y-0.0564
X0.3452 Y-0.0549
X0.3423 Y-0.0533
X0.3395 Y-0.0514
X0.3367 Y-0.0494
X0.3345 Y-0.0476
X0.331 Y-0.0444
X0.3287 Y-0.042
X0.3254 Y-0.038
X0.3242 Y-0.0363
X0.3223 Y-0.0335
X0.3206 Y-0.0307
X0.3197 Y-0.0292
X0.3188 Y-0.0274
X0.3177 Y-0.0251
X0.3166 Y-0.0222
X0.3156 Y-0.0194
X0.3148 Y-0.0167
X0.3141 Y-0.014
X0.314 Y-0.0138
X0.3135 Y-0.011
X0.313 Y-0.0081
X0.3127 Y-0.0053
X0.3125 Y-0.0025
Y0.0032
Y1.9374
X0.3124 Y1.9375
X0.0124
G3 X-0.0001 Y1.925 I0. J-0.0125
G1 Y1.9222 Z0.4203
Y1.9196 Z0.4212
Y1.9172 Z0.4227
Y1.9152 Z0.4247
Y1.9137 Z0.4271
Y1.9128 Z0.4297
Y1.9125 Z0.4325
Z0.86
X2.2501 Y1.8571
Z0.3925
Y1.8574 Z0.3897
Y1.8583 Z0.3871
Y1.8598 Z0.3847
Y1.8618 Z0.3827
Y1.8642 Z0.3812
Y1.8668 Z0.3803
Y1.8696 Z0.38
Y1.925
G3 X2.2376 Y1.9375 I-0.0125 J0.
G1 X1.9376
X1.9375 Y1.9374
Y0.0032
Y-0.0025
X1.9373 Y-0.0053
X1.937 Y-0.0081
X1.9365 Y-0.011
X1.936 Y-0.0138
X1.9359 Y-0.014
X1.9352 Y-0.0167
X1.9344 Y-0.0194
X1.9334 Y-0.0222
X1.9323 Y-0.0251
X1.9312 Y-0.0274
X1.9303 Y-0.0292
X1.9294 Y-0.0307
X1.9277 Y-0.0335
X1.9258 Y-0.0363
X1.9246 Y-0.038
X1.9213 Y-0.042
X1.919 Y-0.0444
X1.9155 Y-0.0476
X1.9133 Y-0.0494
X1.9105 Y-0.0514
X1.9077 Y-0.0533
X1.9048 Y-0.0549
X1.902 Y-0.0564
X1.8992 Y-0.0576
X1.8964 Y-0.0587
X1.8958 Y-0.0589
X1.8907 Y-0.0605
X1.8879 Y-0.0612
X1.8851 Y-0.0617
X1.8822 Y-0.0621
X1.8794 Y-0.0623
X1.8737 Y-0.0625
X0.3763
X0.3706 Y-0.0623
X0.3678 Y-0.0621
X0.3649 Y-0.0617
X0.3621 Y-0.0612
X0.3593 Y-0.0605
X0.3542 Y-0.0589
X0.3536 Y-0.0587
X0.3508 Y-0.0576
X0.348 Y-0.0564
X0.3452 Y-0.0549
X0.3423 Y-0.0533
X0.3395 Y-0.0514
X0.3367 Y-0.0494
X0.3345 Y-0.0476
X0.331 Y-0.0444
X0.3287 Y-0.042
X0.3254 Y-0.038
X0.3242 Y-0.0363
X0.3223 Y-0.0335
X0.3206 Y-0.0307
X0.3197 Y-0.0292
X0.3188 Y-0.0274
X0.3177 Y-0.0251
X0.3166 Y-0.0222
X0.3156 Y-0.0194
X0.3148 Y-0.0167
X0.3141 Y-0.014
X0.314 Y-0.0138
X0.3135 Y-0.011
X0.313 Y-0.0081
X0.3127 Y-0.0053
X0.3125 Y-0.0025
Y0.0032
Y1.9374
X0.3124 Y1.9375
X0.0124
G3 X-0.0001 Y1.925 I0. J-0.0125
G1 Y1.9222 Z0.3803
Y1.9196 Z0.3812
Y1.9172 Z0.3827
Y1.9152 Z0.3847
Y1.9137 Z0.3871
Y1.9128 Z0.3897
Y1.9125 Z0.3925
Z0.86
X2.2501 Y1.8571
Z0.3525
Y1.8574 Z0.3497
Y1.8583 Z0.3471
Y1.8598 Z0.3447
Y1.8618 Z0.3427
Y1.8642 Z0.3412
Y1.8668 Z0.3403
Y1.8696 Z0.34
Y1.925
G3 X2.2376 Y1.9375 I-0.0125 J0.
G1 X1.9376
X1.9375 Y1.9374
Y0.0032
Y-0.0025
X1.9373 Y-0.0053
X1.937 Y-0.0081
X1.9365 Y-0.011
X1.936 Y-0.0138
X1.9359 Y-0.014
X1.9352 Y-0.0167
X1.9344 Y-0.0194
X1.9334 Y-0.0222
X1.9323 Y-0.0251
X1.9312 Y-0.0274
X1.9303 Y-0.0292
X1.9294 Y-0.0307
X1.9277 Y-0.0335
X1.9258 Y-0.0363
X1.9246 Y-0.038
X1.9213 Y-0.042
X1.919 Y-0.0444
X1.9155 Y-0.0476
X1.9133 Y-0.0494
X1.9105 Y-0.0514
X1.9077 Y-0.0533
X1.9048 Y-0.0549
X1.902 Y-0.0564
X1.8992 Y-0.0576
X1.8964 Y-0.0587
X1.8958 Y-0.0589
X1.8907 Y-0.0605
X1.8879 Y-0.0612
X1.8851 Y-0.0617
X1.8822 Y-0.0621
X1.8794 Y-0.0623
X1.8737 Y-0.0625
X0.3763
X0.3706 Y-0.0623
X0.3678 Y-0.0621
X0.3649 Y-0.0617
X0.3621 Y-0.0612
X0.3593 Y-0.0605
X0.3542 Y-0.0589
X0.3536 Y-0.0587
X0.3508 Y-0.0576
X0.348 Y-0.0564
X0.3452 Y-0.0549
X0.3423 Y-0.0533
X0.3395 Y-0.0514
X0.3367 Y-0.0494
X0.3345 Y-0.0476
X0.331 Y-0.0444
X0.3287 Y-0.042
X0.3254 Y-0.038
X0.3242 Y-0.0363
X0.3223 Y-0.0335
X0.3206 Y-0.0307
X0.3197 Y-0.0292
X0.3188 Y-0.0274
X0.3177 Y-0.0251
X0.3166 Y-0.0222
X0.3156 Y-0.0194
X0.3148 Y-0.0167
X0.3141 Y-0.014
X0.314 Y-0.0138
X0.3135 Y-0.011
X0.313 Y-0.0081
X0.3127 Y-0.0053
X0.3125 Y-0.0025
Y0.0032
Y1.9374
X0.3124 Y1.9375
X0.0124
G3 X-0.0001 Y1.925 I0. J-0.0125
G1 Y1.9222 Z0.3403
Y1.9196 Z0.3412
Y1.9172 Z0.3427
Y1.9152 Z0.3447
Y1.9137 Z0.3471
Y1.9128 Z0.3497
Y1.9125 Z0.3525
Z0.86
X2.2501 Y1.8571
Z0.3125
Y1.8574 Z0.3097
Y1.8583 Z0.3071
Y1.8598 Z0.3047
Y1.8618 Z0.3027
Y1.8642 Z0.3012
Y1.8668 Z0.3003
Y1.8696 Z0.3
Y1.925
G3 X2.2376 Y1.9375 I-0.0125 J0.
G1 X1.9376
X1.9375 Y1.9374
Y0.0032
Y-0.0025
X1.9373 Y-0.0053
X1.937 Y-0.0081
X1.9365 Y-0.011
X1.936 Y-0.0138
X1.9359 Y-0.014
X1.9352 Y-0.0167
X1.9344 Y-0.0194
X1.9334 Y-0.0222
X1.9323 Y-0.0251
X1.9312 Y-0.0274
X1.9303 Y-0.0292
X1.9294 Y-0.0307
X1.9277 Y-0.0335
X1.9258 Y-0.0363
X1.9246 Y-0.038
X1.9213 Y-0.042
X1.919 Y-0.0444
X1.9155 Y-0.0476
X1.9133 Y-0.0494
X1.9105 Y-0.0514
X1.9077 Y-0.0533
X1.9048 Y-0.0549
X1.902 Y-0.0564
X1.8992 Y-0.0576
X1.8964 Y-0.0587
X1.8958 Y-0.0589
X1.8907 Y-0.0605
X1.8879 Y-0.0612
X1.8851 Y-0.0617
X1.8822 Y-0.0621
X1.8794 Y-0.0623
X1.8737 Y-0.0625
X0.3763
X0.3706 Y-0.0623
X0.3678 Y-0.0621
X0.3649 Y-0.0617
X0.3621 Y-0.0612
X0.3593 Y-0.0605
X0.3542 Y-0.0589
X0.3536 Y-0.0587
X0.3508 Y-0.0576
X0.348 Y-0.0564
X0.3452 Y-0.0549
X0.3423 Y-0.0533
X0.3395 Y-0.0514
X0.3367 Y-0.0494
X0.3345 Y-0.0476
X0.331 Y-0.0444
X0.3287 Y-0.042
X0.3254 Y-0.038
X0.3242 Y-0.0363
X0.3223 Y-0.0335
X0.3206 Y-0.0307
X0.3197 Y-0.0292
X0.3188 Y-0.0274
X0.3177 Y-0.0251
X0.3166 Y-0.0222
X0.3156 Y-0.0194
X0.3148 Y-0.0167
X0.3141 Y-0.014
X0.314 Y-0.0138
X0.3135 Y-0.011
X0.313 Y-0.0081
X0.3127 Y-0.0053
X0.3125 Y-0.0025
Y0.0032
Y1.9374
X0.3124 Y1.9375
X0.0124
G3 X-0.0001 Y1.925 I0. J-0.0125
G1 Y1.9222 Z0.3003
Y1.9196 Z0.3012
Y1.9172 Z0.3027
Y1.9152 Z0.3047
Y1.9137 Z0.3071
Y1.9128 Z0.3097
Y1.9125 Z0.3125
Z0.86
X2.2501 Y1.8571
Z0.2725
Y1.8574 Z0.2697
Y1.8583 Z0.2671
Y1.8598 Z0.2647
Y1.8618 Z0.2627
Y1.8642 Z0.2612
Y1.8668 Z0.2603
Y1.8696 Z0.26
Y1.925
G3 X2.2376 Y1.9375 I-0.0125 J0.
G1 X1.9376
X1.9375 Y1.9374
Y0.0032
Y-0.0025
X1.9373 Y-0.0053
X1.937 Y-0.0081
X1.9365 Y-0.011
X1.936 Y-0.0138
X1.9359 Y-0.014
X1.9352 Y-0.0167
X1.9344 Y-0.0194
X1.9334 Y-0.0222
X1.9323 Y-0.0251
X1.9312 Y-0.0274
X1.9303 Y-0.0292
X1.9294 Y-0.0307
X1.9277 Y-0.0335
X1.9258 Y-0.0363
X1.9246 Y-0.038
X1.9213 Y-0.042
X1.919 Y-0.0444
X1.9155 Y-0.0476
X1.9133 Y-0.0494
X1.9105 Y-0.0514
X1.9077 Y-0.0533
X1.9048 Y-0.0549
X1.902 Y-0.0564
X1.8992 Y-0.0576
X1.8964 Y-0.0587
X1.8958 Y-0.0589
X1.8907 Y-0.0605
X1.8879 Y-0.0612
X1.8851 Y-0.0617
X1.8822 Y-0.0621
X1.8794 Y-0.0623
X1.8737 Y-0.0625
X0.3763
X0.3706 Y-0.0623
X0.3678 Y-0.0621
X0.3649 Y-0.0617
X0.3621 Y-0.0612
X0.3593 Y-0.0605
X0.3542 Y-0.0589
X0.3536 Y-0.0587
X0.3508 Y-0.0576
X0.348 Y-0.0564
X0.3452 Y-0.0549
X0.3423 Y-0.0533
X0.3395 Y-0.0514
X0.3367 Y-0.0494
X0.3345 Y-0.0476
X0.331 Y-0.0444
X0.3287 Y-0.042
X0.3254 Y-0.038
X0.3242 Y-0.0363
X0.3223 Y-0.0335
X0.3206 Y-0.0307
X0.3197 Y-0.0292
X0.3188 Y-0.0274
X0.3177 Y-0.0251
X0.3166 Y-0.0222
X0.3156 Y-0.0194
X0.3148 Y-0.0167
X0.3141 Y-0.014
X0.314 Y-0.0138
X0.3135 Y-0.011
X0.313 Y-0.0081
X0.3127 Y-0.0053
X0.3125 Y-0.0025
Y0.0032
Y1.9374
X0.3124 Y1.9375
X0.0124
G3 X-0.0001 Y1.925 I0. J-0.0125
G1 Y1.9222 Z0.2603
Y1.9196 Z0.2612
Y1.9172 Z0.2627
Y1.9152 Z0.2647
Y1.9137 Z0.2671
Y1.9128 Z0.2697
Y1.9125 Z0.2725
Z0.86
X2.2501 Y1.8571
Z0.2325
Y1.8574 Z0.2297
Y1.8583 Z0.2271
Y1.8598 Z0.2247
Y1.8618 Z0.2227
Y1.8642 Z0.2212
Y1.8668 Z0.2203
Y1.8696 Z0.22
Y1.925
G3 X2.2376 Y1.9375 I-0.0125 J0.
G1 X1.9376
X1.9375 Y1.9374
Y0.0032
Y-0.0025
X1.9373 Y-0.0053
X1.937 Y-0.0081
X1.9365 Y-0.011
X1.936 Y-0.0138
X1.9359 Y-0.014
X1.9352 Y-0.0167
X1.9344 Y-0.0194
X1.9334 Y-0.0222
X1.9323 Y-0.0251
X1.9312 Y-0.0274
X1.9303 Y-0.0292
X1.9294 Y-0.0307
X1.9277 Y-0.0335
X1.9258 Y-0.0363
X1.9246 Y-0.038
X1.9213 Y-0.042
X1.919 Y-0.0444
X1.9155 Y-0.0476
X1.9133 Y-0.0494
X1.9105 Y-0.0514
X1.9077 Y-0.0533
X1.9048 Y-0.0549
X1.902 Y-0.0564
X1.8992 Y-0.0576
X1.8964 Y-0.0587
X1.8958 Y-0.0589
X1.8907 Y-0.0605
X1.8879 Y-0.0612
X1.8851 Y-0.0617
X1.8822 Y-0.0621
X1.8794 Y-0.0623
X1.8737 Y-0.0625
X0.3763
X0.3706 Y-0.0623
X0.3678 Y-0.0621
X0.3649 Y-0.0617
X0.3621 Y-0.0612
X0.3593 Y-0.0605
X0.3542 Y-0.0589
X0.3536 Y-0.0587
X0.3508 Y-0.0576
X0.348 Y-0.0564
X0.3452 Y-0.0549
X0.3423 Y-0.0533
X0.3395 Y-0.0514
X0.3367 Y-0.0494
X0.3345 Y-0.0476
X0.331 Y-0.0444
X0.3287 Y-0.042
X0.3254 Y-0.038
X0.3242 Y-0.0363
X0.3223 Y-0.0335
X0.3206 Y-0.0307
X0.3197 Y-0.0292
X0.3188 Y-0.0274
X0.3177 Y-0.0251
X0.3166 Y-0.0222
X0.3156 Y-0.0194
X0.3148 Y-0.0167
X0.3141 Y-0.014
X0.314 Y-0.0138
X0.3135 Y-0.011
X0.313 Y-0.0081
X0.3127 Y-0.0053
X0.3125 Y-0.0025
Y0.0032
Y1.9374
X0.3124 Y1.9375
X0.0124
G3 X-0.0001 Y1.925 I0. J-0.0125
G1 Y1.9222 Z0.2203
Y1.9196 Z0.2212
Y1.9172 Z0.2227
Y1.9152 Z0.2247
Y1.9137 Z0.2271
Y1.9128 Z0.2297
Y1.9125 Z0.2325
Z0.86
X2.2501 Y1.8571
Z0.1925
Y1.8574 Z0.1897
Y1.8583 Z0.1871
Y1.8598 Z0.1847
Y1.8618 Z0.1827
Y1.8642 Z0.1812
Y1.8668 Z0.1803
Y1.8696 Z0.18
Y1.925
G3 X2.2376 Y1.9375 I-0.0125 J0.
G1 X1.9376
X1.9375 Y1.9374
Y0.0032
Y-0.0025
X1.9373 Y-0.0053
X1.937 Y-0.0081
X1.9365 Y-0.011
X1.936 Y-0.0138
X1.9359 Y-0.014
X1.9352 Y-0.0167
X1.9344 Y-0.0194
X1.9334 Y-0.0222
X1.9323 Y-0.0251
X1.9312 Y-0.0274
X1.9303 Y-0.0292
X1.9294 Y-0.0307
X1.9277 Y-0.0335
X1.9258 Y-0.0363
X1.9246 Y-0.038
X1.9213 Y-0.042
X1.919 Y-0.0444
X1.9155 Y-0.0476
X1.9133 Y-0.0494
X1.9105 Y-0.0514
X1.9077 Y-0.0533
X1.9048 Y-0.0549
X1.902 Y-0.0564
X1.8992 Y-0.0576
X1.8964 Y-0.0587
X1.8958 Y-0.0589
X1.8907 Y-0.0605
X1.8879 Y-0.0612
X1.8851 Y-0.0617
X1.8822 Y-0.0621
X1.8794 Y-0.0623
X1.8737 Y-0.0625
X0.3763
X0.3706 Y-0.0623
X0.3678 Y-0.0621
X0.3649 Y-0.0617
X0.3621 Y-0.0612
X0.3593 Y-0.0605
X0.3542 Y-0.0589
X0.3536 Y-0.0587
X0.3508 Y-0.0576
X0.348 Y-0.0564
X0.3452 Y-0.0549
X0.3423 Y-0.0533
X0.3395 Y-0.0514
X0.3367 Y-0.0494
X0.3345 Y-0.0476
X0.331 Y-0.0444
X0.3287 Y-0.042
X0.3254 Y-0.038
X0.3242 Y-0.0363
X0.3223 Y-0.0335
X0.3206 Y-0.0307
X0.3197 Y-0.0292
X0.3188 Y-0.0274
X0.3177 Y-0.0251
X0.3166 Y-0.0222
X0.3156 Y-0.0194
X0.3148 Y-0.0167
X0.3141 Y-0.014
X0.314 Y-0.0138
X0.3135 Y-0.011
X0.313 Y-0.0081
X0.3127 Y-0.0053
X0.3125 Y-0.0025
Y0.0032
Y1.9374
X0.3124 Y1.9375
X0.0124
G3 X-0.0001 Y1.925 I0. J-0.0125
G1 Y1.9222 Z0.1803
Y1.9196 Z0.1812
Y1.9172 Z0.1827
Y1.9152 Z0.1847
Y1.9137 Z0.1871
Y1.9128 Z0.1897
Y1.9125 Z0.1925
Z0.86
X2.2501 Y1.8571
Z0.1525
Y1.8574 Z0.1497
Y1.8583 Z0.1471
Y1.8598 Z0.1447
Y1.8618 Z0.1427
Y1.8642 Z0.1412
Y1.8668 Z0.1403
Y1.8696 Z0.14
Y1.925
G3 X2.2376 Y1.9375 I-0.0125 J0.
G1 X1.9376
X1.9375 Y1.9374
Y0.0032
Y-0.0025
X1.9373 Y-0.0053
X1.937 Y-0.0081
X1.9365 Y-0.011
X1.936 Y-0.0138
X1.9359 Y-0.014
X1.9352 Y-0.0167
X1.9344 Y-0.0194
X1.9334 Y-0.0222
X1.9323 Y-0.0251
X1.9312 Y-0.0274
X1.9303 Y-0.0292
X1.9294 Y-0.0307
X1.9277 Y-0.0335
X1.9258 Y-0.0363
X1.9246 Y-0.038
X1.9213 Y-0.042
X1.919 Y-0.0444
X1.9155 Y-0.0476
X1.9133 Y-0.0494
X1.9105 Y-0.0514
X1.9077 Y-0.0533
X1.9048 Y-0.0549
X1.902 Y-0.0564
X1.8992 Y-0.0576
X1.8964 Y-0.0587
X1.8958 Y-0.0589
X1.8907 Y-0.0605
X1.8879 Y-0.0612
X1.8851 Y-0.0617
X1.8822 Y-0.0621
X1.8794 Y-0.0623
X1.8737 Y-0.0625
X0.3763
X0.3706 Y-0.0623
X0.3678 Y-0.0621
X0.3649 Y-0.0617
X0.3621 Y-0.0612
X0.3593 Y-0.0605
X0.3542 Y-0.0589
X0.3536 Y-0.0587
X0.3508 Y-0.0576
X0.348 Y-0.0564
X0.3452 Y-0.0549
X0.3423 Y-0.0533
X0.3395 Y-0.0514
X0.3367 Y-0.0494
X0.3345 Y-0.0476
X0.331 Y-0.0444
X0.3287 Y-0.042
X0.3254 Y-0.038
X0.3242 Y-0.0363
X0.3223 Y-0.0335
X0.3206 Y-0.0307
X0.3197 Y-0.0292
X0.3188 Y-0.0274
X0.3177 Y-0.0251
X0.3166 Y-0.0222
X0.3156 Y-0.0194
X0.3148 Y-0.0167
X0.3141 Y-0.014
X0.314 Y-0.0138
X0.3135 Y-0.011
X0.313 Y-0.0081
X0.3127 Y-0.0053
X0.3125 Y-0.0025
Y0.0032
Y1.9374
X0.3124 Y1.9375
X0.0124
G3 X-0.0001 Y1.925 I0. J-0.0125
G1 Y1.9222 Z0.1403
Y1.9196 Z0.1412
Y1.9172 Z0.1427
Y1.9152 Z0.1447
Y1.9137 Z0.1471
Y1.9128 Z0.1497
Y1.9125 Z0.1525
Z0.86
X2.2501 Y1.8571
Z0.1125
Y1.8574 Z0.1097
Y1.8583 Z0.1071
Y1.8598 Z0.1047
Y1.8618 Z0.1027
Y1.8642 Z0.1012
Y1.8668 Z0.1003
Y1.8696 Z0.1
Y1.925
G3 X2.2376 Y1.9375 I-0.0125 J0.
G1 X1.9376
X1.9375 Y1.9374
Y0.0032
Y-0.0025
X1.9373 Y-0.0053
X1.937 Y-0.0081
X1.9365 Y-0.011
X1.936 Y-0.0138
X1.9359 Y-0.014
X1.9352 Y-0.0167
X1.9344 Y-0.0194
X1.9334 Y-0.0222
X1.9323 Y-0.0251
X1.9312 Y-0.0274
X1.9303 Y-0.0292
X1.9294 Y-0.0307
X1.9277 Y-0.0335
X1.9258 Y-0.0363
X1.9246 Y-0.038
X1.9213 Y-0.042
X1.919 Y-0.0444
X1.9155 Y-0.0476
X1.9133 Y-0.0494
X1.9105 Y-0.0514
X1.9077 Y-0.0533
X1.9048 Y-0.0549
X1.902 Y-0.0564
X1.8992 Y-0.0576
X1.8964 Y-0.0587
X1.8958 Y-0.0589
X1.8907 Y-0.0605
X1.8879 Y-0.0612
X1.8851 Y-0.0617
X1.8822 Y-0.0621
X1.8794 Y-0.0623
X1.8737 Y-0.0625
X0.3763
X0.3706 Y-0.0623
X0.3678 Y-0.0621
X0.3649 Y-0.0617
X0.3621 Y-0.0612
X0.3593 Y-0.0605
X0.3542 Y-0.0589
X0.3536 Y-0.0587
X0.3508 Y-0.0576
X0.348 Y-0.0564
X0.3452 Y-0.0549
X0.3423 Y-0.0533
X0.3395 Y-0.0514
X0.3367 Y-0.0494
X0.3345 Y-0.0476
X0.331 Y-0.0444
X0.3287 Y-0.042
X0.3254 Y-0.038
X0.3242 Y-0.0363
X0.3223 Y-0.0335
X0.3206 Y-0.0307
X0.3197 Y-0.0292
X0.3188 Y-0.0274
X0.3177 Y-0.0251
X0.3166 Y-0.0222
X0.3156 Y-0.0194
X0.3148 Y-0.0167
X0.3141 Y-0.014
X0.314 Y-0.0138
X0.3135 Y-0.011
X0.313 Y-0.0081
X0.3127 Y-0.0053
X0.3125 Y-0.0025
Y0.0032
Y1.9374
X0.3124 Y1.9375
X0.0124
G3 X-0.0001 Y1.925 I0. J-0.0125
G1 Y1.9222 Z0.1003
Y1.9196 Z0.1012
Y1.9172 Z0.1027
Y1.9152 Z0.1047
Y1.9137 Z0.1071
Y1.9128 Z0.1097
Y1.9125 Z0.1125
Z0.86
X2.2501 Y1.8571
Z0.0725
Y1.8574 Z0.0697
Y1.8583 Z0.0671
Y1.8598 Z0.0647
Y1.8618 Z0.0627
Y1.8642 Z0.0612
Y1.8668 Z0.0603
Y1.8696 Z0.06
Y1.925
G3 X2.2376 Y1.9375 I-0.0125 J0.
G1 X1.9376
X1.9375 Y1.9374
Y0.0032
Y-0.0025
X1.9373 Y-0.0053
X1.937 Y-0.0081
X1.9365 Y-0.011
X1.936 Y-0.0138
X1.9359 Y-0.014
X1.9352 Y-0.0167
X1.9344 Y-0.0194
X1.9334 Y-0.0222
X1.9323 Y-0.0251
X1.9312 Y-0.0274
X1.9303 Y-0.0292
X1.9294 Y-0.0307
X1.9277 Y-0.0335
X1.9258 Y-0.0363
X1.9246 Y-0.038
X1.9213 Y-0.042
X1.919 Y-0.0444
X1.9155 Y-0.0476
X1.9133 Y-0.0494
X1.9105 Y-0.0514
X1.9077 Y-0.0533
X1.9048 Y-0.0549
X1.902 Y-0.0564
X1.8992 Y-0.0576
X1.8964 Y-0.0587
X1.8958 Y-0.0589
X1.8907 Y-0.0605
X1.8879 Y-0.0612
X1.8851 Y-0.0617
X1.8822 Y-0.0621
X1.8794 Y-0.0623
X1.8737 Y-0.0625
X0.3763
X0.3706 Y-0.0623
X0.3678 Y-0.0621
X0.3649 Y-0.0617
X0.3621 Y-0.0612
X0.3593 Y-0.0605
X0.3542 Y-0.0589
X0.3536 Y-0.0587
X0.3508 Y-0.0576
X0.348 Y-0.0564
X0.3452 Y-0.0549
X0.3423 Y-0.0533
X0.3395 Y-0.0514
X0.3367 Y-0.0494
X0.3345 Y-0.0476
X0.331 Y-0.0444
X0.3287 Y-0.042
X0.3254 Y-0.038
X0.3242 Y-0.0363
X0.3223 Y-0.0335
X0.3206 Y-0.0307
X0.3197 Y-0.0292
X0.3188 Y-0.0274
X0.3177 Y-0.0251
X0.3166 Y-0.0222
X0.3156 Y-0.0194
X0.3148 Y-0.0167
X0.3141 Y-0.014
X0.314 Y-0.0138
X0.3135 Y-0.011
X0.313 Y-0.0081
X0.3127 Y-0.0053
X0.3125 Y-0.0025
Y0.0032
Y1.9374
X0.3124 Y1.9375
X0.0124
G3 X-0.0001 Y1.925 I0. J-0.0125
G1 Y1.9222 Z0.0603
Y1.9196 Z0.0612
Y1.9172 Z0.0627
Y1.9152 Z0.0647
Y1.9137 Z0.0671
Y1.9128 Z0.0697
Y1.9125 Z0.0725
Z0.86
X2.2501 Y1.8571
Z0.0325
Y1.8574 Z0.0297
Y1.8583 Z0.0271
Y1.8598 Z0.0247
Y1.8618 Z0.0227
Y1.8642 Z0.0212
Y1.8668 Z0.0203
Y1.8696 Z0.02
Y1.925
G3 X2.2376 Y1.9375 I-0.0125 J0.
G1 X1.9376
X1.9375 Y1.9374
Y0.0032
Y-0.0025
X1.9373 Y-0.0053
X1.937 Y-0.0081
X1.9365 Y-0.011
X1.936 Y-0.0138
X1.9359 Y-0.014
X1.9352 Y-0.0167
X1.9344 Y-0.0194
X1.9334 Y-0.0222
X1.9323 Y-0.0251
X1.9312 Y-0.0274
X1.9303 Y-0.0292
X1.9294 Y-0.0307
X1.9277 Y-0.0335
X1.9258 Y-0.0363
X1.9246 Y-0.038
X1.9213 Y-0.042
X1.919 Y-0.0444
X1.9155 Y-0.0476
X1.9133 Y-0.0494
X1.9105 Y-0.0514
X1.9077 Y-0.0533
X1.9048 Y-0.0549
X1.902 Y-0.0564
X1.8992 Y-0.0576
X1.8964 Y-0.0587
X1.8958 Y-0.0589
X1.8907 Y-0.0605
X1.8879 Y-0.0612
X1.8851 Y-0.0617
X1.8822 Y-0.0621
X1.8794 Y-0.0623
X1.8737 Y-0.0625
X0.3763
X0.3706 Y-0.0623
X0.3678 Y-0.0621
X0.3649 Y-0.0617
X0.3621 Y-0.0612
X0.3593 Y-0.0605
X0.3542 Y-0.0589
X0.3536 Y-0.0587
X0.3508 Y-0.0576
X0.348 Y-0.0564
X0.3452 Y-0.0549
X0.3423 Y-0.0533
X0.3395 Y-0.0514
X0.3367 Y-0.0494
X0.3345 Y-0.0476
X0.331 Y-0.0444
X0.3287 Y-0.042
X0.3254 Y-0.038
X0.3242 Y-0.0363
X0.3223 Y-0.0335
X0.3206 Y-0.0307
X0.3197 Y-0.0292
X0.3188 Y-0.0274
X0.3177 Y-0.0251
X0.3166 Y-0.0222
X0.3156 Y-0.0194
X0.3148 Y-0.0167
X0.3141 Y-0.014
X0.314 Y-0.0138
X0.3135 Y-0.011
X0.313 Y-0.0081
X0.3127 Y-0.0053
X0.3125 Y-0.0025
Y0.0032
Y1.9374
X0.3124 Y1.9375
X0.0124
G3 X-0.0001 Y1.925 I0. J-0.0125
G1 Y1.9222 Z0.0203
Y1.9196 Z0.0212
Y1.9172 Z0.0227
Y1.9152 Z0.0247
Y1.9137 Z0.0271
Y1.9128 Z0.0297
Y1.9125 Z0.0325
Z0.86
X2.2501 Y1.8571
Z0.0125
Y1.8574 Z0.0097
Y1.8583 Z0.0071
Y1.8598 Z0.0047
Y1.8618 Z0.0027
Y1.8642 Z0.0012
Y1.8668 Z0.0003
Y1.8696 Z0.
Y1.925
G3 X2.2376 Y1.9375 I-0.0125 J0.
G1 X1.9376
X1.9375 Y1.9374
Y0.0032
Y-0.0025
X1.9373 Y-0.0053
X1.937 Y-0.0081
X1.9365 Y-0.011
X1.936 Y-0.0138
X1.9359 Y-0.014
X1.9352 Y-0.0167
X1.9344 Y-0.0194
X1.9334 Y-0.0222
X1.9323 Y-0.0251
X1.9312 Y-0.0274
X1.9303 Y-0.0292
X1.9294 Y-0.0307
X1.9277 Y-0.0335
X1.9258 Y-0.0363
X1.9246 Y-0.038
X1.9213 Y-0.042
X1.919 Y-0.0444
X1.9155 Y-0.0476
X1.9133 Y-0.0494
X1.9105 Y-0.0514
X1.9077 Y-0.0533
X1.9048 Y-0.0549
X1.902 Y-0.0564
X1.8992 Y-0.0576
X1.8964 Y-0.0587
X1.8958 Y-0.0589
X1.8907 Y-0.0605
X1.8879 Y-0.0612
X1.8851 Y-0.0617
X1.8822 Y-0.0621
X1.8794 Y-0.0623
X1.8737 Y-0.0625
X0.3763
X0.3706 Y-0.0623
X0.3678 Y-0.0621
X0.3649 Y-0.0617
X0.3621 Y-0.0612
X0.3593 Y-0.0605
X0.3542 Y-0.0589
X0.3536 Y-0.0587
X0.3508 Y-0.0576
X0.348 Y-0.0564
X0.3452 Y-0.0549
X0.3423 Y-0.0533
X0.3395 Y-0.0514
X0.3367 Y-0.0494
X0.3345 Y-0.0476
X0.331 Y-0.0444
X0.3287 Y-0.042
X0.3254 Y-0.038
X0.3242 Y-0.0363
X0.3223 Y-0.0335
X0.3206 Y-0.0307
X0.3197 Y-0.0292
X0.3188 Y-0.0274
X0.3177 Y-0.0251
X0.3166 Y-0.0222
X0.3156 Y-0.0194
X0.3148 Y-0.0167
X0.3141 Y-0.014
X0.314 Y-0.0138
X0.3135 Y-0.011
X0.313 Y-0.0081
X0.3127 Y-0.0053
X0.3125 Y-0.0025
Y0.0032
Y1.9374
X0.3124 Y1.9375
X0.0124
G3 X-0.0001 Y1.925 I0. J-0.0125
G1 Y1.9222 Z0.0003
Y1.9196 Z0.0012
Y1.9172 Z0.0027
Y1.9152 Z0.0047
Y1.9137 Z0.0071
Y1.9128 Z0.0097
Y1.9125 Z0.0125
Z0.86
X1.0622 Y0.886
Z0.6745
Y0.8861 Z0.6731
Y0.8863 Z0.6718
X1.0623 Y0.8867 Z0.6705
Y0.8872 Z0.6692
Y0.8878 Z0.668
X1.0624 Y0.8886 Z0.6668
Y0.8895 Z0.6658
Y0.8905 Z0.6649
Y0.8916 Z0.6641
Y0.8928 Z0.6634
X1.0623 Y0.894 Z0.6628
X1.0622 Y0.8953 Z0.6624
X1.0621 Y0.8967 Z0.6621
X1.0619 Y0.898 Z0.662
G3 X0.9443 Y0.8833 Z0.6555 I-0.0588 J-0.0074
G3 X1.0619 Y0.898 Z0.649 I0.0588 J0.0074
G3 X0.9443 Y0.8833 Z0.6425 I-0.0588 J-0.0074
G3 X1.0619 Y0.898 Z0.636 I0.0588 J0.0074
G3 X0.9443 Y0.8833 Z0.6295 I-0.0588 J-0.0074
G3 X1.0619 Y0.898 Z0.623 I0.0588 J0.0074
G3 X1.0036 Y0.9499 Z0.62 I-0.0588 J-0.0074
G1 X1.0031
X0.95
G3 X0.9375 Y0.9374 I0. J-0.0125
G1 Y0.5626
X0.9376 Y0.5625
X1.3124
X1.3125 Y0.5626
Y1.0624
X1.3124 Y1.0625
X0.9376
X0.9375 Y1.0624
Y0.9374
Y0.9275 F48.
Y0.9175
Y0.9075 Z0.6199 F48.
Y0.8976
Y0.8876 Z0.6198
Y0.8776
Y0.8676 Z0.6197
Y0.8577 Z0.6196
Y0.8477 Z0.6195
Y0.8377 Z0.6194
Y0.8278 Z0.6193
Y0.8178 Z0.6192
Y0.8078 Z0.619
Y0.7978 Z0.6189
Y0.7879 Z0.6187
Y0.7779 Z0.6185
Y0.7679 Z0.6184
Y0.758 Z0.6182
Y0.748 Z0.618
Y0.743 Z0.6179
Y0.738 Z0.6178
Y0.733 Z0.6176
Y0.728 Z0.6175
Y0.7231 Z0.6174
Y0.7181 Z0.6173
Y0.7131 Z0.6172
Y0.7081 Z0.6171
Y0.7031 Z0.617
Y0.6981 Z0.6168
Y0.6931 Z0.6167
Y0.6882 Z0.6166
Y0.6832 Z0.6165
Y0.6782 Z0.6163
Y0.6732 Z0.6162
Y0.6682 Z0.6161
Y0.6632 Z0.6159
Y0.6582 Z0.6158
Y0.6533 Z0.6156
Y0.6483 Z0.6155
Y0.6433 Z0.6154
Y0.6383 Z0.6152
Y0.6333 Z0.6151
Y0.6283 Z0.6149
Y0.6233 Z0.6148
Y0.6184 Z0.6146
Y0.6134 Z0.6145
Y0.6084 Z0.6143
Y0.6034 Z0.6141
Y0.5984 Z0.614
Y0.5934 Z0.6138
Y0.5884 Z0.6137
Y0.5835 Z0.6135
Y0.5785 Z0.6133
Y0.5735 Z0.6132
Y0.5685 Z0.613
Y0.5642 Z0.6129
Y0.5625 Z0.6128
X0.9376
X0.9392
X0.9415
X0.9465 Z0.6126
X0.9565 Z0.6122
X0.9614 Z0.6121
X0.9664 Z0.6119
X0.9714 Z0.6117
X0.9764 Z0.6115
X0.9814 Z0.6114
X0.9864 Z0.6112
X0.9914 Z0.611
X0.9963 Z0.6108
X1.0013 Z0.6107
X1.0063 Z0.6105
X1.0113 Z0.6103
X1.0163 Z0.6101
X1.0213 Z0.61
X1.0263 Z0.6098
X1.0312 Z0.6096
X1.0362 Z0.6095
X1.0412 Z0.6093
X1.0462 Z0.6091
X1.0512 Z0.6089
X1.0562 Z0.6088
X1.0612 Z0.6086
X1.0661 Z0.6084
X1.0711 Z0.6082
X1.0761 Z0.6081
X1.0811 Z0.6079
X1.0861 Z0.6077
X1.0961 Z0.6074
X1.111 Z0.6068
X1.126 Z0.6063
X1.1409 Z0.6058
X1.1559 Z0.6053
X1.1708 Z0.6047
X1.1858 Z0.6042
X1.2057 Z0.6035
X1.2307 Z0.6027
X1.2656 Z0.6014
X1.3104 Z0.5999
X1.3119 Z0.5998
X1.3124
X1.3125 Y0.5626
Y0.563
Y0.5638
Y0.5662 Z0.5997
Y0.5705 Z0.5996
Y0.6353 Z0.5973
Y0.6602 Z0.5965
Y0.6851 Z0.5956
Y0.7001 Z0.5951
Y0.715 Z0.5945
Y0.73 Z0.594
Y0.7449 Z0.5935
Y0.7599 Z0.593
Y0.7749 Z0.5925
Y0.7798 Z0.5923
Y0.7848 Z0.5921
Y0.7898 Z0.5919
Y0.7948 Z0.5918
Y0.7998 Z0.5916
Y0.8048 Z0.5914
Y0.8098 Z0.5912
Y0.8147 Z0.5911
Y0.8197 Z0.5909
Y0.8247 Z0.5907
Y0.8297 Z0.5905
Y0.8347 Z0.5904
Y0.8397 Z0.5902
Y0.8447 Z0.59
Y0.8496 Z0.5898
Y0.8546 Z0.5897
Y0.8596 Z0.5895
Y0.8646 Z0.5893
Y0.8696 Z0.5891
Y0.8746 Z0.589
Y0.8796 Z0.5888
Y0.8845 Z0.5886
Y0.8895 Z0.5884
Y0.8945 Z0.5883
Y0.8995 Z0.5881
Y0.9045 Z0.5879
Y0.9095 Z0.5878
Y0.9145 Z0.5876
Y0.9194 Z0.5874
Y0.9244 Z0.5872
Y0.9294 Z0.5871
Y0.9344 Z0.5869
Y0.9394 Z0.5867
Y0.9444 Z0.5866
Y0.9494 Z0.5864
Y0.9543 Z0.5862
Y0.9593 Z0.5861
Y0.9643 Z0.5859
Y0.9693 Z0.5858
Y0.9743 Z0.5856
Y0.9793 Z0.5854
Y0.9843 Z0.5853
Y0.9892 Z0.5851
Y0.9942 Z0.585
Y0.9992 Z0.5848
Y1.0042 Z0.5847
Y1.0092 Z0.5846
Y1.0142 Z0.5844
Y1.0192 Z0.5843
Y1.0241 Z0.5841
Y1.0291 Z0.584
Y1.0341 Z0.5839
Y1.0391 Z0.5837
Y1.0441 Z0.5836
Y1.0491 Z0.5835
Y1.0541 Z0.5833
Y1.059 Z0.5832
Y1.0616
Y1.0624 Z0.5831
X1.3124 Y1.0625
X1.3115
X1.3101
X1.306 Z0.583
X1.301 Z0.5829
X1.296 Z0.5827
X1.291 Z0.5826
X1.286 Z0.5825
X1.281 Z0.5824
X1.276 Z0.5823
X1.2711 Z0.5822
X1.2661 Z0.5821
X1.2611 Z0.582
X1.2561 Z0.5819
X1.2461 Z0.5817
X1.2362 Z0.5815
X1.2262 Z0.5813
X1.2162 Z0.5812
X1.2062 Z0.581
X1.1963 Z0.5809
X1.1863 Z0.5807
X1.1763 Z0.5806
X1.1664 Z0.5805
X1.1564 Z0.5804
X1.1464 Z0.5803
X1.1364 Z0.5802
X1.1265
X1.1165 Z0.5801
X1.1065
X1.0966 Z0.58
X1.0866
X1.0766
X1.0746
X0.9376 F12.
X0.9375 Y1.0624
Y0.5626
X0.9376 Y0.5625
X1.3124
X1.3125 Y0.5626
Y1.0624
X1.3124 Y1.0625
X1.0746
X1.0646 F48.
X1.0546
X1.0446 Z0.5799
X1.0347
X1.0247 Z0.5798
X1.0147
X1.0048 Z0.5797
X0.9948 Z0.5796
X0.9848 Z0.5795
X0.9748 Z0.5794
X0.9649 Z0.5793
X0.9549 Z0.5792
X0.9449 Z0.579
X0.9408 Z0.5789
X0.9381
X0.9377
X0.9375
Y1.0621
Y1.0613
Y1.0599
Y1.05 Z0.5787
Y1.04 Z0.5785
Y1.03 Z0.5784
Y1.02 Z0.5782
Y1.0101 Z0.578
Y1.0051 Z0.5779
Y1.0001 Z0.5778
Y0.9951 Z0.5776
Y0.9901 Z0.5775
Y0.9851 Z0.5774
Y0.9802 Z0.5773
Y0.9752 Z0.5772
Y0.9702 Z0.5771
Y0.9652 Z0.577
Y0.9602 Z0.5768
Y0.9552 Z0.5767
Y0.9502 Z0.5766
Y0.9453 Z0.5765
Y0.9403 Z0.5763
Y0.9353 Z0.5762
Y0.9303 Z0.5761
Y0.9253 Z0.5759
Y0.9203 Z0.5758
Y0.9153 Z0.5756
Y0.9104 Z0.5755
Y0.9054 Z0.5754
Y0.9004 Z0.5752
Y0.8954 Z0.5751
Y0.8904 Z0.5749
Y0.8854 Z0.5748
Y0.8804 Z0.5746
Y0.8755 Z0.5745
Y0.8705 Z0.5743
Y0.8655 Z0.5741
Y0.8605 Z0.574
Y0.8555 Z0.5738
Y0.8505 Z0.5737
Y0.8455 Z0.5735
Y0.8406 Z0.5733
Y0.8356 Z0.5732
Y0.8306 Z0.573
Y0.8256 Z0.5728
Y0.8206 Z0.5727
Y0.8156 Z0.5725
Y0.8057 Z0.5721
Y0.8007 Z0.572
Y0.7957 Z0.5718
Y0.7907 Z0.5716
Y0.7857 Z0.5715
Y0.7807 Z0.5713
Y0.7757 Z0.5711
Y0.7708 Z0.5709
Y0.7658 Z0.5708
Y0.7608 Z0.5706
Y0.7558 Z0.5704
Y0.7508 Z0.5702
Y0.7458 Z0.5701
Y0.7408 Z0.5699
Y0.7359 Z0.5697
Y0.7309 Z0.5695
Y0.7259 Z0.5694
Y0.7209 Z0.5692
Y0.7159 Z0.569
Y0.7109 Z0.5688
Y0.7059 Z0.5687
Y0.701 Z0.5685
Y0.696 Z0.5683
Y0.691 Z0.5681
Y0.686 Z0.568
Y0.681 Z0.5678
Y0.676 Z0.5676
Y0.6661 Z0.5673
Y0.6511 Z0.5667
Y0.6362 Z0.5662
Y0.6212 Z0.5657
Y0.6062 Z0.5652
Y0.5913 Z0.5647
Y0.5763 Z0.5641
Y0.5713 Z0.564
Y0.5668 Z0.5638
Y0.5645 Z0.5637
Y0.5632
Y0.5627
Y0.5626
X0.9376 Y0.5625
X0.9379
X0.9387
X0.9636 Z0.5628
X0.9935 Z0.5617
X1.0384 Z0.5602
X1.1132 Z0.5576
X1.1481 Z0.5563
X1.173 Z0.5555
X1.188 Z0.5549
X1.2029 Z0.5544
X1.2179 Z0.5539
X1.2328 Z0.5534
X1.2478 Z0.5529
X1.2627 Z0.5523
X1.2677 Z0.5522
X1.2727 Z0.552
X1.2777 Z0.5518
X1.2827 Z0.5516
X1.2877 Z0.5515
X1.2926 Z0.5513
X1.2976 Z0.5511
X1.3026 Z0.5509
X1.3076 Z0.5508
X1.3119 Z0.5507
X1.3122
X1.3125
Y0.5626 Z0.5506
Y0.5627
Y0.5676 Z0.5505
Y0.5726 Z0.5503
Y0.5776 Z0.5502
Y0.5826 Z0.55
Y0.5876 Z0.5498
Y0.5925 Z0.5497
Y0.5975 Z0.5495
Y0.6025 Z0.5493
Y0.6075 Z0.5491
Y0.6125 Z0.549
Y0.6175 Z0.5488
Y0.6225 Z0.5486
Y0.6274 Z0.5484
Y0.6324 Z0.5483
Y0.6374 Z0.5481
Y0.6424 Z0.5479
Y0.6474 Z0.5477
Y0.6524 Z0.5476
Y0.6574 Z0.5474
Y0.6623 Z0.5472
Y0.6673 Z0.5471
Y0.6723 Z0.5469
Y0.6773 Z0.5467
Y0.6823 Z0.5466
Y0.6873 Z0.5464
Y0.6923 Z0.5462
Y0.6972 Z0.5461
Y0.7022 Z0.5459
Y0.7072 Z0.5457
Y0.7122 Z0.5456
Y0.7172 Z0.5454
Y0.7222 Z0.5453
Y0.7272 Z0.5451
Y0.7321 Z0.545
Y0.7371 Z0.5448
Y0.7421 Z0.5447
Y0.7471 Z0.5445
Y0.7521 Z0.5444
Y0.7571 Z0.5443
Y0.7621 Z0.5441
Y0.767 Z0.544
Y0.772 Z0.5439
Y0.777 Z0.5437
Y0.782 Z0.5436
Y0.787 Z0.5435
Y0.792 Z0.5433
Y0.797 Z0.5432
Y0.8019 Z0.5431
Y0.8069 Z0.543
Y0.8119 Z0.5428
Y0.8169 Z0.5427
Y0.8219 Z0.5426
Y0.8269 Z0.5425
Y0.8319 Z0.5424
Y0.8368 Z0.5423
Y0.8418 Z0.5422
Y0.8468 Z0.5421
Y0.8518 Z0.542
Y0.8568 Z0.5419
Y0.8668 Z0.5417
Y0.8767 Z0.5415
Y0.8867 Z0.5413
Y0.8967 Z0.5412
Y0.9066 Z0.541
Y0.9166 Z0.5409
Y0.9266 Z0.5407
Y0.9366 Z0.5406
Y0.9465 Z0.5405
Y0.9565 Z0.5404
Y0.9665 Z0.5403
Y0.9764 Z0.5402
Y0.9864
Y0.9964 Z0.5401
Y1.0063
Y1.0163 Z0.54
Y1.0263
Y1.0363
Y1.038
Y1.0624 F12.
X1.3124 Y1.0625
X1.0746
X0.9376
X0.9375 Y1.0624
Y0.5626
X0.9376 Y0.5625
X1.3124
X1.3125 Y0.5626
Y1.038
Y1.0479 F48.
Y1.0579
Y1.0624
X1.3124 Y1.0625
X1.3118
X1.3071 Z0.5399
X1.2971
X1.2872 Z0.5398
X1.2772
X1.2672 Z0.5397
X1.2572 Z0.5396
X1.2473 Z0.5395
X1.2373 Z0.5394
X1.2273 Z0.5393
X1.2174 Z0.5392
X1.2074 Z0.539
X1.1974 Z0.5389
X1.1874 Z0.5387
X1.1775 Z0.5385
X1.1675 Z0.5384
X1.1575 Z0.5382
X1.1476 Z0.538
X1.1426 Z0.5379
X1.1376 Z0.5378
X1.1326 Z0.5376
X1.1276 Z0.5375
X1.1226 Z0.5374
X1.1176 Z0.5373
X1.1127 Z0.5372
X1.1077 Z0.5371
X1.1027 Z0.537
X1.0977 Z0.5368
X1.0927 Z0.5367
X1.0877 Z0.5366
X1.0827 Z0.5365
X1.0778 Z0.5363
X1.0728 Z0.5362
X1.0678 Z0.5361
X1.0628 Z0.5359
X1.0578 Z0.5358
X1.0528 Z0.5356
X1.0478 Z0.5355
X1.0429 Z0.5354
X1.0379 Z0.5352
X1.0329 Z0.5351
X1.0279 Z0.5349
X1.0229 Z0.5348
X1.0179 Z0.5346
X1.0129 Z0.5345
X1.008 Z0.5343
X1.003 Z0.5341
X0.998 Z0.534
X0.993 Z0.5338
X0.988 Z0.5337
X0.983 Z0.5335
X0.978 Z0.5333
X0.9731 Z0.5332
X0.9681 Z0.533
X0.9631 Z0.5328
X0.9581 Z0.5327
X0.9531 Z0.5325
X0.9431 Z0.5321
X0.9382 Z0.532
X0.9378
X0.9376
X0.9375
Y1.0622
Y1.0615 Z0.5319
Y1.0602
Y1.0579 Z0.5318
Y1.0532 Z0.5316
Y1.0482 Z0.5315
Y1.0432 Z0.5313
Y1.0382 Z0.5311
Y1.0332 Z0.5309
Y1.0282 Z0.5308
Y1.0232 Z0.5306
Y1.0183 Z0.5304
Y1.0133 Z0.5303
Y1.0083 Z0.5301
Y1.0033 Z0.5299
Y0.9983 Z0.5297
Y0.9933 Z0.5296
Y0.9883 Z0.5294
Y0.9834 Z0.5292
Y0.9784 Z0.529
Y0.9734 Z0.5289
Y0.9684 Z0.5287
Y0.9634 Z0.5285
Y0.9584 Z0.5283
Y0.9534 Z0.5282
Y0.9485 Z0.528
Y0.9435 Z0.5278
Y0.9385 Z0.5276
Y0.9285 Z0.5273
Y0.9136 Z0.5268
Y0.8986 Z0.5262
Y0.8836 Z0.5257
Y0.8687 Z0.5252
Y0.8537 Z0.5247
Y0.8388 Z0.5242
Y0.8188 Z0.5235
Y0.7939 Z0.5226
Y0.759 Z0.5214
Y0.7092 Z0.5196
Y0.6344 Z0.517
Y0.6094 Z0.5162
Y0.5845 Z0.5153
Y0.5696 Z0.5148
Y0.5646 Z0.5146
Y0.5631 Z0.5145
Y0.5626
X0.9376 Y0.5625
X0.9377
X0.938
X0.9388
X0.9412 Z0.5144
X0.9454 Z0.5143
X0.9604 Z0.5138
X0.9754 Z0.5133
X0.9903 Z0.5127
X1.0053 Z0.5122
X1.0103 Z0.512
X1.0152 Z0.5119
X1.0202 Z0.5117
X1.0252 Z0.5115
X1.0302 Z0.5113
X1.0352 Z0.5112
X1.0402 Z0.511
X1.0452 Z0.5108
X1.0501 Z0.5106
X1.0551 Z0.5105
X1.0601 Z0.5103
X1.0651 Z0.5101
X1.0701 Z0.5099
X1.0751 Z0.5098
X1.0801 Z0.5096
X1.085 Z0.5094
X1.09 Z0.5092
X1.095 Z0.5091
X1.1 Z0.5089
X1.105 Z0.5087
X1.11 Z0.5086
X1.115 Z0.5084
X1.1199 Z0.5082
X1.1249 Z0.508
X1.1299 Z0.5079
X1.1399 Z0.5075
X1.1449 Z0.5073
X1.1499 Z0.5072
X1.1548 Z0.507
X1.1598 Z0.5068
X1.1648 Z0.5067
X1.1698 Z0.5065
X1.1748 Z0.5063
X1.1798 Z0.5062
X1.1848 Z0.506
X1.1897 Z0.5059
X1.1947 Z0.5057
X1.1997 Z0.5055
X1.2047 Z0.5054
X1.2097 Z0.5052
X1.2147 Z0.5051
X1.2197 Z0.5049
X1.2246 Z0.5048
X1.2296 Z0.5046
X1.2346 Z0.5045
X1.2396 Z0.5044
X1.2446 Z0.5042
X1.2496 Z0.5041
X1.2545 Z0.5039
X1.2595 Z0.5038
X1.2645 Z0.5037
X1.2695 Z0.5035
X1.2745 Z0.5034
X1.2795 Z0.5033
X1.2845 Z0.5032
X1.2894 Z0.503
X1.2944 Z0.5029
X1.2994 Z0.5028
X1.3044 Z0.5027
X1.3087 Z0.5026
X1.3111 Z0.5025
X1.3118
X1.3123
X1.3125
Y0.5627
Y0.5629
Y0.5644
Y0.5694 Z0.5024
Y0.5744 Z0.5022
Y0.5794 Z0.5021
Y0.5844 Z0.502
Y0.5943 Z0.5018
Y0.6043 Z0.5017
Y0.6143 Z0.5015
Y0.6242 Z0.5013
Y0.6342 Z0.5011
Y0.6442 Z0.501
Y0.6542 Z0.5008
Y0.6641 Z0.5007
Y0.6741 Z0.5006
Y0.6841 Z0.5005
Y0.694 Z0.5004
Y0.704 Z0.5003
Y0.714 Z0.5002
Y0.724
Y0.7339 Z0.5001
Y0.7439
Y0.7539 Z0.5
Y0.7638
Y0.774
Y1.038 F12.
Y1.0624
X1.3124 Y1.0625
X0.9376
X0.9375 Y1.0624
Y0.5626
X0.9376 Y0.5625
X1.3124
X1.3125 Y0.5626
Y0.774
Y0.784 F48.
Y0.794
Y0.8039 Z0.4999
Y0.8139
Y0.8239 Z0.4998
Y0.8338
Y0.8438 Z0.4997
Y0.8538 Z0.4996
Y0.8638 Z0.4995
Y0.8737 Z0.4994
Y0.8837 Z0.4993
Y0.8937 Z0.4992
Y0.9036 Z0.499
Y0.9136 Z0.4989
Y0.9236 Z0.4987
Y0.9335 Z0.4985
Y0.9435 Z0.4984
Y0.9535 Z0.4982
Y0.9635 Z0.498
Y0.9684 Z0.4979
Y0.9734 Z0.4978
Y0.9784 Z0.4976
Y0.9834 Z0.4975
Y0.9884 Z0.4974
Y0.9934 Z0.4973
Y0.9984 Z0.4972
Y1.0033 Z0.4971
Y1.0083 Z0.497
Y1.0133 Z0.4968
Y1.0183 Z0.4967
Y1.0233 Z0.4966
Y1.0283 Z0.4965
Y1.0333 Z0.4963
Y1.0382 Z0.4962
Y1.0432 Z0.4961
Y1.0482 Z0.4959
Y1.0532 Z0.4958
Y1.0602 Z0.4956
Y1.0615 Z0.4955
Y1.0622
Y1.0624
Y1.0625
X1.3122
X1.3118
X1.3068 Z0.4954
X1.3018 Z0.4952
X1.2968 Z0.4951
X1.2918 Z0.4949
X1.2869 Z0.4948
X1.2819 Z0.4946
X1.2769 Z0.4945
X1.2719 Z0.4943
X1.2669 Z0.4941
X1.2619 Z0.494
X1.2569 Z0.4938
X1.252 Z0.4937
X1.247 Z0.4935
X1.242 Z0.4933
X1.237 Z0.4932
X1.232 Z0.493
X1.227 Z0.4928
X1.222 Z0.4927
X1.2171 Z0.4925
X1.2071 Z0.4921
X1.2021 Z0.492
X1.1971 Z0.4918
X1.1921 Z0.4916
X1.1871 Z0.4915
X1.1822 Z0.4913
X1.1772 Z0.4911
X1.1722 Z0.4909
X1.1672 Z0.4908
X1.1622 Z0.4906
X1.1572 Z0.4904
X1.1523 Z0.4902
X1.1473 Z0.4901
X1.1423 Z0.4899
X1.1373 Z0.4897
X1.1323 Z0.4895
X1.1273 Z0.4894
X1.1223 Z0.4892
X1.1174 Z0.489
X1.1124 Z0.4888
X1.1074 Z0.4887
X1.1024 Z0.4885
X1.0974 Z0.4883
X1.0924 Z0.4881
X1.0874 Z0.488
X1.0825 Z0.4878
X1.0775 Z0.4876
X1.0675 Z0.4873
X1.0525 Z0.4867
X1.0376 Z0.4862
X1.0226 Z0.4857
X1.0077 Z0.4852
X0.9927 Z0.4847
X0.9778 Z0.4841
X0.9578 Z0.4834
X0.9429 Z0.4829
X0.9382 Z0.4828
X0.9378
X0.9376
X0.9375 Y1.0624
Y1.0622
Y1.0615
Y1.0602 Z0.4827
Y1.0578
Y1.0229 Z0.4815
Y0.9781 Z0.4799
Y0.9033 Z0.4773
Y0.8784 Z0.4764
Y0.8534 Z0.4755
Y0.8385 Z0.475
Y0.8235 Z0.4745
Y0.8086 Z0.474
Y0.7936 Z0.4734
Y0.7787 Z0.4729
Y0.7637 Z0.4724
Y0.7587 Z0.4722
Y0.7537 Z0.4721
Y0.7487 Z0.4719
Y0.7438 Z0.4717
Y0.7388 Z0.4715
Y0.7338 Z0.4714
Y0.7288 Z0.4712
Y0.7238 Z0.471
Y0.7188 Z0.4708
Y0.7138 Z0.4707
Y0.7089 Z0.4705
Y0.7039 Z0.4703
Y0.6989 Z0.4701
Y0.6939 Z0.47
Y0.6889 Z0.4698
Y0.6839 Z0.4696
Y0.6789 Z0.4694
Y0.674 Z0.4693
Y0.669 Z0.4691
Y0.664 Z0.4689
Y0.659 Z0.4687
Y0.654 Z0.4686
Y0.649 Z0.4684
Y0.644 Z0.4682
Y0.6391 Z0.468
Y0.6341 Z0.4679
Y0.6241 Z0.4675
Y0.6191 Z0.4674
Y0.6141 Z0.4672
Y0.6091 Z0.467
Y0.6042 Z0.4668
Y0.5992 Z0.4667
Y0.5942 Z0.4665
Y0.5892 Z0.4664
Y0.5842 Z0.4662
Y0.5792 Z0.466
Y0.5742 Z0.4659
Y0.5651 Z0.4656
Y0.5637 Z0.4655
Y0.563
Y0.5626
X0.9376 Y0.5625
X0.9381
X0.9408
X0.9457 Z0.4653
X0.9507 Z0.4651
X0.9557 Z0.465
X0.9607 Z0.4648
X0.9657 Z0.4647
X0.9707 Z0.4646
X0.9756 Z0.4644
X0.9806 Z0.4643
X0.9856 Z0.4641
X0.9906 Z0.464
X0.9956 Z0.4639
X1.0006 Z0.4637
X1.0056 Z0.4636
X1.0105 Z0.4635
X1.0155 Z0.4633
X1.0205 Z0.4632
X1.0255 Z0.4631
X1.0305 Z0.463
X1.0355 Z0.4629
X1.0405 Z0.4627
X1.0454 Z0.4626
X1.0504 Z0.4625
X1.0554 Z0.4624
X1.0604 Z0.4623
X1.0654 Z0.4622
X1.0704 Z0.4621
X1.0754 Z0.462
X1.0803 Z0.4619
X1.0903 Z0.4617
X1.1003 Z0.4615
X1.1103 Z0.4613
X1.1202 Z0.4612
X1.1302 Z0.461
X1.1402 Z0.4609
X1.1501 Z0.4607
X1.1601 Z0.4606
X1.1701 Z0.4605
X1.1801 Z0.4604
X1.19 Z0.4603
X1.2 Z0.4602
X1.21
X1.2199 Z0.4601
X1.2299
X1.2399 Z0.46
X1.2499
X1.2598
X1.262
X1.3124 F12.
X1.3125 Y0.5626
Y1.0624
X1.3124 Y1.0625
X0.9376
X0.9375 Y1.0624
Y0.5626
X0.9376 Y0.5625
X1.262
X1.272 F48.
X1.2819
X1.2919 Z0.4599
X1.3019
X1.3124 Z0.4598
X1.3125 Y0.5626
Y0.5628
Y0.5636
Y0.5648
Y0.5672
Y0.5719
Y0.5818 Z0.4597
Y0.5918 Z0.4596
Y0.6018 Z0.4595
Y0.6118 Z0.4594
Y0.6217 Z0.4593
Y0.6317 Z0.4592
Y0.6417 Z0.459
Y0.6516 Z0.4589
Y0.6616 Z0.4587
Y0.6716 Z0.4585
Y0.6816 Z0.4584
Y0.6915 Z0.4582
Y0.7015 Z0.458
Y0.7065 Z0.4579
Y0.7115 Z0.4578
Y0.7165 Z0.4576
Y0.7214 Z0.4575
Y0.7264 Z0.4574
Y0.7314 Z0.4573
Y0.7364 Z0.4572
Y0.7414 Z0.4571
Y0.7464 Z0.457
Y0.7513 Z0.4568
Y0.7563 Z0.4567
Y0.7613 Z0.4566
Y0.7663 Z0.4565
Y0.7713 Z0.4563
Y0.7763 Z0.4562
Y0.7813 Z0.4561
Y0.7862 Z0.4559
Y0.7912 Z0.4558
Y0.7962 Z0.4556
Y0.8012 Z0.4555
Y0.8062 Z0.4554
Y0.8112 Z0.4552
Y0.8162 Z0.4551
Y0.8211 Z0.4549
Y0.8261 Z0.4548
Y0.8311 Z0.4546
Y0.8361 Z0.4545
Y0.8411 Z0.4543
Y0.8461 Z0.4541
Y0.8511 Z0.454
Y0.856 Z0.4538
Y0.861 Z0.4537
Y0.866 Z0.4535
Y0.871 Z0.4533
Y0.876 Z0.4532
Y0.881 Z0.453
Y0.886 Z0.4528
Y0.8909 Z0.4527
Y0.8959 Z0.4525
Y0.9059 Z0.4521
Y0.9109 Z0.452
Y0.9159 Z0.4518
Y0.9209 Z0.4516
Y0.9258 Z0.4515
Y0.9308 Z0.4513
Y0.9358 Z0.4511
Y0.9408 Z0.4509
Y0.9458 Z0.4508
Y0.9508 Z0.4506
Y0.9558 Z0.4504
Y0.9607 Z0.4502
Y0.9657 Z0.4501
Y0.9707 Z0.4499
Y0.9757 Z0.4497
Y0.9807 Z0.4495
Y0.9857 Z0.4494
Y0.9907 Z0.4492
Y0.9956 Z0.449
Y1.0006 Z0.4488
Y1.0056 Z0.4487
Y1.0106 Z0.4485
Y1.0156 Z0.4483
Y1.0206 Z0.4481
Y1.0256 Z0.448
Y1.0305 Z0.4478
Y1.0355 Z0.4476
Y1.0455 Z0.4473
Y1.0605 Z0.4467
Y1.0619
Y1.0624
X1.3124 Y1.0625
X1.312
X1.3112
X1.3088 Z0.4466
X1.3045 Z0.4465
X1.2896 Z0.4459
X1.2746 Z0.4454
X1.2597 Z0.4449
X1.2447 Z0.4444
X1.2298 Z0.4439
X1.2048 Z0.443
X1.1799 Z0.4421
X1.145 Z0.4409
X1.0802 Z0.4386
X1.0353 Z0.4371
X1.0104 Z0.4362
X0.9855 Z0.4353
X0.9705 Z0.4348
X0.9555 Z0.4343
X0.9456 Z0.4339
X0.9413 Z0.4338
X0.9389 Z0.4337
X0.9381
X0.9377
X0.9375
Y1.0623
Y1.0621
Y1.0606 Z0.4336
Y1.0456 Z0.4331
Y1.0307 Z0.4326
Y1.0257 Z0.4324
Y1.0207 Z0.4322
Y1.0157 Z0.4321
Y1.0107 Z0.4319
Y1.0057 Z0.4317
Y1.0007 Z0.4315
Y0.9958 Z0.4314
Y0.9908 Z0.4312
Y0.9858 Z0.431
Y0.9808 Z0.4309
Y0.9758 Z0.4307
Y0.9708 Z0.4305
Y0.9658 Z0.4303
Y0.9609 Z0.4302
Y0.9559 Z0.43
Y0.9509 Z0.4298
Y0.9459 Z0.4296
Y0.9409 Z0.4295
Y0.9359 Z0.4293
Y0.9309 Z0.4291
Y0.926 Z0.4289
Y0.921 Z0.4288
Y0.916 Z0.4286
Y0.911 Z0.4284
Y0.906 Z0.4282
Y0.901 Z0.4281
Y0.896 Z0.4279
Y0.8811 Z0.4274
Y0.8761 Z0.4272
Y0.8711 Z0.427
Y0.8661 Z0.4269
Y0.8611 Z0.4267
Y0.8562 Z0.4265
Y0.8512 Z0.4264
Y0.8462 Z0.4262
Y0.8412 Z0.426
Y0.8362 Z0.4259
Y0.8312 Z0.4257
Y0.8262 Z0.4256
Y0.8213 Z0.4254
Y0.8163 Z0.4253
Y0.8113 Z0.4251
Y0.8063 Z0.425
Y0.8013 Z0.4248
Y0.7963 Z0.4247
Y0.7913 Z0.4245
Y0.7864 Z0.4244
Y0.7814 Z0.4242
Y0.7764 Z0.4241
Y0.7714 Z0.424
Y0.7664 Z0.4238
Y0.7614 Z0.4237
Y0.7564 Z0.4236
Y0.7515 Z0.4234
Y0.7465 Z0.4233
Y0.7415 Z0.4232
Y0.7365 Z0.4231
Y0.7315 Z0.423
Y0.7265 Z0.4228
Y0.7215 Z0.4227
Y0.7166 Z0.4226
Y0.7116 Z0.4225
Y0.7066 Z0.4224
Y0.7016 Z0.4223
Y0.6966 Z0.4222
Y0.6916 Z0.4221
Y0.6866 Z0.422
Y0.6817 Z0.4219
Y0.6717 Z0.4217
Y0.6617 Z0.4215
Y0.6517 Z0.4213
Y0.6418 Z0.4212
Y0.6318 Z0.421
Y0.6218 Z0.4209
Y0.6119 Z0.4207
Y0.6019 Z0.4206
Y0.5919 Z0.4205
Y0.582 Z0.4204
Y0.572 Z0.4203
Y0.5672
Y0.5636 Z0.4202
Y0.5627
Y0.5626
X0.9376 Y0.5625
X0.938
X0.948
X0.958 Z0.4201
X0.9679
X0.9779 Z0.42
X0.9879
X0.9979
X0.999
X1.262 F12.
X1.3124
X1.3125 Y0.5626
Y1.0624
X1.3124 Y1.0625
X0.9376
X0.9375 Y1.0624
Y0.5626
X0.9376 Y0.5625
X0.999
X1.009 F48.
X1.019
X1.0289 Z0.4199
X1.0389
X1.0489 Z0.4198
X1.0588
X1.0688 Z0.4197
X1.0788 Z0.4196
X1.0888 Z0.4195
X1.0987 Z0.4194
X1.1087 Z0.4193
X1.1187 Z0.4192
X1.1286 Z0.419
X1.1386 Z0.4189
X1.1486 Z0.4187
X1.1586 Z0.4185
X1.1685 Z0.4184
X1.1785 Z0.4182
X1.1885 Z0.418
X1.1935 Z0.4179
X1.1984 Z0.4178
X1.2034 Z0.4176
X1.2084 Z0.4175
X1.2134 Z0.4174
X1.2184 Z0.4173
X1.2234 Z0.4172
X1.2284 Z0.4171
X1.2333 Z0.417
X1.2383 Z0.4168
X1.2433 Z0.4167
X1.2483 Z0.4166
X1.2533 Z0.4165
X1.2583 Z0.4163
X1.2633 Z0.4162
X1.2682 Z0.4161
X1.2732 Z0.4159
X1.2782 Z0.4158
X1.2832 Z0.4156
X1.2882 Z0.4155
X1.2932 Z0.4154
X1.2982 Z0.4152
X1.3031 Z0.4151
X1.3081 Z0.4149
X1.3105
X1.3118 Z0.4148
X1.3122
X1.3124
X1.3125
Y0.5628
Y0.5636
Y0.5681 Z0.4147
Y0.5731 Z0.4145
Y0.5781 Z0.4144
Y0.5831 Z0.4142
Y0.5881 Z0.414
Y0.5931 Z0.4139
Y0.598 Z0.4137
Y0.603 Z0.4136
Y0.608 Z0.4134
Y0.613 Z0.4132
Y0.618 Z0.4131
Y0.623 Z0.4129
Y0.628 Z0.4127
Y0.6329 Z0.4126
Y0.6429 Z0.4122
Y0.6479 Z0.412
Y0.6529 Z0.4119
Y0.6579 Z0.4117
Y0.6629 Z0.4115
Y0.6678 Z0.4113
Y0.6728 Z0.4112
Y0.6778 Z0.411
Y0.6828 Z0.4108
Y0.6878 Z0.4106
Y0.6928 Z0.4105
Y0.6978 Z0.4103
Y0.7027 Z0.4101
Y0.7077 Z0.4099
Y0.7127 Z0.4098
Y0.7177 Z0.4096
Y0.7227 Z0.4094
Y0.7277 Z0.4092
Y0.7327 Z0.4091
Y0.7376 Z0.4089
Y0.7426 Z0.4087
Y0.7476 Z0.4086
Y0.7526 Z0.4084
Y0.7576 Z0.4082
Y0.7626 Z0.408
Y0.7676 Z0.4079
Y0.7725 Z0.4077
Y0.7825 Z0.4073
Y0.7975 Z0.4068
Y0.8124 Z0.4063
Y0.8274 Z0.4058
Y0.8423 Z0.4052
Y0.8573 Z0.4047
Y0.8723 Z0.4042
Y0.8922 Z0.4035
Y0.9171 Z0.4026
Y0.952 Z0.4014
Y1.0019 Z0.3997
Y1.0567 Z0.3978
Y1.0612 Z0.3976
Y1.0619
Y1.0624
X1.3124 Y1.0625
X1.312
X1.3106
X1.3083 Z0.3975
X1.2833 Z0.3966
X1.2584 Z0.3958
X1.2435 Z0.3952
X1.2285 Z0.3947
X1.2135 Z0.3942
X1.1986 Z0.3937
X1.1836 Z0.3932
X1.1687 Z0.3926
X1.1537 Z0.3921
X1.1487 Z0.3919
X1.1437 Z0.3918
X1.1388 Z0.3916
X1.1338 Z0.3914
X1.1288 Z0.3912
X1.1238 Z0.3911
X1.1188 Z0.3909
X1.1138 Z0.3907
X1.1088 Z0.3905
X1.1039 Z0.3904
X1.0989 Z0.3902
X1.0939 Z0.39
X1.0889 Z0.3898
X1.0839 Z0.3897
X1.0789 Z0.3895
X1.0739 Z0.3893
X1.069 Z0.3892
X1.064 Z0.389
X1.059 Z0.3888
X1.054 Z0.3886
X1.049 Z0.3885
X1.044 Z0.3883
X1.039 Z0.3881
X1.0341 Z0.3879
X1.0291 Z0.3878
X1.0241 Z0.3876
X1.0191 Z0.3874
X1.0141 Z0.3872
X1.0091 Z0.3871
X1.0041 Z0.3869
X0.9992 Z0.3867
X0.9942 Z0.3866
X0.9892 Z0.3864
X0.9842 Z0.3862
X0.9792 Z0.3861
X0.9742 Z0.3859
X0.9693 Z0.3858
X0.9643 Z0.3856
X0.9593 Z0.3855
X0.9543 Z0.3853
X0.9493 Z0.3852
X0.9443 Z0.385
X0.9393 Z0.3849
X0.9378 Z0.3848
X0.9375
Y1.0624
Y1.0622
Y1.0618
Y1.061
Y1.0586 Z0.3847
Y1.0543 Z0.3846
Y1.0493 Z0.3844
Y1.0444 Z0.3843
Y1.0394 Z0.3841
Y1.0344 Z0.384
Y1.0294 Z0.3839
Y1.0244 Z0.3837
Y1.0194 Z0.3836
Y1.0144 Z0.3835
Y1.0095 Z0.3833
Y1.0045 Z0.3832
Y0.9995 Z0.3831
Y0.9945 Z0.383
Y0.9895 Z0.3829
Y0.9845 Z0.3827
Y0.9795 Z0.3826
Y0.9746 Z0.3825
Y0.9696 Z0.3824
Y0.9646 Z0.3823
Y0.9596 Z0.3822
Y0.9546 Z0.3821
Y0.9496 Z0.382
Y0.9446 Z0.3819
Y0.9347 Z0.3817
Y0.9247 Z0.3815
Y0.9147 Z0.3813
Y0.9048 Z0.3812
Y0.8948 Z0.381
Y0.8848 Z0.3809
Y0.8748 Z0.3807
Y0.8649 Z0.3806
Y0.8549 Z0.3805
Y0.8449 Z0.3804
Y0.835 Z0.3803
Y0.825 Z0.3802
Y0.815
Y0.8051 Z0.3801
Y0.7951
Y0.7851 Z0.38
Y0.7751
Y0.7652
Y0.7629
Y0.5626 F12.
X0.9376 Y0.5625
X1.3124
X1.3125 Y0.5626
Y1.0624
X1.3124 Y1.0625
X0.9376
X0.9375 Y1.0624
Y0.7629
Y0.7529 F48.
Y0.7429
Y0.733 Z0.3799
Y0.723
Y0.713 Z0.3798
Y0.703
Y0.6931 Z0.3797
Y0.6831 Z0.3796
Y0.6731 Z0.3795
Y0.6632 Z0.3794
Y0.6532 Z0.3793
Y0.6432 Z0.3792
Y0.6332 Z0.379
Y0.6233 Z0.3789
Y0.6133 Z0.3787
Y0.6033 Z0.3785
Y0.5934 Z0.3784
Y0.5834 Z0.3782
Y0.5734 Z0.378
Y0.5684 Z0.3779
Y0.5634 Z0.3778
Y0.5626 Z0.3777
X0.9376 Y0.5625
X0.9379
X0.9384
X0.9396
X0.942 Z0.3776
X0.9466 Z0.3775
X0.9515 Z0.3774
X0.9565 Z0.3773
X0.9615 Z0.3772
X0.9665 Z0.3771
X0.9715 Z0.377
X0.9765 Z0.3768
X0.9815 Z0.3767
X0.9864 Z0.3766
X0.9914 Z0.3765
X0.9964 Z0.3763
X1.0014 Z0.3762
X1.0064 Z0.3761
X1.0114 Z0.3759
X1.0164 Z0.3758
X1.0213 Z0.3756
X1.0263 Z0.3755
X1.0313 Z0.3754
X1.0363 Z0.3752
X1.0413 Z0.3751
X1.0463 Z0.3749
X1.0513 Z0.3748
X1.0562 Z0.3746
X1.0612 Z0.3745
X1.0662 Z0.3743
X1.0712 Z0.3741
X1.0762 Z0.374
X1.0812 Z0.3738
X1.0862 Z0.3737
X1.0911 Z0.3735
X1.0961 Z0.3733
X1.1011 Z0.3732
X1.1061 Z0.373
X1.1111 Z0.3728
X1.1161 Z0.3727
X1.1211 Z0.3725
X1.131 Z0.3721
X1.136 Z0.372
X1.141 Z0.3718
X1.146 Z0.3716
X1.151 Z0.3715
X1.156 Z0.3713
X1.1609 Z0.3711
X1.1659 Z0.3709
X1.1709 Z0.3708
X1.1759 Z0.3706
X1.1809 Z0.3704
X1.1859 Z0.3702
X1.1909 Z0.3701
X1.1958 Z0.3699
X1.2008 Z0.3697
X1.2058 Z0.3695
X1.2108 Z0.3694
X1.2158 Z0.3692
X1.2208 Z0.369
X1.2258 Z0.3688
X1.2307 Z0.3687
X1.2357 Z0.3685
X1.2407 Z0.3683
X1.2457 Z0.3681
X1.2507 Z0.368
X1.2557 Z0.3678
X1.2607 Z0.3676
X1.2706 Z0.3673
X1.2856 Z0.3667
X1.3005 Z0.3662
X1.3055 Z0.3661
X1.3097 Z0.3659
X1.3122
X1.3124
X1.3125 Y0.5626
Y0.5627
Y0.5655 Z0.3658
Y0.5805 Z0.3653
Y0.5954 Z0.3647
Y0.6104 Z0.3642
Y0.6303 Z0.3635
Y0.6553 Z0.3627
Y0.6902 Z0.3614
Y0.735 Z0.3599
Y0.8098 Z0.3573
Y0.8348 Z0.3564
Y0.8597 Z0.3555
Y0.8746 Z0.355
Y0.8896 Z0.3545
Y0.9046 Z0.3539
Y0.9195 Z0.3534
Y0.9345 Z0.3529
Y0.9494 Z0.3524
Y0.9544 Z0.3522
Y0.9594 Z0.352
Y0.9644 Z0.3519
Y0.9694 Z0.3517
Y0.9744 Z0.3515
Y0.9793 Z0.3513
Y0.9843 Z0.3512
Y0.9893 Z0.351
Y0.9943 Z0.3508
Y0.9993 Z0.3506
Y1.0043 Z0.3505
Y1.0093 Z0.3503
Y1.0142 Z0.3501
Y1.0192 Z0.3499
Y1.0242 Z0.3498
Y1.0292 Z0.3496
Y1.0342 Z0.3494
Y1.0392 Z0.3492
Y1.0442 Z0.3491
Y1.0491 Z0.3489
Y1.0541 Z0.3487
Y1.0585 Z0.3486
Y1.0608 Z0.3485
Y1.0624
X1.3124 Y1.0625
X1.3117 Z0.3484
X1.3109
X1.3059 Z0.3483
X1.3009 Z0.3481
X1.2959 Z0.3479
X1.281 Z0.3474
X1.276 Z0.3472
X1.271 Z0.347
X1.266 Z0.3469
X1.261 Z0.3467
X1.256 Z0.3465
X1.251 Z0.3464
X1.2461 Z0.3462
X1.2411 Z0.3461
X1.2361 Z0.3459
X1.2311 Z0.3457
X1.2261 Z0.3456
X1.2211 Z0.3454
X1.2161 Z0.3453
X1.2112 Z0.3451
X1.2062 Z0.345
X1.2012 Z0.3448
X1.1962 Z0.3447
X1.1912 Z0.3445
X1.1862 Z0.3444
X1.1812 Z0.3443
X1.1763 Z0.3441
X1.1713 Z0.344
X1.1663 Z0.3438
X1.1613 Z0.3437
X1.1563 Z0.3436
X1.1513 Z0.3435
X1.1463 Z0.3433
X1.1414 Z0.3432
X1.1364 Z0.3431
X1.1314 Z0.343
X1.1264 Z0.3428
X1.1214 Z0.3427
X1.1164 Z0.3426
X1.1114 Z0.3425
X1.1065 Z0.3424
X1.1015 Z0.3423
X1.0965 Z0.3422
X1.0915 Z0.3421
X1.0865 Z0.342
X1.0815 Z0.3419
X1.0716 Z0.3417
X1.0616 Z0.3415
X1.0516 Z0.3413
X1.0416 Z0.3412
X1.0317 Z0.341
X1.0217 Z0.3409
X1.0117 Z0.3407
X1.0018 Z0.3406
X0.9918 Z0.3405
X0.9818 Z0.3404
X0.9718 Z0.3403
X0.9619 Z0.3402
X0.9519
X0.9419 Z0.3401
X0.9396
X0.9379
X0.9376
X0.9375
Y1.0623
Y1.0615
Y1.0569
Y1.047 Z0.34
Y1.037
Y1.027
Y1.0255
Y0.7629 F12.
Y0.5626
X0.9376 Y0.5625
X1.3124
X1.3125 Y0.5626
Y1.0624
X1.3124 Y1.0625
X0.9376
X0.9375 Y1.0624
Y1.0255
Y1.0155 F48.
Y1.0055
Y0.9956 Z0.3399
Y0.9856
Y0.9756 Z0.3398
Y0.9656
Y0.9557 Z0.3397
Y0.9457 Z0.3396
Y0.9357 Z0.3395
Y0.9258 Z0.3394
Y0.9158 Z0.3393
Y0.9058 Z0.3392
Y0.8958 Z0.339
Y0.8859 Z0.3389
Y0.8759 Z0.3387
Y0.8659 Z0.3385
Y0.856 Z0.3384
Y0.846 Z0.3382
Y0.836 Z0.338
Y0.831 Z0.3379
Y0.826 Z0.3378
Y0.8211 Z0.3376
Y0.8161 Z0.3375
Y0.8111 Z0.3374
Y0.8061 Z0.3373
Y0.8011 Z0.3372
Y0.7961 Z0.3371
Y0.7912 Z0.337
Y0.7862 Z0.3368
Y0.7812 Z0.3367
Y0.7762 Z0.3366
Y0.7712 Z0.3365
Y0.7662 Z0.3363
Y0.7612 Z0.3362
Y0.7563 Z0.3361
Y0.7513 Z0.3359
Y0.7463 Z0.3358
Y0.7413 Z0.3356
Y0.7363 Z0.3355
Y0.7313 Z0.3354
Y0.7263 Z0.3352
Y0.7214 Z0.3351
Y0.7164 Z0.3349
Y0.7114 Z0.3348
Y0.7064 Z0.3346
Y0.7014 Z0.3345
Y0.6964 Z0.3343
Y0.6914 Z0.3341
Y0.6865 Z0.334
Y0.6815 Z0.3338
Y0.6765 Z0.3337
Y0.6715 Z0.3335
Y0.6665 Z0.3333
Y0.6615 Z0.3332
Y0.6565 Z0.333
Y0.6516 Z0.3328
Y0.6466 Z0.3327
Y0.6416 Z0.3325
Y0.6316 Z0.3321
Y0.6266 Z0.332
Y0.6216 Z0.3318
Y0.6167 Z0.3316
Y0.6117 Z0.3315
Y0.6067 Z0.3313
Y0.6017 Z0.3311
Y0.5967 Z0.3309
Y0.5917 Z0.3308
Y0.5867 Z0.3306
Y0.5818 Z0.3304
Y0.5768 Z0.3302
Y0.5718 Z0.3301
Y0.5668 Z0.3299
Y0.5645 Z0.3298
Y0.5631
Y0.5626
X0.9376 Y0.5625
X0.938
X0.9387
X0.9432 Z0.3296
X0.9482 Z0.3295
X0.9532 Z0.3293
X0.9582 Z0.3291
X0.9632 Z0.3289
X0.9681 Z0.3288
X0.9731 Z0.3286
X0.9781 Z0.3284
X0.9831 Z0.3282
X0.9881 Z0.3281
X0.9931 Z0.3279
X0.9981 Z0.3277
X1.003 Z0.3275
X1.013 Z0.3272
X1.028 Z0.3267
X1.0429 Z0.3262
X1.0579 Z0.3256
X1.0728 Z0.3251
X1.0878 Z0.3246
X1.1028 Z0.3241
X1.1277 Z0.3232
X1.1526 Z0.3223
X1.1875 Z0.3211
X1.2423 Z0.3192
X1.2972 Z0.3173
X1.3121 Z0.3168
X1.3124 Z0.3167
X1.3125
Y0.5626
Y0.563
Y0.5637
Y0.5649
Y0.5722 Z0.3164
Y0.5971 Z0.3155
Y0.612 Z0.315
Y0.627 Z0.3145
Y0.642 Z0.314
Y0.6569 Z0.3135
Y0.6719 Z0.3129
Y0.6868 Z0.3124
Y0.6918 Z0.3122
Y0.6968 Z0.3121
Y0.7018 Z0.3119
Y0.7068 Z0.3117
Y0.7118 Z0.3115
Y0.7167 Z0.3114
Y0.7217 Z0.3112
Y0.7267 Z0.311
Y0.7317 Z0.3108
Y0.7367 Z0.3107
Y0.7417 Z0.3105
Y0.7467 Z0.3103
Y0.7516 Z0.3101
Y0.7566 Z0.31
Y0.7616 Z0.3098
Y0.7666 Z0.3096
Y0.7716 Z0.3095
Y0.7766 Z0.3093
Y0.7816 Z0.3091
Y0.7865 Z0.3089
Y0.7915 Z0.3088
Y0.7965 Z0.3086
Y0.8015 Z0.3084
Y0.8065 Z0.3082
Y0.8115 Z0.3081
Y0.8165 Z0.3079
Y0.8264 Z0.3075
Y0.8314 Z0.3074
Y0.8364 Z0.3072
Y0.8414 Z0.307
Y0.8464 Z0.3069
Y0.8514 Z0.3067
Y0.8563 Z0.3065
Y0.8613 Z0.3064
Y0.8663 Z0.3062
Y0.8713 Z0.306
Y0.8763 Z0.3059
Y0.8813 Z0.3057
Y0.8862 Z0.3056
Y0.8912 Z0.3054
Y0.8962 Z0.3053
Y0.9012 Z0.3051
Y0.9062 Z0.305
Y0.9112 Z0.3048
Y0.9162 Z0.3047
Y0.9211 Z0.3045
Y0.9261 Z0.3044
Y0.9311 Z0.3042
Y0.9361 Z0.3041
Y0.9411 Z0.304
Y0.9461 Z0.3038
Y0.9511 Z0.3037
Y0.956 Z0.3036
Y0.961 Z0.3034
Y0.966 Z0.3033
Y0.971 Z0.3032
Y0.976 Z0.3031
Y0.981 Z0.3029
Y0.986 Z0.3028
Y0.9909 Z0.3027
Y0.9959 Z0.3026
Y1.0009 Z0.3025
Y1.0059 Z0.3024
Y1.0109 Z0.3023
Y1.0159 Z0.3022
Y1.0209 Z0.3021
Y1.0308 Z0.3019
Y1.0408 Z0.3017
Y1.0508 Z0.3015
Y1.0607 Z0.3013
Y1.0623
Y1.0625
X1.3124
X1.3117
X1.3109
X1.3086 Z0.3012
X1.3042 Z0.3011
X1.2943 Z0.301
X1.2843 Z0.3009
X1.2743 Z0.3007
X1.2644 Z0.3006
X1.2544 Z0.3005
X1.2444 Z0.3004
X1.2345 Z0.3003
X1.2245 Z0.3002
X1.2145
X1.2045 Z0.3001
X1.1946
X1.1846 Z0.3
X1.1746
X1.1638
X0.9376 F12.
X0.9375 Y1.0624
Y0.5626
X0.9376 Y0.5625
X1.3124
X1.3125 Y0.5626
Y1.0624
X1.3124 Y1.0625
X1.1638
X1.1538 F48.
X1.1438
X1.1339 Z0.2999
X1.1239
X1.1139 Z0.2998
X1.104
X1.094 Z0.2997
X1.084 Z0.2996
X1.074 Z0.2995
X1.0641 Z0.2994
X1.0541 Z0.2993
X1.0441 Z0.2992
X1.0342 Z0.299
X1.0242 Z0.2989
X1.0142 Z0.2987
X1.0042 Z0.2985
X0.9943 Z0.2984
X0.9843 Z0.2982
X0.9743 Z0.298
X0.9693 Z0.2979
X0.9644 Z0.2978
X0.9594 Z0.2976
X0.9544 Z0.2975
X0.9494 Z0.2974
X0.9444 Z0.2973
X0.9403 Z0.2972
X0.9381
X0.9376 Z0.2971
X0.9375 Y1.0624
Y1.0622
Y1.0594
Y1.0544 Z0.297
Y1.0494 Z0.2968
Y1.0445 Z0.2967
Y1.0395 Z0.2966
Y1.0345 Z0.2965
Y1.0295 Z0.2963
Y1.0245 Z0.2962
Y1.0195 Z0.2961
Y1.0145 Z0.2959
Y1.0096 Z0.2958
Y1.0046 Z0.2956
Y0.9996 Z0.2955
Y0.9946 Z0.2954
Y0.9896 Z0.2952
Y0.9846 Z0.2951
Y0.9796 Z0.2949
Y0.9747 Z0.2948
Y0.9697 Z0.2946
Y0.9647 Z0.2945
Y0.9597 Z0.2943
Y0.9547 Z0.2941
Y0.9497 Z0.294
Y0.9447 Z0.2938
Y0.9398 Z0.2937
Y0.9348 Z0.2935
Y0.9298 Z0.2933
Y0.9248 Z0.2932
Y0.9198 Z0.293
Y0.9148 Z0.2928
Y0.9098 Z0.2927
Y0.9049 Z0.2925
Y0.8949 Z0.2921
Y0.8899 Z0.292
Y0.8849 Z0.2918
Y0.8799 Z0.2916
Y0.8749 Z0.2915
Y0.87 Z0.2913
Y0.865 Z0.2911
Y0.86 Z0.2909
Y0.855 Z0.2908
Y0.85 Z0.2906
Y0.845 Z0.2904
Y0.84 Z0.2902
Y0.8351 Z0.2901
Y0.8301 Z0.2899
Y0.8251 Z0.2897
Y0.8201 Z0.2895
Y0.8151 Z0.2894
Y0.8101 Z0.2892
Y0.8051 Z0.289
Y0.8002 Z0.2888
Y0.7952 Z0.2887
Y0.7902 Z0.2885
Y0.7852 Z0.2883
Y0.7802 Z0.2881
Y0.7752 Z0.288
Y0.7702 Z0.2878
Y0.7653 Z0.2876
Y0.7553 Z0.2873
Y0.7403 Z0.2867
Y0.7254 Z0.2862
Y0.7104 Z0.2857
Y0.6955 Z0.2852
Y0.6805 Z0.2847
Y0.6655 Z0.2841
Y0.6456 Z0.2834
Y0.6207 Z0.2826
Y0.5858 Z0.2814
Y0.5708 Z0.2808
Y0.5665 Z0.2807
Y0.5641 Z0.2806
Y0.5626
X0.9376 Y0.5625
X0.9392 Z0.2805
X1.014 Z0.2779
X1.0489 Z0.2767
X1.0738 Z0.2758
X1.0888 Z0.2753
X1.1037 Z0.2748
X1.1187 Z0.2743
X1.1336 Z0.2737
X1.1486 Z0.2732
X1.1635 Z0.2727
X1.1785 Z0.2722
X1.1835 Z0.272
X1.1885 Z0.2718
X1.1935 Z0.2717
X1.1984 Z0.2715
X1.2034 Z0.2713
X1.2084 Z0.2711
X1.2134 Z0.271
X1.2184 Z0.2708
X1.2234 Z0.2706
X1.2284 Z0.2704
X1.2333 Z0.2703
X1.2383 Z0.2701
X1.2433 Z0.2699
X1.2483 Z0.2697
X1.2533 Z0.2696
X1.2583 Z0.2694
X1.2633 Z0.2692
X1.2682 Z0.269
X1.2732 Z0.2689
X1.2782 Z0.2687
X1.2832 Z0.2685
X1.2882 Z0.2683
X1.2932 Z0.2682
X1.2982 Z0.268
X1.3031 Z0.2678
X1.3081 Z0.2677
X1.3105 Z0.2676
X1.3118
X1.3122
X1.3124 Z0.2675
X1.3125
Y0.5628
Y0.5636
Y0.5681 Z0.2674
Y0.5731 Z0.2672
Y0.5781 Z0.2671
Y0.5831 Z0.2669
Y0.5881 Z0.2667
Y0.5931 Z0.2666
Y0.598 Z0.2664
Y0.603 Z0.2662
Y0.608 Z0.2661
Y0.613 Z0.2659
Y0.618 Z0.2658
Y0.623 Z0.2656
Y0.628 Z0.2654
Y0.6329 Z0.2653
Y0.6379 Z0.2651
Y0.6429 Z0.265
Y0.6479 Z0.2648
Y0.6529 Z0.2647
Y0.6579 Z0.2646
Y0.6629 Z0.2644
Y0.6678 Z0.2643
Y0.6728 Z0.2641
Y0.6778 Z0.264
Y0.6828 Z0.2639
Y0.6878 Z0.2637
Y0.6928 Z0.2636
Y0.6978 Z0.2635
Y0.7027 Z0.2633
Y0.7077 Z0.2632
Y0.7127 Z0.2631
Y0.7177 Z0.263
Y0.7227 Z0.2629
Y0.7277 Z0.2627
Y0.7327 Z0.2626
Y0.7376 Z0.2625
Y0.7426 Z0.2624
Y0.7476 Z0.2623
Y0.7526 Z0.2622
Y0.7576 Z0.2621
Y0.7626 Z0.262
Y0.7676 Z0.2619
Y0.7775 Z0.2617
Y0.7875 Z0.2615
Y0.7975 Z0.2613
Y0.8074 Z0.2612
Y0.8174 Z0.261
Y0.8274 Z0.2609
Y0.8374 Z0.2607
Y0.8473 Z0.2606
Y0.8573 Z0.2605
Y0.8673 Z0.2604
Y0.8772 Z0.2603
Y0.8872 Z0.2602
Y0.8972
Y0.9072 Z0.2601
Y0.9171
Y0.9271 Z0.26
Y0.9371
Y0.947
Y0.9491
Y1.0624 F12.
X1.3124 Y1.0625
X0.9376
X0.9375 Y1.0624
Y0.5626
X0.9376 Y0.5625
X1.3124
X1.3125 Y0.5626
Y0.9491
Y0.959 F48.
Y0.969
Y0.979 Z0.2599
Y0.989
Y0.9989 Z0.2598
Y1.0089
Y1.0189 Z0.2597
Y1.0288 Z0.2596
Y1.0388 Z0.2595
Y1.0488 Z0.2594
Y1.0587 Z0.2593
Y1.0612
Y1.0619 Z0.2592
Y1.0625
X1.3124
X1.3119
X1.3105
X1.3062
X1.2963 Z0.259
X1.2863 Z0.2589
X1.2763 Z0.2587
X1.2664 Z0.2585
X1.2564 Z0.2584
X1.2464 Z0.2582
X1.2364 Z0.258
X1.2315 Z0.2579
X1.2265 Z0.2578
X1.2215 Z0.2576
X1.2165 Z0.2575
X1.2115 Z0.2574
X1.2065 Z0.2573
X1.2015 Z0.2572
X1.1966 Z0.2571
X1.1916 Z0.257
X1.1866 Z0.2568
X1.1816 Z0.2567
X1.1766 Z0.2566
X1.1716 Z0.2565
X1.1666 Z0.2563
X1.1617 Z0.2562
X1.1567 Z0.2561
X1.1517 Z0.2559
X1.1467 Z0.2558
X1.1417 Z0.2556
X1.1367 Z0.2555
X1.1317 Z0.2554
X1.1268 Z0.2552
X1.1218 Z0.2551
X1.1168 Z0.2549
X1.1118 Z0.2548
X1.1068 Z0.2546
X1.1018 Z0.2545
X1.0968 Z0.2543
X1.0919 Z0.2541
X1.0869 Z0.254
X1.0819 Z0.2538
X1.0769 Z0.2537
X1.0719 Z0.2535
X1.0669 Z0.2533
X1.062 Z0.2532
X1.057 Z0.253
X1.052 Z0.2528
X1.047 Z0.2527
X1.042 Z0.2525
X1.032 Z0.2521
X1.0271 Z0.252
X1.0221 Z0.2518
X1.0171 Z0.2516
X1.0121 Z0.2515
X1.0071 Z0.2513
X1.0021 Z0.2511
X0.9971 Z0.2509
X0.9922 Z0.2508
X0.9872 Z0.2506
X0.9822 Z0.2504
X0.9772 Z0.2502
X0.9722 Z0.2501
X0.9672 Z0.2499
X0.9622 Z0.2497
X0.9573 Z0.2495
X0.9523 Z0.2494
X0.9473 Z0.2492
X0.9381 Z0.2489
X0.9377
X0.9375
Y1.0624 Z0.2488
Y1.0623
Y1.0573 Z0.2487
Y1.0523 Z0.2485
Y1.0473 Z0.2483
Y1.0423 Z0.2481
Y1.0373 Z0.248
Y1.0324 Z0.2478
Y1.0274 Z0.2476
Y1.0174 Z0.2473
Y1.0024 Z0.2468
Y0.9875 Z0.2462
Y0.9725 Z0.2457
Y0.9576 Z0.2452
Y0.9426 Z0.2447
Y0.9277 Z0.2441
Y0.9077 Z0.2434
Y0.8828 Z0.2426
Y0.8479 Z0.2414
Y0.798 Z0.2396
Y0.7233 Z0.237
Y0.6983 Z0.2361
Y0.6734 Z0.2353
Y0.6584 Z0.2347
Y0.6435 Z0.2342
Y0.6285 Z0.2337
Y0.6136 Z0.2332
Y0.5986 Z0.2327
Y0.5837 Z0.2321
Y0.5787 Z0.232
Y0.5737 Z0.2318
Y0.5687 Z0.2316
Y0.5637 Z0.2314
Y0.5629
Y0.5625
X0.9376
X0.9381
X0.9395
X0.9418 Z0.2313
X0.9463 Z0.2311
X0.9513 Z0.231
X0.9563 Z0.2308
X0.9613 Z0.2306
X0.9662 Z0.2304
X0.9712 Z0.2303
X0.9762 Z0.2301
X0.9812 Z0.2299
X0.9862 Z0.2297
X0.9912 Z0.2296
X0.9962 Z0.2294
X1.0011 Z0.2292
X1.0061 Z0.229
X1.0111 Z0.2289
X1.0161 Z0.2287
X1.0211 Z0.2285
X1.0261 Z0.2283
X1.0311 Z0.2282
X1.036 Z0.228
X1.041 Z0.2278
X1.051 Z0.2275
X1.056 Z0.2273
X1.061 Z0.2271
X1.0659 Z0.227
X1.0709 Z0.2268
X1.0759 Z0.2266
X1.0809 Z0.2265
X1.0859 Z0.2263
X1.0909 Z0.2261
X1.0959 Z0.226
X1.1008 Z0.2258
X1.1058 Z0.2257
X1.1108 Z0.2255
X1.1158 Z0.2254
X1.1208 Z0.2252
X1.1258 Z0.2251
X1.1308 Z0.2249
X1.1357 Z0.2248
X1.1407 Z0.2246
X1.1457 Z0.2245
X1.1507 Z0.2243
X1.1557 Z0.2242
X1.1607 Z0.2241
X1.1657 Z0.2239
X1.1706 Z0.2238
X1.1756 Z0.2236
X1.1806 Z0.2235
X1.1856 Z0.2234
X1.1906 Z0.2233
X1.1956 Z0.2231
X1.2006 Z0.223
X1.2055 Z0.2229
X1.2105 Z0.2228
X1.2155 Z0.2227
X1.2205 Z0.2226
X1.2255 Z0.2224
X1.2305 Z0.2223
X1.2355 Z0.2222
X1.2404 Z0.2221
X1.2454 Z0.222
X1.2554 Z0.2218
X1.2654 Z0.2216
X1.2753 Z0.2215
X1.2853 Z0.2213
X1.2953 Z0.2211
X1.3053 Z0.221
X1.3094 Z0.2209
X1.3123
X1.3125
Y0.5626
Y0.5628
Y0.5631
Y0.5653 Z0.2208
Y0.5752 Z0.2207
Y0.5852 Z0.2206
Y0.5952 Z0.2205
Y0.6052 Z0.2204
Y0.6151 Z0.2203
Y0.6251 Z0.2202
Y0.6351 Z0.2201
Y0.645
Y0.655
Y0.665 Z0.22
Y0.675
Y0.6839
Y0.9491 F12.
Y1.0624
X1.3124 Y1.0625
X0.9376
X0.9375 Y1.0624
Y0.5626
X0.9376 Y0.5625
X1.3124
X1.3125 Y0.5626
Y0.6839
Y0.6939 F48.
Y0.7039
Y0.7139 Z0.2199
Y0.7238
Y0.7338 Z0.2198
Y0.7438
Y0.7537 Z0.2197
Y0.7637 Z0.2196
Y0.7737 Z0.2195
Y0.7837 Z0.2194
Y0.7936 Z0.2193
Y0.8036 Z0.2192
Y0.8136 Z0.219
Y0.8235 Z0.2189
Y0.8335 Z0.2187
Y0.8435 Z0.2185
Y0.8535 Z0.2184
Y0.8634 Z0.2182
Y0.8734 Z0.218
Y0.8784 Z0.2179
Y0.8834 Z0.2178
Y0.8884 Z0.2176
Y0.8933 Z0.2175
Y0.8983 Z0.2174
Y0.9033 Z0.2173
Y0.9083 Z0.2172
Y0.9133 Z0.2171
Y0.9183 Z0.217
Y0.9233 Z0.2168
Y0.9282 Z0.2167
Y0.9332 Z0.2166
Y0.9382 Z0.2165
Y0.9432 Z0.2163
Y0.9482 Z0.2162
Y0.9532 Z0.2161
Y0.9582 Z0.2159
Y0.9631 Z0.2158
Y0.9681 Z0.2156
Y0.9731 Z0.2155
Y0.9781 Z0.2154
Y0.9831 Z0.2152
Y0.9881 Z0.2151
Y0.9931 Z0.2149
Y0.998 Z0.2148
Y1.003 Z0.2146
Y1.008 Z0.2145
Y1.013 Z0.2143
Y1.018 Z0.2141
Y1.023 Z0.214
Y1.028 Z0.2138
Y1.0329 Z0.2137
Y1.0379 Z0.2135
Y1.0429 Z0.2133
Y1.0479 Z0.2132
Y1.0529 Z0.213
Y1.0613 Z0.2127
Y1.062
Y1.0624
X1.3124 Y1.0625
X1.3123
X1.3121
X1.3071 Z0.2125
X1.2972 Z0.2122
X1.2922 Z0.212
X1.2872 Z0.2118
X1.2822 Z0.2116
X1.2772 Z0.2115
X1.2722 Z0.2113
X1.2672 Z0.2111
X1.2623 Z0.2109
X1.2573 Z0.2108
X1.2523 Z0.2106
X1.2473 Z0.2104
X1.2423 Z0.2102
X1.2373 Z0.2101
X1.2323 Z0.2099
X1.2274 Z0.2097
X1.2224 Z0.2095
X1.2174 Z0.2094
X1.2124 Z0.2092
X1.2074 Z0.209
X1.2024 Z0.2088
X1.1974 Z0.2087
X1.1925 Z0.2085
X1.1875 Z0.2083
X1.1825 Z0.2081
X1.1775 Z0.208
X1.1725 Z0.2078
X1.1675 Z0.2076
X1.1576 Z0.2073
X1.1426 Z0.2068
X1.1276 Z0.2062
X1.1127 Z0.2057
X1.0977 Z0.2052
X1.0828 Z0.2047
X1.0678 Z0.2041
X1.0479 Z0.2034
X1.0229 Z0.2026
X0.988 Z0.2014
X0.9432 Z0.1998
X0.9387 Z0.1997
X0.9379 Z0.1996
X0.9377
X0.9375
Y1.0623
Y1.0619
Y1.0605
Y1.0582 Z0.1995
Y0.9934 Z0.1973
Y0.9684 Z0.1964
Y0.9435 Z0.1955
Y0.9285 Z0.195
Y0.9136 Z0.1945
Y0.8986 Z0.194
Y0.8837 Z0.1934
Y0.8687 Z0.1929
Y0.8538 Z0.1924
Y0.8488 Z0.1922
Y0.8438 Z0.1921
Y0.8388 Z0.1919
Y0.8338 Z0.1917
Y0.8288 Z0.1915
Y0.8238 Z0.1914
Y0.8189 Z0.1912
Y0.8139 Z0.191
Y0.8089 Z0.1908
Y0.8039 Z0.1907
Y0.7989 Z0.1905
Y0.7939 Z0.1903
Y0.789 Z0.1901
Y0.784 Z0.19
Y0.779 Z0.1898
Y0.774 Z0.1896
Y0.769 Z0.1894
Y0.764 Z0.1893
Y0.759 Z0.1891
Y0.7541 Z0.1889
Y0.7491 Z0.1887
Y0.7441 Z0.1886
Y0.7391 Z0.1884
Y0.7341 Z0.1882
Y0.7291 Z0.1881
Y0.7241 Z0.1879
Y0.7142 Z0.1875
Y0.7092 Z0.1874
Y0.7042 Z0.1872
Y0.6992 Z0.187
Y0.6942 Z0.1868
Y0.6892 Z0.1867
Y0.6843 Z0.1865
Y0.6793 Z0.1864
Y0.6743 Z0.1862
Y0.6693 Z0.186
Y0.6643 Z0.1859
Y0.6593 Z0.1857
Y0.6543 Z0.1856
Y0.6494 Z0.1854
Y0.6444 Z0.1853
Y0.6394 Z0.1851
Y0.6344 Z0.185
Y0.6294 Z0.1848
Y0.6244 Z0.1847
Y0.6194 Z0.1845
Y0.6145 Z0.1844
Y0.6095 Z0.1842
Y0.6045 Z0.1841
Y0.5995 Z0.184
Y0.5945 Z0.1838
Y0.5895 Z0.1837
Y0.5845 Z0.1836
Y0.5796 Z0.1834
Y0.5746 Z0.1833
Y0.5696 Z0.1832
Y0.5654 Z0.1831
Y0.5625 Z0.183
X0.9377
X0.9404 Z0.1829
X0.9454 Z0.1828
X0.9504 Z0.1827
X0.9554 Z0.1826
X0.9604 Z0.1825
X0.9654 Z0.1824
X0.9703 Z0.1823
X0.9753 Z0.1822
X0.9803 Z0.1821
X0.9903 Z0.1819
X1.0003 Z0.1817
X1.0102 Z0.1815
X1.0202 Z0.1813
X1.0302 Z0.1811
X1.0401 Z0.181
X1.0501 Z0.1809
X1.0601 Z0.1807
X1.0701 Z0.1806
X1.08 Z0.1805
X1.09 Z0.1804
X1.1 Z0.1803
X1.1099 Z0.1802
X1.1199
X1.1299 Z0.1801
X1.1398
X1.1498 Z0.18
X1.1598
X1.1705
X1.3124 F12.
X1.3125 Y0.5626
Y1.0624
X1.3124 Y1.0625
X0.9376
X0.9375 Y1.0624
Y0.5626
X0.9376 Y0.5625
X1.1705
X1.1804 F48.
X1.1904
X1.2004 Z0.1799
X1.2103
X1.2203 Z0.1798
X1.2303
X1.2403 Z0.1797
X1.2502 Z0.1796
X1.2602 Z0.1795
X1.2702 Z0.1794
X1.2801 Z0.1793
X1.2901 Z0.1792
X1.3001 Z0.179
X1.31 Z0.1789
X1.3114 Z0.1788
X1.3124
X1.3125 Y0.5626
Y0.5629
Y0.5633
Y0.5659
Y0.5701 Z0.1787
Y0.58 Z0.1785
Y0.59 Z0.1784
Y0.6 Z0.1782
Y0.6099 Z0.178
Y0.6149 Z0.1779
Y0.6199 Z0.1778
Y0.6249 Z0.1776
Y0.6299 Z0.1775
Y0.6349 Z0.1774
Y0.6399 Z0.1773
Y0.6448 Z0.1772
Y0.6498 Z0.1771
Y0.6548 Z0.177
Y0.6598 Z0.1768
Y0.6648 Z0.1767
Y0.6698 Z0.1766
Y0.6748 Z0.1765
Y0.6797 Z0.1763
Y0.6847 Z0.1762
Y0.6897 Z0.1761
Y0.6947 Z0.1759
Y0.6997 Z0.1758
Y0.7047 Z0.1756
Y0.7097 Z0.1755
Y0.7146 Z0.1754
Y0.7196 Z0.1752
Y0.7246 Z0.1751
Y0.7296 Z0.1749
Y0.7346 Z0.1748
Y0.7396 Z0.1746
Y0.7446 Z0.1745
Y0.7495 Z0.1743
Y0.7545 Z0.1741
Y0.7595 Z0.174
Y0.7645 Z0.1738
Y0.7695 Z0.1737
Y0.7745 Z0.1735
Y0.7795 Z0.1733
Y0.7844 Z0.1732
Y0.7894 Z0.173
Y0.7944 Z0.1728
Y0.7994 Z0.1727
Y0.8044 Z0.1725
Y0.8144 Z0.1721
Y0.8193 Z0.172
Y0.8243 Z0.1718
Y0.8293 Z0.1716
Y0.8343 Z0.1715
Y0.8393 Z0.1713
Y0.8443 Z0.1711
Y0.8493 Z0.1709
Y0.8542 Z0.1708
Y0.8592 Z0.1706
Y0.8642 Z0.1704
Y0.8692 Z0.1702
Y0.8742 Z0.1701
Y0.8792 Z0.1699
Y0.8842 Z0.1697
Y0.8891 Z0.1695
Y0.8941 Z0.1694
Y0.8991 Z0.1692
Y0.9041 Z0.169
Y0.9091 Z0.1688
Y0.9141 Z0.1687
Y0.9191 Z0.1685
Y0.924 Z0.1683
Y0.929 Z0.1681
Y0.934 Z0.168
Y0.939 Z0.1678
Y0.944 Z0.1676
Y0.954 Z0.1673
Y0.9689 Z0.1667
Y0.9839 Z0.1662
Y0.9988 Z0.1657
Y1.0138 Z0.1652
Y1.0287 Z0.1647
Y1.0437 Z0.1641
Y1.0586 Z0.1636
Y1.061
Y1.0618 Z0.1635
Y1.0624
X1.3124 Y1.0625
X1.3121
X1.3106
X1.3063 Z0.1634
X1.2814 Z0.1625
X1.2465 Z0.1613
X1.1917 Z0.1594
X1.1269 Z0.1571
X1.1019 Z0.1562
X1.077 Z0.1554
X1.0621 Z0.1548
X1.0471 Z0.1543
X1.0321 Z0.1538
X1.0172 Z0.1533
X1.0022 Z0.1527
X0.9873 Z0.1522
X0.9823 Z0.152
X0.9773 Z0.1519
X0.9723 Z0.1517
X0.9673 Z0.1515
X0.9623 Z0.1514
X0.9574 Z0.1512
X0.9524 Z0.151
X0.9474 Z0.1508
X0.94 Z0.1506
X0.9378 Z0.1505
X0.9376
X0.9375 Y1.0624
Y1.0599 Z0.1504
Y1.0574 Z0.1503
Y1.0524 Z0.1501
Y1.0474 Z0.15
Y1.0424 Z0.1498
Y1.0374 Z0.1496
Y1.0325 Z0.1494
Y1.0275 Z0.1493
Y1.0225 Z0.1491
Y1.0175 Z0.1489
Y1.0125 Z0.1487
Y1.0075 Z0.1486
Y1.0025 Z0.1484
Y0.9976 Z0.1482
Y0.9926 Z0.148
Y0.9876 Z0.1479
Y0.9776 Z0.1475
Y0.9726 Z0.1474
Y0.9677 Z0.1472
Y0.9627 Z0.147
Y0.9577 Z0.1468
Y0.9527 Z0.1467
Y0.9477 Z0.1465
Y0.9427 Z0.1463
Y0.9377 Z0.1462
Y0.9328 Z0.146
Y0.9278 Z0.1459
Y0.9228 Z0.1457
Y0.9178 Z0.1456
Y0.9128 Z0.1454
Y0.9078 Z0.1452
Y0.9028 Z0.1451
Y0.8979 Z0.1449
Y0.8929 Z0.1448
Y0.8879 Z0.1447
Y0.8829 Z0.1445
Y0.8779 Z0.1444
Y0.8729 Z0.1442
Y0.8679 Z0.1441
Y0.863 Z0.144
Y0.858 Z0.1438
Y0.853 Z0.1437
Y0.848 Z0.1436
Y0.843 Z0.1434
Y0.838 Z0.1433
Y0.833 Z0.1432
Y0.8281 Z0.1431
Y0.8231 Z0.1429
Y0.8181 Z0.1428
Y0.8131 Z0.1427
Y0.8081 Z0.1426
Y0.8031 Z0.1425
Y0.7981 Z0.1424
Y0.7932 Z0.1423
Y0.7882 Z0.1422
Y0.7832 Z0.142
Y0.7732 Z0.1418
Y0.7632 Z0.1417
Y0.7533 Z0.1415
Y0.7433 Z0.1413
Y0.7333 Z0.1411
Y0.7234 Z0.141
Y0.7134 Z0.1409
Y0.7034 Z0.1407
Y0.6934 Z0.1406
Y0.6835 Z0.1405
Y0.6735 Z0.1404
Y0.6635 Z0.1403
Y0.6536 Z0.1402
Y0.6436
Y0.6336 Z0.1401
Y0.6236
Y0.6137 Z0.14
Y0.6037
Y0.5932
Y0.5626 F12.
X0.9376 Y0.5625
X1.3124
X1.3125 Y0.5626
Y1.0624
X1.3124 Y1.0625
X0.9376
X0.9375 Y1.0624
Y0.5932
Y0.5832 F48.
Y0.5733
Y0.5626 Z0.1399
Y0.5625
X0.9377
X0.9385
X0.9397
X0.9421
X0.9467
X0.9567 Z0.1398
X0.9667
X0.9766 Z0.1397
X0.9866 Z0.1396
X0.9966 Z0.1395
X1.0066 Z0.1394
X1.0165 Z0.1393
X1.0265 Z0.1392
X1.0365 Z0.139
X1.0464 Z0.1389
X1.0564 Z0.1387
X1.0664 Z0.1385
X1.0764 Z0.1384
X1.0863 Z0.1382
X1.0963 Z0.138
X1.1013 Z0.1379
X1.1063 Z0.1378
X1.1113 Z0.1376
X1.1162 Z0.1375
X1.1212 Z0.1374
X1.1262 Z0.1373
X1.1312 Z0.1372
X1.1362 Z0.1371
X1.1412 Z0.137
X1.1462 Z0.1368
X1.1511 Z0.1367
X1.1561 Z0.1366
X1.1611 Z0.1365
X1.1661 Z0.1363
X1.1711 Z0.1362
X1.1761 Z0.1361
X1.1811 Z0.1359
X1.186 Z0.1358
X1.191 Z0.1356
X1.196 Z0.1355
X1.201 Z0.1354
X1.206 Z0.1352
X1.211 Z0.1351
X1.216 Z0.1349
X1.2209 Z0.1348
X1.2259 Z0.1346
X1.2309 Z0.1345
X1.2359 Z0.1343
X1.2409 Z0.1341
X1.2459 Z0.134
X1.2509 Z0.1338
X1.2558 Z0.1337
X1.2608 Z0.1335
X1.2658 Z0.1333
X1.2708 Z0.1332
X1.2758 Z0.133
X1.2808 Z0.1328
X1.2858 Z0.1327
X1.2907 Z0.1325
X1.3007 Z0.1321
X1.3057 Z0.132
X1.3099 Z0.1318
X1.3112
X1.312
X1.3125
Y0.5626
Y0.563
Y0.5657 Z0.1317
Y0.5707 Z0.1315
Y0.5757 Z0.1314
Y0.5807 Z0.1312
Y0.5856 Z0.131
Y0.5906 Z0.1308
Y0.5956 Z0.1307
Y0.6006 Z0.1305
Y0.6056 Z0.1303
Y0.6106 Z0.1301
Y0.6156 Z0.13
Y0.6205 Z0.1298
Y0.6255 Z0.1296
Y0.6305 Z0.1294
Y0.6355 Z0.1293
Y0.6405 Z0.1291
Y0.6455 Z0.1289
Y0.6505 Z0.1288
Y0.6554 Z0.1286
Y0.6604 Z0.1284
Y0.6654 Z0.1282
Y0.6704 Z0.1281
Y0.6754 Z0.1279
Y0.6804 Z0.1277
Y0.6903 Z0.1274
Y0.7053 Z0.1268
Y0.7203 Z0.1263
Y0.7352 Z0.1258
Y0.7502 Z0.1253
Y0.7651 Z0.1247
Y0.7801 Z0.1242
Y0.8 Z0.1235
Y0.825 Z0.1227
Y0.8599 Z0.1214
Y0.9047 Z0.1199
Y0.9795 Z0.1173
Y1.0044 Z0.1164
Y1.0294 Z0.1155
Y1.0443 Z0.115
Y1.0543 Z0.1146
Y1.0586 Z0.1145
Y1.061 Z0.1144
Y1.0622
Y1.0624
X1.3124 Y1.0625
X1.3123
X1.3107
X1.2957 Z0.1138
X1.2808 Z0.1133
X1.2658 Z0.1128
X1.2509 Z0.1123
X1.2459 Z0.1121
X1.2409 Z0.1119
X1.2359 Z0.1117
X1.2309 Z0.1116
X1.2259 Z0.1114
X1.221 Z0.1112
X1.216 Z0.111
X1.211 Z0.1109
X1.206 Z0.1107
X1.201 Z0.1105
X1.196 Z0.1104
X1.191 Z0.1102
X1.1861 Z0.11
X1.1811 Z0.1098
X1.1761 Z0.1097
X1.1711 Z0.1095
X1.1661 Z0.1093
X1.1611 Z0.1091
X1.1561 Z0.109
X1.1512 Z0.1088
X1.1462 Z0.1086
X1.1412 Z0.1084
X1.1362 Z0.1083
X1.1312 Z0.1081
X1.1262 Z0.1079
X1.1212 Z0.1077
X1.1163 Z0.1076
X1.1113 Z0.1074
X1.1063 Z0.1072
X1.1013 Z0.1071
X1.0963 Z0.1069
X1.0913 Z0.1067
X1.0863 Z0.1066
X1.0814 Z0.1064
X1.0764 Z0.1062
X1.0714 Z0.1061
X1.0664 Z0.1059
X1.0614 Z0.1057
X1.0564 Z0.1056
X1.0514 Z0.1054
X1.0465 Z0.1053
X1.0415 Z0.1051
X1.0365 Z0.105
X1.0315 Z0.1048
X1.0265 Z0.1047
X1.0215 Z0.1045
X1.0166 Z0.1044
X1.0116 Z0.1043
X1.0066 Z0.1041
X1.0016 Z0.104
X0.9966 Z0.1039
X0.9916 Z0.1037
X0.9866 Z0.1036
X0.9817 Z0.1035
X0.9767 Z0.1033
X0.9717 Z0.1032
X0.9667 Z0.1031
X0.9617 Z0.103
X0.9567 Z0.1028
X0.9517 Z0.1027
X0.9468 Z0.1026
X0.9418 Z0.1025
X0.9394 Z0.1024
X0.938
X0.9375
Y1.0624
Y1.062
Y1.0612
Y1.0568 Z0.1023
Y1.0518 Z0.1022
Y1.0468 Z0.1021
Y1.0418 Z0.102
Y1.0368 Z0.1019
Y1.0268 Z0.1017
Y1.0169 Z0.1015
Y1.0069 Z0.1013
Y0.9969 Z0.1012
Y0.987 Z0.101
Y0.977 Z0.1009
Y0.967 Z0.1007
Y0.957 Z0.1006
Y0.9471 Z0.1005
Y0.9371 Z0.1004
Y0.9271 Z0.1003
Y0.9172 Z0.1002
Y0.9072
Y0.8972 Z0.1001
Y0.8873
Y0.8773 Z0.1
Y0.8673
Y0.8573
Y0.8556
Y0.5932 F12.
Y0.5626
X0.9376 Y0.5625
X1.3124
X1.3125 Y0.5626
Y1.0624
X1.3124 Y1.0625
X0.9376
X0.9375 Y1.0624
Y0.8556
Y0.8456 F48.
Y0.8356
Y0.8257 Z0.0999
Y0.8157
Y0.8057 Z0.0998
Y0.7958
Y0.7858 Z0.0997
Y0.7758 Z0.0996
Y0.7658 Z0.0995
Y0.7559 Z0.0994
Y0.7459 Z0.0993
Y0.7359 Z0.0992
Y0.726 Z0.099
Y0.716 Z0.0989
Y0.706 Z0.0987
Y0.696 Z0.0985
Y0.6861 Z0.0984
Y0.6761 Z0.0982
Y0.6661 Z0.098
Y0.6611 Z0.0979
Y0.6562 Z0.0978
Y0.6512 Z0.0976
Y0.6462 Z0.0975
Y0.6412 Z0.0974
Y0.6362 Z0.0973
Y0.6312 Z0.0972
Y0.6262 Z0.0971
Y0.6213 Z0.097
Y0.6163 Z0.0968
Y0.6113 Z0.0967
Y0.6063 Z0.0966
Y0.6013 Z0.0965
Y0.5963 Z0.0963
Y0.5913 Z0.0962
Y0.5864 Z0.0961
Y0.5814 Z0.0959
Y0.5764 Z0.0958
Y0.5714 Z0.0956
Y0.5664 Z0.0955
Y0.564 Z0.0954
Y0.5628
Y0.5626
X0.9376 Y0.5625
X0.9377
X0.9393
X0.9436 Z0.0953
X0.9486 Z0.0951
X0.9536 Z0.095
X0.9586 Z0.0948
X0.9635 Z0.0947
X0.9685 Z0.0945
X0.9735 Z0.0943
X0.9785 Z0.0942
X0.9835 Z0.094
X0.9885 Z0.0939
X0.9935 Z0.0937
X0.9984 Z0.0935
X1.0034 Z0.0934
X1.0084 Z0.0932
X1.0134 Z0.093
X1.0184 Z0.0929
X1.0234 Z0.0927
X1.0284 Z0.0925
X1.0383 Z0.0922
X1.0433 Z0.092
X1.0483 Z0.0918
X1.0533 Z0.0917
X1.0583 Z0.0915
X1.0633 Z0.0913
X1.0682 Z0.0911
X1.0732 Z0.091
X1.0782 Z0.0908
X1.0832 Z0.0906
X1.0882 Z0.0904
X1.0932 Z0.0903
X1.0981 Z0.0901
X1.1031 Z0.0899
X1.1081 Z0.0898
X1.1131 Z0.0896
X1.1181 Z0.0894
X1.1231 Z0.0892
X1.1281 Z0.0891
X1.133 Z0.0889
X1.138 Z0.0887
X1.143 Z0.0885
X1.148 Z0.0884
X1.153 Z0.0882
X1.158 Z0.088
X1.163 Z0.0878
X1.1679 Z0.0877
X1.1779 Z0.0873
X1.1929 Z0.0868
X1.2078 Z0.0863
X1.2228 Z0.0857
X1.2377 Z0.0852
X1.2527 Z0.0847
X1.2677 Z0.0842
X1.2876 Z0.0835
X1.3113 Z0.0827
X1.3124 Z0.0826
X1.3125 Y0.5626
Y0.5627
Y0.5775 Z0.0821
Y0.6124 Z0.0809
Y0.6772 Z0.0786
Y0.7221 Z0.077
Y0.747 Z0.0762
Y0.772 Z0.0753
Y0.7869 Z0.0748
Y0.8019 Z0.0743
Y0.8168 Z0.0737
Y0.8318 Z0.0732
Y0.8467 Z0.0727
Y0.8617 Z0.0722
Y0.8667 Z0.072
Y0.8717 Z0.0718
Y0.8767 Z0.0716
Y0.8816 Z0.0715
Y0.8866 Z0.0713
Y0.8916 Z0.0711
Y0.8966 Z0.071
Y0.9016 Z0.0708
Y0.9066 Z0.0706
Y0.9116 Z0.0704
Y0.9165 Z0.0703
Y0.9215 Z0.0701
Y0.9265 Z0.0699
Y0.9315 Z0.0697
Y0.9365 Z0.0696
Y0.9415 Z0.0694
Y0.9465 Z0.0692
Y0.9514 Z0.069
Y0.9564 Z0.0689
Y0.9614 Z0.0687
Y0.9664 Z0.0685
Y0.9714 Z0.0683
Y0.9764 Z0.0682
Y0.9814 Z0.068
Y0.9863 Z0.0678
Y0.9963 Z0.0675
Y1.0013 Z0.0673
Y1.0063 Z0.0671
Y1.0113 Z0.067
Y1.0163 Z0.0668
Y1.0212 Z0.0666
Y1.0262 Z0.0665
Y1.0312 Z0.0663
Y1.0362 Z0.0661
Y1.0412 Z0.066
Y1.0462 Z0.0658
Y1.0512 Z0.0657
Y1.0561 Z0.0655
Y1.0611 Z0.0654
Y1.0619 Z0.0653
Y1.0624
Y1.0625
X1.3123
X1.3121
X1.3106
X1.3083 Z0.0652
X1.3039 Z0.0651
X1.2989 Z0.0649
X1.2939 Z0.0648
X1.2889 Z0.0646
X1.2839 Z0.0645
X1.2789 Z0.0643
X1.274 Z0.0642
X1.269 Z0.064
X1.264 Z0.0639
X1.259 Z0.0638
X1.254 Z0.0636
X1.249 Z0.0635
X1.244 Z0.0634
X1.2391 Z0.0633
X1.2341 Z0.0631
X1.2291 Z0.063
X1.2241 Z0.0629
X1.2191 Z0.0628
X1.2141 Z0.0627
X1.2091 Z0.0626
X1.2042 Z0.0624
X1.1992 Z0.0623
X1.1942 Z0.0622
X1.1892 Z0.0621
X1.1842 Z0.062
X1.1742 Z0.0618
X1.1643 Z0.0616
X1.1543 Z0.0615
X1.1443 Z0.0613
X1.1344 Z0.0611
X1.1244 Z0.061
X1.1144 Z0.0608
X1.1044 Z0.0607
X1.0945 Z0.0606
X1.0845 Z0.0605
X1.0745 Z0.0604
X1.0646 Z0.0603
X1.0546 Z0.0602
X1.0446 Z0.0601
X1.0346
X1.0247
X1.0147 Z0.06
X1.0047
X0.9958
X0.9376 F12.
X0.9375 Y1.0624
Y0.5626
X0.9376 Y0.5625
X1.3124
X1.3125 Y0.5626
Y1.0624
X1.3124 Y1.0625
X0.9958
X0.9858 F48.
X0.9758
X0.9658 Z0.0599
X0.9559
X0.9459 Z0.0598
X0.9392
X0.9376
X0.9375 Y1.0624
Y1.0617
Y1.0609
Y1.0509 Z0.0597
Y1.041 Z0.0596
Y1.031 Z0.0595
Y1.021 Z0.0594
Y1.011 Z0.0593
Y1.0011 Z0.0592
Y0.9911 Z0.059
Y0.9811 Z0.0589
Y0.9712 Z0.0587
Y0.9612 Z0.0585
Y0.9512 Z0.0584
Y0.9412 Z0.0582
Y0.9313 Z0.058
Y0.9263 Z0.0579
Y0.9213 Z0.0578
Y0.9163 Z0.0576
Y0.9113 Z0.0575
Y0.9063 Z0.0574
Y0.9014 Z0.0573
Y0.8964 Z0.0572
Y0.8914 Z0.0571
Y0.8864 Z0.057
Y0.8814 Z0.0568
Y0.8764 Z0.0567
Y0.8714 Z0.0566
Y0.8665 Z0.0565
Y0.8615 Z0.0563
Y0.8565 Z0.0562
Y0.8515 Z0.0561
Y0.8465 Z0.0559
Y0.8415 Z0.0558
Y0.8365 Z0.0556
Y0.8316 Z0.0555
Y0.8266 Z0.0554
Y0.8216 Z0.0552
Y0.8166 Z0.0551
Y0.8116 Z0.0549
Y0.8066 Z0.0548
Y0.8016 Z0.0546
Y0.7967 Z0.0545
Y0.7917 Z0.0543
Y0.7867 Z0.0541
Y0.7817 Z0.054
Y0.7767 Z0.0538
Y0.7717 Z0.0537
Y0.7667 Z0.0535
Y0.7618 Z0.0533
Y0.7568 Z0.0532
Y0.7518 Z0.053
Y0.7468 Z0.0528
Y0.7418 Z0.0527
Y0.7368 Z0.0525
Y0.7269 Z0.0521
Y0.7219 Z0.052
Y0.7169 Z0.0518
Y0.7119 Z0.0516
Y0.7069 Z0.0515
Y0.7019 Z0.0513
Y0.6969 Z0.0511
Y0.692 Z0.0509
Y0.687 Z0.0508
Y0.682 Z0.0506
Y0.677 Z0.0504
Y0.672 Z0.0502
Y0.667 Z0.0501
Y0.662 Z0.0499
Y0.6571 Z0.0497
Y0.6521 Z0.0495
Y0.6471 Z0.0494
Y0.6421 Z0.0492
Y0.6371 Z0.049
Y0.6321 Z0.0488
Y0.6272 Z0.0487
Y0.6222 Z0.0485
Y0.6172 Z0.0483
Y0.6122 Z0.0481
Y0.6072 Z0.048
Y0.6022 Z0.0478
Y0.5972 Z0.0476
Y0.5873 Z0.0473
Y0.5723 Z0.0467
Y0.5631 Z0.0464
Y0.5628
Y0.5626
X0.9376 Y0.5625
X0.9377
X0.9527 Z0.0459
X0.9676 Z0.0454
X0.9826 Z0.0448
X0.9975 Z0.0443
X1.0125 Z0.0438
X1.0374 Z0.0429
X1.0623 Z0.0421
X1.0972 Z0.0408
X1.1621 Z0.0386
X1.2069 Z0.037
X1.2319 Z0.0361
X1.2568 Z0.0353
X1.2717 Z0.0347
X1.2867 Z0.0342
X1.3017 Z0.0337
X1.3066 Z0.0335
X1.311 Z0.0334
X1.3118
X1.3122
X1.3124
X1.3125
Y0.5628
Y0.5643 Z0.0333
Y0.5666
Y0.5816 Z0.0328
Y0.5966 Z0.0322
Y0.6015 Z0.0321
Y0.6065 Z0.0319
Y0.6115 Z0.0317
Y0.6165 Z0.0315
Y0.6215 Z0.0314
Y0.6265 Z0.0312
Y0.6315 Z0.031
Y0.6364 Z0.0308
Y0.6414 Z0.0307
Y0.6464 Z0.0305
Y0.6514 Z0.0303
Y0.6564 Z0.0301
Y0.6614 Z0.03
Y0.6664 Z0.0298
Y0.6713 Z0.0296
Y0.6763 Z0.0294
Y0.6813 Z0.0293
Y0.6863 Z0.0291
Y0.6913 Z0.0289
Y0.6963 Z0.0287
Y0.7013 Z0.0286
Y0.7062 Z0.0284
Y0.7112 Z0.0282
Y0.7162 Z0.0281
Y0.7212 Z0.0279
Y0.7312 Z0.0275
Y0.7362 Z0.0274
Y0.7411 Z0.0272
Y0.7461 Z0.027
Y0.7511 Z0.0268
Y0.7561 Z0.0267
Y0.7611 Z0.0265
Y0.7661 Z0.0264
Y0.7711 Z0.0262
Y0.776 Z0.026
Y0.781 Z0.0259
Y0.786 Z0.0257
Y0.791 Z0.0256
Y0.796 Z0.0254
Y0.801 Z0.0253
Y0.806 Z0.0251
Y0.8109 Z0.025
Y0.8159 Z0.0248
Y0.8209 Z0.0247
Y0.8259 Z0.0245
Y0.8309 Z0.0244
Y0.8359 Z0.0242
Y0.8409 Z0.0241
Y0.8458 Z0.024
Y0.8508 Z0.0238
Y0.8558 Z0.0237
Y0.8608 Z0.0236
Y0.8658 Z0.0234
Y0.8708 Z0.0233
Y0.8758 Z0.0232
Y0.8807 Z0.0231
Y0.8857 Z0.0229
Y0.8907 Z0.0228
Y0.8957 Z0.0227
Y0.9007 Z0.0226
Y0.9057 Z0.0225
Y0.9107 Z0.0224
Y0.9156 Z0.0223
Y0.9206 Z0.0222
Y0.9256 Z0.0221
Y0.9356 Z0.0219
Y0.9456 Z0.0217
Y0.9555 Z0.0215
Y0.9655 Z0.0213
Y0.9755 Z0.0211
Y0.9854 Z0.021
Y0.9954 Z0.0209
Y1.0054 Z0.0207
Y1.0154 Z0.0206
Y1.0253 Z0.0205
Y1.0353 Z0.0204
Y1.0453 Z0.0203
Y1.0552 Z0.0202
Y1.0594
Y1.0624
X1.3124 Y1.0625
X1.3119
X1.3098
X1.2998 Z0.0201
X1.2898
X1.2798 Z0.02
X1.2699
X1.2592
X0.9958 F12.
X0.9376
X0.9375 Y1.0624
Y0.5626
X0.9376 Y0.5625
X1.3124
X1.3125 Y0.5626
Y1.0624
X1.3124 Y1.0625
X1.2592
X1.2493 F48.
X1.2394
X1.2295 Z0.0199
X1.2196 Z0.0198
X1.2097 Z0.0197
X1.1998 Z0.0196
X1.1899 Z0.0194
X1.18 Z0.0193
X1.1701 Z0.0191
X1.1652 Z0.019
X1.1602 Z0.0189
X1.1553 Z0.0188
X1.1503 Z0.0187
X1.1454 Z0.0186
X1.1404 Z0.0184
X1.1355 Z0.0183
X1.1305 Z0.0182
X1.1256 Z0.0181
X1.1206 Z0.0179
X1.1157 Z0.0178
X1.1107 Z0.0176
X1.1058 Z0.0175
X1.1008 Z0.0173
X1.0959 Z0.0172
X1.0909 Z0.017
X1.086 Z0.0169
X1.081 Z0.0167
X1.0761 Z0.0165
X1.0711 Z0.0164
X1.0662 Z0.0162
X1.0612 Z0.016
X1.0563 Z0.0159
X1.0513 Z0.0157
X1.0464 Z0.0155
X1.0414 Z0.0153
X1.0365 Z0.0152
X1.0315 Z0.015
X1.0266 Z0.0148
X1.0216 Z0.0147
X1.0167 Z0.0145
X1.0117 Z0.0143
X1.0068 Z0.0141
X1.0018 Z0.014
X0.9969 Z0.0138
X0.9919 Z0.0136
X0.987 Z0.0134
X0.982 Z0.0133
X0.9771 Z0.0131
X0.9721 Z0.0129
X0.9672 Z0.0128
X0.9622 Z0.0126
X0.9573 Z0.0124
X0.9523 Z0.0122
X0.9424 Z0.0119
X0.9378 Z0.0118
X0.9376
X0.9375 Y1.0624
Y1.0575 Z0.0116
Y1.0426 Z0.0111
Y1.0228 Z0.0104
Y0.9832 Z0.009
Y0.9684 Z0.0085
Y0.9535 Z0.008
Y0.9486 Z0.0078
Y0.9436 Z0.0077
Y0.9387 Z0.0075
Y0.9337 Z0.0073
Y0.9288 Z0.0071
Y0.9238 Z0.007
Y0.9189 Z0.0068
Y0.9139 Z0.0066
Y0.909 Z0.0065
Y0.904 Z0.0063
Y0.8991 Z0.0061
Y0.8941 Z0.0059
Y0.8892 Z0.0058
Y0.8842 Z0.0056
Y0.8793 Z0.0054
Y0.8743 Z0.0052
Y0.8694 Z0.0051
Y0.8644 Z0.0049
Y0.8595 Z0.0047
Y0.8545 Z0.0046
Y0.8496 Z0.0044
Y0.8446 Z0.0042
Y0.8397 Z0.004
Y0.8347 Z0.0039
Y0.8298 Z0.0037
Y0.8248 Z0.0035
Y0.8199 Z0.0034
Y0.8149 Z0.0032
Y0.81 Z0.003
Y0.805 Z0.0029
Y0.8001 Z0.0027
Y0.7951 Z0.0026
Y0.7902 Z0.0024
Y0.7852 Z0.0023
Y0.7803 Z0.0021
Y0.7753 Z0.002
Y0.7704 Z0.0019
Y0.7654 Z0.0017
Y0.7605 Z0.0016
Y0.7555 Z0.0015
Y0.7506 Z0.0014
Y0.7456 Z0.0013
Y0.7407 Z0.0012
Y0.7357 Z0.001
Y0.7308 Z0.0009
Y0.7209 Z0.0008
Y0.711 Z0.0006
Y0.7011 Z0.0004
Y0.6912 Z0.0003
Y0.6813 Z0.0002
Y0.6714 Z0.0001
Y0.6615
Y0.6516 Z0.
Y0.6417
Y0.6396
Y0.5626 F12.
X0.9376 Y0.5625
X1.3124
X1.3125 Y0.5626
Y1.0624
X1.3124 Y1.0625
X0.9376
X0.9375 Y1.0624
Y0.6396
G3 X0.95 Y0.6271 I0.0125 J0.
G1 X0.9528 Z0.0003 F12.
X0.9554 Z0.0012
X0.9578 Z0.0027
X0.9598 Z0.0047
X0.9613 Z0.0071
X0.9622 Z0.0097
X0.9625 Z0.0125
Z1.26
G53 Z
M5
G53 P10
