[test_tenon_t3]
[Machine]
[  vendor: Nova Labs]
[  model: ShopSaber]
[  description: Generic 3-axis]
[T3 D=0.25 CR=0. - ZMIN=0. - flat end mill]
G90
G20
[When using Fusion for Personal Use, the feedrate of rapid]
[moves is reduced to match the feedrate of cutting moves,]
[which can increase machining time. Unrestricted rapid moves]
[are available with a Fusion Subscription.]
G53 Z
[Shoulders]
M0
[MANUAL TOOL CHANGE TO T3]
S10000
M3
G4 X4.
G90
G0 X2.6708 Y3.1652
Z2.12
G1 Z1.12 F20.
Z0.365
Z0.34
X2.6707 Y3.1649 Z0.3361 F20.
X2.6705 Y3.1641 Z0.3323
X2.6701 Y3.1626 Z0.3287
X2.6696 Y3.1606 Z0.3253
X2.669 Y3.1582 Z0.3223
X2.6682 Y3.1553 Z0.3198
X2.6674 Y3.152 Z0.3177
X2.6665 Y3.1485 Z0.3162
X2.6655 Y3.1448 Z0.3153
X2.6646 Y3.141 Z0.315
G3 X2.645 Y3.0049 I0.6183 J-0.1584
G1 Y2.9981
X2.6451 Y2.9966
X2.6703 Y2.9706
X2.6919 Y2.9416
X2.7082 Y2.9093
X2.7202 Y2.8752
X2.7288 Y2.8401
X2.7349 Y2.8044
X2.7393 Y2.7685
X2.7423 Y2.7324
X2.7443 Y2.6963
X2.7458 Y2.6601
X2.7468 Y2.624
X2.7475 Y2.5878
X2.748 Y2.5516
X2.7483 Y2.5154
X2.7485 Y2.4793
X2.7487 Y2.4431
X2.7489 Y2.3707
X2.749 Y2.2622
X2.7491 Y1.9003
X2.7493 Y1.032
X2.7495 Y0.0912
X2.7371 Y0.0572
X2.7142 Y0.0292
X2.6854 Y0.0074
X2.6531 Y-0.009
X2.619 Y-0.0211
X2.5839 Y-0.0297
X2.5482 Y-0.0359
X2.5123 Y-0.0402
X2.4763 Y-0.0433
X2.4401 Y-0.0454
X2.404 Y-0.0468
X2.3678 Y-0.0478
X2.3316 Y-0.0485
X2.2955 Y-0.049
X2.2593 Y-0.0493
X2.2231 Y-0.0495
X2.1808 Y-0.0497
X2.166 Y-0.0512
X2.1518 Y-0.0556
X2.1387 Y-0.0628
X2.1273 Y-0.0723
X2.118 Y-0.084
G3 X2.1203 Y-0.1129 I0.0215 J-0.0128
G1 X2.1228 Y-0.1159 Z0.3153
X2.1253 Y-0.1188 Z0.3162
X2.1276 Y-0.1216 Z0.3177
X2.1298 Y-0.1241 Z0.3198
X2.1317 Y-0.1264 Z0.3223
X2.1333 Y-0.1284 Z0.3253
X2.1346 Y-0.1299 Z0.3287
X2.1356 Y-0.1311 Z0.3323
X2.1362 Y-0.1318 Z0.3361
X2.1364 Y-0.132 Z0.34
Z1.12
X0.5442 Y-0.2372
Z0.365
Z0.34
X0.544 Y-0.237 Z0.3361
X0.5434 Y-0.2363 Z0.3323
X0.5425 Y-0.2352 Z0.3287
X0.5411 Y-0.2336 Z0.3253
X0.5394 Y-0.2317 Z0.3223
X0.5375 Y-0.2295 Z0.3198
X0.5353 Y-0.2269 Z0.3177
X0.5329 Y-0.2242 Z0.3162
X0.5304 Y-0.2213 Z0.3153
X0.5278 Y-0.2184 Z0.315
G3 X0.427 Y-0.1249 I-0.4816 J-0.4188
G1 X0.4063 Y-0.1107
X0.4053 Y-0.1096
X0.4009 Y-0.1054
X0.3943 Y-0.1009
X0.3859 Y-0.096
X0.3753 Y-0.0906
X0.3619 Y-0.0849
X0.3447 Y-0.0789
X0.322 Y-0.0725
X0.2906 Y-0.0658
X0.2548 Y-0.0606
X0.2188 Y-0.057
X0.1827 Y-0.0547
X0.1466 Y-0.053
X0.1104 Y-0.0519
X0.1014 Y-0.0511
X0.0837 Y-0.0472
X0.0509 Y-0.0319
X0.0244 Y-0.0072
X0.004 Y0.0226
X-0.0113 Y0.0554
X-0.0224 Y0.0898
X-0.0304 Y0.1251
X-0.0361 Y0.1609
X-0.0401 Y0.1968
X-0.0429 Y0.2329
X-0.0448 Y0.269
X-0.0462 Y0.3052
X-0.0471 Y0.3414
X-0.0477 Y0.3775
X-0.0482 Y0.4137
X-0.0485 Y0.4499
X-0.0487 Y0.4861
X-0.0489 Y0.5223
X-0.0491 Y0.5946
X-0.0493 Y0.7393
X-0.0498 Y1.5715
X-0.0499 Y1.8195
X-0.0514 Y1.8341
X-0.0556 Y1.8482
X-0.0625 Y1.8611
X-0.0719 Y1.8725
X-0.0832 Y1.8818
G3 X-0.1121 Y1.8799 I-0.0132 J-0.0213
G1 X-0.1152 Y1.8775 Z0.3153
X-0.1181 Y1.8751 Z0.3162
X-0.121 Y1.8728 Z0.3177
X-0.1235 Y1.8707 Z0.3198
X-0.1259 Y1.8688 Z0.3223
X-0.1278 Y1.8672 Z0.3253
X-0.1294 Y1.8659 Z0.3287
X-0.1306 Y1.8649 Z0.3323
X-0.1313 Y1.8644 Z0.3361
X-0.1315 Y1.8642 Z0.34
Z1.12
X0.4248 Y-0.1615
Z0.365
Z0.34
X0.4247 Y-0.1612 Z0.3361
X0.4245 Y-0.1603 Z0.3323
X0.4242 Y-0.1589 Z0.3287
X0.4237 Y-0.1569 Z0.3253
X0.4232 Y-0.1544 Z0.3223
X0.4225 Y-0.1515 Z0.3198
X0.4218 Y-0.1482 Z0.3177
X0.421 Y-0.1447 Z0.3162
X0.4202 Y-0.1409 Z0.3153
X0.4193 Y-0.1371 Z0.315
G3 X0.4053 Y-0.1096 I-0.0608 J-0.0136
G1 X0.3868 Y-0.09
X0.3834 Y-0.0862
X0.381 Y-0.0824
X0.376 Y-0.0742
X0.3727 Y-0.0692
X0.3689 Y-0.0644
X0.3638 Y-0.059
X0.3582 Y-0.0535
X0.3514 Y-0.0477
X0.3427 Y-0.0413
X0.3328 Y-0.0348
X0.3206 Y-0.028
X0.3058 Y-0.0209
X0.2875 Y-0.0136
X0.2648 Y-0.0061
X0.2352 Y0.0016
X0.1997 Y0.0085
X0.1656 Y0.0207
X0.1354 Y0.0406
X0.1101 Y0.0665
X0.0896 Y0.0963
X0.0735 Y0.1287
X0.0611 Y0.1627
X0.0517 Y0.1976
X0.0447 Y0.2331
X0.0395 Y0.2689
X0.0357 Y0.3049
X0.0329 Y0.341
X0.0309 Y0.3771
X0.0294 Y0.4133
X0.0284 Y0.4494
X0.0276 Y0.4856
X0.0271 Y0.5218
X0.0267 Y0.558
X0.0264 Y0.5942
X0.0262 Y0.6303
X0.0259 Y0.7027
X0.0257 Y0.8112
X0.0255 Y1.0283
X0.0252 Y1.7158
X0.025 Y1.752
X0.0236 Y1.7767
X0.0215 Y1.7942
X0.0204 Y1.8005
X0.0162 Y1.8147
X0.0094 Y1.8279
X0. Y1.8395
X-0.0114 Y1.8489
X-0.0245 Y1.856
X-0.0387 Y1.8603
G3 X-0.0651 Y1.8484 I-0.0049 J-0.0245
G1 X-0.0671 Y1.845 Z0.3153
X-0.069 Y1.8418 Z0.3162
X-0.0708 Y1.8386 Z0.3177
X-0.0725 Y1.8357 Z0.3198
X-0.074 Y1.8332 Z0.3223
X-0.0753 Y1.831 Z0.3253
X-0.0764 Y1.8292 Z0.3287
X-0.0771 Y1.8279 Z0.3323
X-0.0776 Y1.8271 Z0.3361
X-0.0777 Y1.8268 Z0.34
Z1.12
X0.384 Y-0.1291
Z0.365
Z0.34
Y-0.1288 Z0.3361
Y-0.1279 Z0.3323
Y-0.1264 Z0.3287
Y-0.1243 Z0.3253
Y-0.1218 Z0.3223
Y-0.1188 Z0.3198
X0.3839 Y-0.1155 Z0.3177
Y-0.1118 Z0.3162
Y-0.108 Z0.3153
Y-0.1041 Z0.315
G3 X0.376 Y-0.0742 I-0.0623 J-0.0004
G1 X0.3711 Y-0.066
X0.3703 Y-0.0647
X0.3611 Y-0.0413
X0.3604 Y-0.0389
X0.3586 Y-0.0332
X0.3562 Y-0.0276
X0.3534 Y-0.0223
X0.3501 Y-0.0168
X0.346 Y-0.0111
X0.3408 Y-0.0045
X0.335 Y0.0018
X0.3276 Y0.0089
X0.3187 Y0.0164
X0.3087 Y0.0239
X0.2783 Y0.0435
X0.2475 Y0.0625
X0.2195 Y0.0855
X0.1952 Y0.1123
X0.1748 Y0.1421
X0.158 Y0.1742
X0.1446 Y0.2078
X0.134 Y0.2424
X0.1258 Y0.2776
X0.1195 Y0.3133
X0.1147 Y0.3491
X0.1111 Y0.3851
X0.1084 Y0.4212
X0.1064 Y0.4573
X0.1049 Y0.4935
X0.1038 Y0.5296
X0.1029 Y0.5658
X0.1023 Y0.602
X0.1019 Y0.6382
X0.1015 Y0.6743
X0.1013 Y0.7105
X0.1011 Y0.7467
X0.1009 Y0.8191
X0.1007 Y0.9276
X0.1005 Y1.1447
X0.1002 Y1.6513
X0.0999 Y1.6874
X0.0988 Y1.7236
X0.0965 Y1.7488
X0.0937 Y1.7673
X0.0904 Y1.7825
X0.0863 Y1.7964
X0.082 Y1.8086
X0.0773 Y1.8194
X0.0718 Y1.8301
X0.0666 Y1.8388
X0.0603 Y1.848
X0.0563 Y1.8518
X0.0514 Y1.8542
X0.0459 Y1.855
X0.0086
X0.0004 Y1.8553
X-0.0041 Y1.8555
G3 X-0.028 Y1.839 I-0.0003 J-0.025
G1 X-0.0293 Y1.8353 Z0.3153
X-0.0306 Y1.8317 Z0.3162
X-0.0318 Y1.8283 Z0.3177
X-0.033 Y1.8252 Z0.3198
X-0.034 Y1.8224 Z0.3223
X-0.0348 Y1.82 Z0.3253
X-0.0355 Y1.8181 Z0.3287
X-0.036 Y1.8166 Z0.3323
X-0.0363 Y1.8158 Z0.3361
X-0.0365 Y1.8155 Z0.34
Z1.12
X0.3532 Y-0.0939
Z0.365
Z0.34
Y-0.0936 Z0.3361
X0.3535 Y-0.0927 Z0.3323
X0.3539 Y-0.0912 Z0.3287
X0.3544 Y-0.0893 Z0.3253
X0.3551 Y-0.0868 Z0.3223
X0.3559 Y-0.0839 Z0.3198
X0.3568 Y-0.0807 Z0.3177
X0.3578 Y-0.0772 Z0.3162
X0.3588 Y-0.0735 Z0.3153
X0.3598 Y-0.0698 Z0.315
G3 X0.3604 Y-0.0389 I-0.0601 J0.0166
G1 X0.3589 Y-0.0331
X0.3574 Y-0.0249
X0.3561 Y-0.0167
X0.3555 Y-0.004
X0.3549 Y0.002
X0.3539 Y0.0079
X0.3523 Y0.0137
X0.3502 Y0.0199
X0.3471 Y0.0271
X0.3431 Y0.0351
X0.3365 Y0.0465
X0.3163 Y0.0766
X0.2947 Y0.1055
X0.2742 Y0.1354
X0.2559 Y0.1666
X0.2401 Y0.1992
X0.2268 Y0.2328
X0.2159 Y0.2673
X0.207 Y0.3024
X0.1999 Y0.3378
X0.1943 Y0.3736
X0.1899 Y0.4095
X0.1865 Y0.4455
X0.1838 Y0.4816
X0.1818 Y0.5177
X0.1803 Y0.5539
X0.1791 Y0.59
X0.1783 Y0.6262
X0.1776 Y0.6624
X0.1771 Y0.6986
X0.1767 Y0.7347
X0.1764 Y0.7709
X0.1762 Y0.8071
X0.1759 Y0.8795
X0.1757 Y0.988
X0.1755 Y1.1689
X0.1752 Y1.5669
X0.1751 Y1.6031
X0.1748 Y1.6393
X0.1737 Y1.6755
X0.1713 Y1.7116
X0.1676 Y1.7406
X0.1628 Y1.7654
X0.1572 Y1.7866
X0.151 Y1.8053
X0.1499 Y1.8081
X0.143 Y1.8212
X0.1337 Y1.8327
X0.1223 Y1.8422
X0.1092 Y1.8492
X0.0951 Y1.8535
X0.0804 Y1.855
X0.0459
G3 X0.0229 Y1.8374 I0.0009 J-0.025
G1 X0.0217 Y1.8336 Z0.3153
X0.0206 Y1.83 Z0.3162
X0.0195 Y1.8265 Z0.3177
X0.0185 Y1.8233 Z0.3198
X0.0177 Y1.8205 Z0.3223
X0.0169 Y1.8181 Z0.3253
X0.0163 Y1.8161 Z0.3287
X0.0159 Y1.8147 Z0.3323
X0.0156 Y1.8138 Z0.3361
X0.0155 Y1.8135 Z0.34
Z1.12
X0.3366 Y-0.0561
Z0.365
Z0.34
X0.3367 Y-0.0558 Z0.3361
X0.3371 Y-0.055 Z0.3323
X0.3379 Y-0.0537 Z0.3287
X0.3388 Y-0.0519 Z0.3253
X0.34 Y-0.0496 Z0.3223
X0.3414 Y-0.047 Z0.3198
X0.343 Y-0.0441 Z0.3177
X0.3447 Y-0.0409 Z0.3162
X0.3464 Y-0.0375 Z0.3153
X0.3483 Y-0.034 Z0.315
G3 X0.3555 Y-0.004 I-0.0551 J0.0292
G1 X0.3553 Y-0.0003
X0.355 Y0.0079
Y0.0572
X0.3545 Y0.0663
X0.3533 Y0.0773
X0.3504 Y0.0934
X0.3436 Y0.1208
X0.3327 Y0.1553
X0.321 Y0.1896
X0.3098 Y0.224
X0.2996 Y0.2587
X0.2905 Y0.2937
X0.2828 Y0.3291
X0.2764 Y0.3647
X0.271 Y0.4004
X0.2667 Y0.4364
X0.2632 Y0.4724
X0.2604 Y0.5084
X0.2582 Y0.5446
X0.2564 Y0.5807
X0.2551 Y0.6169
X0.254 Y0.653
X0.2532 Y0.6892
X0.2526 Y0.7254
X0.2521 Y0.7616
X0.2517 Y0.7977
X0.2514 Y0.8339
X0.2512 Y0.8701
X0.2509 Y0.9425
X0.2507 Y1.051
X0.2504 Y1.2319
X0.2502 Y1.5214
X0.2501 Y1.5575
X0.2497 Y1.5937
X0.2488 Y1.6299
X0.2469 Y1.666
X0.2437 Y1.7021
X0.2388 Y1.7361
X0.2339 Y1.7595
X0.229 Y1.777
X0.2236 Y1.7929
X0.2183 Y1.8054
X0.2122 Y1.8177
X0.2046 Y1.8283
X0.1954 Y1.8375
X0.1847 Y1.845
X0.1729 Y1.8505
X0.1603 Y1.8539
X0.1473 Y1.855
X0.0804
G3 X0.0573 Y1.8374 I0.0009 J-0.025
G1 X0.0562 Y1.8336 Z0.3153
X0.0551 Y1.83 Z0.3162
X0.054 Y1.8265 Z0.3177
X0.053 Y1.8233 Z0.3198
X0.0521 Y1.8205 Z0.3223
X0.0514 Y1.8181 Z0.3253
X0.0508 Y1.8161 Z0.3287
X0.0503 Y1.8147 Z0.3323
X0.0501 Y1.8138 Z0.3361
X0.05 Y1.8135 Z0.34
Z1.12
X0.3335 Y0.0061
Z0.365
Z0.34
X0.3337 Y0.0063 Z0.3361
X0.3341 Y0.0071 Z0.3323
X0.3349 Y0.0084 Z0.3287
X0.336 Y0.0102 Z0.3253
X0.3373 Y0.0124 Z0.3223
X0.3388 Y0.0149 Z0.3198
X0.3405 Y0.0178 Z0.3177
X0.3423 Y0.0209 Z0.3162
X0.3443 Y0.0242 Z0.3153
X0.3463 Y0.0276 Z0.315
G3 X0.355 Y0.0572 I-0.0536 J0.0318
G1 Y0.2462
X0.3532 Y0.2823
X0.3514 Y0.3184
X0.3487 Y0.3545
X0.3425 Y0.4266
X0.3397 Y0.4627
X0.3372 Y0.4988
X0.335 Y0.5349
X0.3332 Y0.571
X0.3316 Y0.6072
X0.3304 Y0.6434
X0.3294 Y0.6795
X0.3285 Y0.7157
X0.3279 Y0.7519
X0.3274 Y0.788
X0.327 Y0.8242
X0.3266 Y0.8604
X0.3264 Y0.8966
X0.3262 Y0.9328
X0.3259 Y1.0051
X0.3256 Y1.1137
X0.3254 Y1.2946
X0.3253 Y1.4393
X0.3252 Y1.4755
X0.3251 Y1.5117
X0.3247 Y1.5479
X0.3239 Y1.584
X0.3225 Y1.6202
X0.3201 Y1.6563
X0.3165 Y1.6923
X0.3114 Y1.7255
X0.3053 Y1.7536
X0.2996 Y1.7736
X0.2936 Y1.7905
X0.2875 Y1.8046
X0.2814 Y1.8166
X0.2805 Y1.8182
X0.2729 Y1.8287
X0.2637 Y1.8378
X0.2531 Y1.8452
X0.2413 Y1.8506
X0.2288 Y1.8539
X0.2159 Y1.855
X0.1473
G3 X0.1243 Y1.8374 I0.0009 J-0.025
G1 X0.1231 Y1.8336 Z0.3153
X0.122 Y1.83 Z0.3162
X0.1209 Y1.8265 Z0.3177
X0.1199 Y1.8233 Z0.3198
X0.1191 Y1.8205 Z0.3223
X0.1183 Y1.8181 Z0.3253
X0.1177 Y1.8161 Z0.3287
X0.1173 Y1.8147 Z0.3323
X0.117 Y1.8138 Z0.3361
X0.1169 Y1.8135 Z0.34
Z1.12
X0.3335 Y0.195
Z0.365
Z0.34
X0.3337 Y0.1953 Z0.3361
X0.3341 Y0.1961 Z0.3323
X0.3349 Y0.1974 Z0.3287
X0.336 Y0.1991 Z0.3253
X0.3373 Y0.2013 Z0.3223
X0.3388 Y0.2039 Z0.3198
X0.3405 Y0.2067 Z0.3177
X0.3423 Y0.2099 Z0.3162
X0.3443 Y0.2131 Z0.3153
X0.3463 Y0.2165 Z0.315
G3 X0.355 Y0.2462 I-0.0536 J0.0318
G1 Y1.7412
X0.3542 Y1.7575
X0.3528 Y1.7699
X0.3506 Y1.7822
X0.3479 Y1.7931
X0.3445 Y1.8036
X0.3432 Y1.8071
X0.3364 Y1.8205
X0.3271 Y1.8322
X0.3156 Y1.8419
X0.3025 Y1.8491
X0.2882 Y1.8535
X0.2733 Y1.855
G3 X0.2491 Y1.8292 Z0.323 I0.0009 J-0.025
G3 X0.253 Y1.8166 I0.025 J0.0009
G1 X0.3089 Y1.7287
G3 X0.3292 Y1.7171 I0.0211 J0.0134
G3 X0.355 Y1.7412 Z0.315 I0.0009 J0.025
G1 Y1.807
X0.3549 Y1.8111
X0.3542 Y1.8152
X0.3539 Y1.8162
X0.3525 Y1.8198
X0.3503 Y1.8234
X0.3483 Y1.8259
X0.3457 Y1.8284
X0.3244 Y1.848
X0.321 Y1.8508
X0.3189 Y1.852
X0.3169 Y1.853
X0.3128 Y1.8543
X0.3087 Y1.8549
X0.3046 Y1.855
X0.2159
G3 X0.1929 Y1.8374 I0.0009 J-0.025
G1 X0.1918 Y1.8336 Z0.3153
X0.1906 Y1.83 Z0.3162
X0.1896 Y1.8265 Z0.3177
X0.1886 Y1.8233 Z0.3198
X0.1877 Y1.8205 Z0.3223
X0.1869 Y1.8181 Z0.3253
X0.1863 Y1.8161 Z0.3287
X0.1859 Y1.8147 Z0.3323
X0.1856 Y1.8138 Z0.3361
X0.1855 Y1.8135 Z0.34
Z1.12
X2.6665 Y3.0492
Z0.365
Z0.34
X2.6663 Y3.049 Z0.3361
X2.6659 Y3.0482 Z0.3323
X2.6651 Y3.0469 Z0.3287
X2.6641 Y3.0451 Z0.3253
X2.6627 Y3.0429 Z0.3223
X2.6612 Y3.0404 Z0.3198
X2.6595 Y3.0375 Z0.3177
X2.6577 Y3.0344 Z0.3162
X2.6557 Y3.0311 Z0.3153
X2.6537 Y3.0277 Z0.315
G3 X2.645 Y2.9981 I0.0536 J-0.0318
G1 Y2.9324
X2.6452 Y2.9289
X2.6489 Y2.8929
X2.6532 Y2.857
X2.6572 Y2.821
X2.6608 Y2.785
X2.6638 Y2.7489
X2.6662 Y2.7128
X2.6681 Y2.6767
X2.6696 Y2.6406
X2.6707 Y2.6044
X2.6716 Y2.5682
X2.6722 Y2.532
X2.6727 Y2.4959
X2.6731 Y2.4597
X2.6733 Y2.4235
X2.6735 Y2.3873
X2.6738 Y2.315
X2.6739 Y2.2064
X2.6741 Y1.9893
X2.6743 Y0.94
X2.6744 Y0.2164
X2.6698 Y0.1805
X2.6547 Y0.1476
X2.6319 Y0.1195
X2.6039 Y0.0966
X2.5726 Y0.0785
X2.5392 Y0.0645
X2.5046 Y0.0539
X2.4693 Y0.046
X2.4336 Y0.0401
X2.3977 Y0.0359
X2.3616 Y0.0328
X2.3255 Y0.0305
X2.2894 Y0.0289
X2.2532 Y0.0277
X2.2259 Y0.0259
X2.2072 Y0.0235
X2.2006 Y0.0222
X2.1869 Y0.0181
X2.1743 Y0.0117
X2.163 Y0.003
X2.1535 Y-0.0076
X2.1461 Y-0.0198
X2.1411 Y-0.0331
G3 X2.1521 Y-0.06 I0.0243 J-0.0057
G1 X2.1554 Y-0.0621 Z0.3153
X2.1586 Y-0.0641 Z0.3162
X2.1617 Y-0.0661 Z0.3177
X2.1645 Y-0.0678 Z0.3198
X2.167 Y-0.0694 Z0.3223
X2.1692 Y-0.0708 Z0.3253
X2.1709 Y-0.0719 Z0.3287
X2.1721 Y-0.0727 Z0.3323
X2.1729 Y-0.0732 Z0.3361
X2.1732 Y-0.0734 Z0.34
Z1.12
X2.6665 Y2.9835
Z0.365
Z0.34
X2.6663 Y2.9833 Z0.3361
X2.6659 Y2.9825 Z0.3323
X2.6651 Y2.9812 Z0.3287
X2.6641 Y2.9794 Z0.3253
X2.6627 Y2.9772 Z0.3223
X2.6612 Y2.9747 Z0.3198
X2.6595 Y2.9718 Z0.3177
X2.6577 Y2.9687 Z0.3162
X2.6557 Y2.9654 Z0.3153
X2.6537 Y2.962 Z0.315
G3 X2.645 Y2.9324 I0.0536 J-0.0318
G1 Y2.0041
X2.6446 Y1.9959
X2.6433 Y1.9795
X2.6417 Y1.9712
X2.6376 Y1.9548
X2.6348 Y1.9466
X2.6342 Y1.9453
X2.6319 Y1.9398
X2.6258 Y1.9207
X2.6193 Y1.8952
X2.6126 Y1.8596
X2.6083 Y1.8237
X2.6053 Y1.7877
X2.6034 Y1.7515
X2.602 Y1.7154
X2.6011 Y1.6792
X2.6005 Y1.643
X2.6001 Y1.6068
X2.5998 Y1.5707
X2.5996 Y1.5345
X2.5995 Y1.4983
X2.5993 Y1.4259
Y1.2812
X2.5994 Y0.3767
Y0.3043
X2.5936 Y0.2686
X2.5789 Y0.2355
X2.5571 Y0.2066
X2.5302 Y0.1825
X2.4997 Y0.163
X2.467 Y0.1476
X2.4328 Y0.1356
X2.3978 Y0.1264
X2.3623 Y0.1195
X2.3265 Y0.1142
X2.2906 Y0.1097
X2.2548 Y0.1047
X2.2327 Y0.1002
X2.2163 Y0.0957
X2.2008 Y0.0904
X2.1886 Y0.0853
X2.1868 Y0.0845
X2.175 Y0.0772
X2.1647 Y0.0679
X2.1563 Y0.0568
X2.1501 Y0.0444
X2.1463 Y0.031
X2.145 Y0.0172
Y0.0079
X2.1447 Y-0.0003
X2.1439 Y-0.0167
X2.1426 Y-0.0249
X2.1411 Y-0.0331
G3 X2.1544 Y-0.0589 I0.0247 J-0.0036
G1 X2.1579 Y-0.0607 Z0.3153
X2.1613 Y-0.0625 Z0.3162
X2.1645 Y-0.0641 Z0.3177
X2.1675 Y-0.0657 Z0.3198
X2.1701 Y-0.067 Z0.3223
X2.1724 Y-0.0682 Z0.3253
X2.1742 Y-0.0691 Z0.3287
X2.1755 Y-0.0698 Z0.3323
X2.1763 Y-0.0702 Z0.3361
X2.1766 Y-0.0704 Z0.34
Z1.12
X2.6753 Y1.9826
Z0.365
Z0.34
X2.675 Y1.9824 Z0.3361
X2.6743 Y1.9819 Z0.3323
X2.673 Y1.9811 Z0.3287
X2.6713 Y1.9799 Z0.3253
X2.6692 Y1.9785 Z0.3223
X2.6668 Y1.9768 Z0.3198
X2.664 Y1.9749 Z0.3177
X2.661 Y1.9729 Z0.3162
X2.6578 Y1.9707 Z0.3153
X2.6546 Y1.9685 Z0.315
G3 X2.6342 Y1.9453 I0.0351 J-0.0515
G1 X2.6309 Y1.9384
X2.6269 Y1.9302
X2.6147 Y1.9123
X2.61 Y1.9055
X2.6065 Y1.9016
X2.6023 Y1.8973
X2.6001 Y1.8952
X2.5949 Y1.8896
X2.5899 Y1.8836
X2.5844 Y1.8759
X2.5786 Y1.8666
X2.5725 Y1.8553
X2.566 Y1.8411
X2.5593 Y1.8235
X2.5523 Y1.801
X2.545 Y1.7711
X2.5387 Y1.7355
X2.5344 Y1.6995
X2.5313 Y1.6635
X2.5292 Y1.6274
X2.5277 Y1.5912
X2.5267 Y1.555
X2.5259 Y1.5189
X2.5254 Y1.4827
X2.5251 Y1.4465
X2.5248 Y1.4103
X2.5246 Y1.3741
X2.5244 Y1.3018
X2.5243 Y1.1932
Y0.94
X2.5244 Y0.3972
X2.5203 Y0.3613
X2.5081 Y0.3272
X2.4885 Y0.2968
X2.4634 Y0.2708
X2.4343 Y0.2493
X2.4025 Y0.2319
X2.3691 Y0.218
X2.3348 Y0.2066
X2.3 Y0.1967
X2.2651 Y0.187
X2.2334 Y0.1772
X2.2134 Y0.1695
X2.1967 Y0.1619
X2.184 Y0.1551
X2.1716 Y0.1474
X2.1619 Y0.1405
X2.1548 Y0.1332
X2.1494 Y0.1245
X2.1461 Y0.1149
X2.145 Y0.1048
Y0.0172
G3 X2.1626 Y-0.0058 I0.025 J0.0009
G1 X2.1664 Y-0.007 Z0.3153
X2.17 Y-0.0081 Z0.3162
X2.1735 Y-0.0092 Z0.3177
X2.1767 Y-0.0102 Z0.3198
X2.1795 Y-0.011 Z0.3223
X2.1819 Y-0.0118 Z0.3253
X2.1839 Y-0.0124 Z0.3287
X2.1853 Y-0.0128 Z0.3323
X2.1862 Y-0.0131 Z0.3361
X2.1865 Y-0.0132 Z0.34
Z1.12
X2.6518 Y1.9154
Z0.365
Z0.34
X2.6515 Y1.9153 Z0.3361
X2.6506 Y1.9151 Z0.3323
X2.6491 Y1.9148 Z0.3287
X2.6471 Y1.9143 Z0.3253
X2.6446 Y1.9137 Z0.3223
X2.6417 Y1.913 Z0.3198
X2.6385 Y1.9122 Z0.3177
X2.6349 Y1.9114 Z0.3162
X2.6312 Y1.9105 Z0.3153
X2.6274 Y1.9096 Z0.315
G3 X2.6001 Y1.8952 I0.0144 J-0.0606
G1 X2.5983 Y1.8934
X2.5934 Y1.8891
X2.5901 Y1.8864
X2.5818 Y1.8809
X2.5644 Y1.8702
X2.5633 Y1.8698
X2.5579 Y1.8673
X2.5528 Y1.8639
X2.5477 Y1.86
X2.542 Y1.8549
X2.5356 Y1.8485
X2.5295 Y1.8415
X2.5226 Y1.8327
X2.5153 Y1.8219
X2.5082 Y1.8097
X2.5004 Y1.7942
X2.4927 Y1.7761
X2.4848 Y1.7533
X2.4766 Y1.7242
X2.4691 Y1.6888
X2.4636 Y1.653
X2.4597 Y1.617
X2.4568 Y1.581
X2.4547 Y1.5448
X2.4532 Y1.5087
X2.4521 Y1.4725
X2.4513 Y1.4364
X2.4507 Y1.4002
X2.4503 Y1.364
X2.45 Y1.3278
X2.4498 Y1.2916
X2.4496 Y1.2555
X2.4495 Y1.1831
X2.4493 Y1.0745
Y0.8213
X2.4494 Y0.4956
X2.4481 Y0.4595
X2.4398 Y0.4243
X2.4239 Y0.3917
X2.4018 Y0.3631
X2.3752 Y0.3385
X2.3457 Y0.3177
X2.3143 Y0.2997
X2.2818 Y0.2838
X2.2489 Y0.2686
X2.2162 Y0.2531
X2.1913 Y0.24
X2.1808 Y0.2335
X2.1705 Y0.226
X2.1617 Y0.2168
X2.1546 Y0.2062
X2.1493 Y0.1946
X2.1461 Y0.1823
X2.145 Y0.1696
Y0.1048
G3 X2.1626 Y0.0818 I0.025 J0.0009
G1 X2.1664 Y0.0806 Z0.3153
X2.17 Y0.0795 Z0.3162
X2.1735 Y0.0785 Z0.3177
X2.1767 Y0.0775 Z0.3198
X2.1795 Y0.0766 Z0.3223
X2.1819 Y0.0758 Z0.3253
X2.1839 Y0.0752 Z0.3287
X2.1853 Y0.0748 Z0.3323
X2.1862 Y0.0745 Z0.3361
X2.1865 Y0.0744 Z0.34
Z1.12
X2.6188 Y1.8685
Z0.365
Z0.34
X2.6185 Z0.3361
X2.6176 Y1.8687 Z0.3323
X2.6161 Y1.8689 Z0.3287
X2.6141 Y1.8692 Z0.3253
X2.6116 Y1.8697 Z0.3223
X2.6086 Y1.8701 Z0.3198
X2.6053 Y1.8707 Z0.3177
X2.6018 Y1.8713 Z0.3162
X2.598 Y1.8719 Z0.3153
X2.5941 Y1.8725 Z0.315
G3 X2.5633 Y1.8698 I-0.0101 J-0.0615
G1 X2.5407 Y1.8609
X2.5397 Y1.8605
X2.5387 Y1.8603
X2.528 Y1.8582
X2.5222 Y1.8567
X2.5165 Y1.8548
X2.511 Y1.8525
X2.5056 Y1.8497
X2.4995 Y1.8461
X2.4934 Y1.8419
X2.4866 Y1.8366
X2.4795 Y1.8303
X2.4721 Y1.8228
X2.464 Y1.8134
X2.4562 Y1.8031
X2.4475 Y1.79
X2.439 Y1.7754
X2.43 Y1.757
X2.4213 Y1.7361
X2.4123 Y1.7097
X2.4032 Y1.6762
X2.3959 Y1.6408
X2.3905 Y1.605
X2.3864 Y1.5691
X2.3833 Y1.533
X2.381 Y1.4969
X2.3792 Y1.4608
X2.3779 Y1.4246
X2.377 Y1.3885
X2.3763 Y1.3523
X2.3757 Y1.3161
X2.3753 Y1.2799
X2.3751 Y1.2437
X2.3748 Y1.2076
X2.3747 Y1.1714
X2.3745 Y1.099
X2.3744 Y0.9905
X2.3743 Y0.7734
X2.3744 Y0.5925
X2.3742 Y0.5563
X2.3696 Y0.5204
X2.3579 Y0.4861
X2.34 Y0.4547
X2.3172 Y0.4266
X2.2911 Y0.4016
X2.2627 Y0.3791
X2.2331 Y0.3584
X2.203 Y0.3383
X2.1799 Y0.3219
X2.1728 Y0.3162
X2.1632 Y0.3069
X2.1554 Y0.2961
X2.1497 Y0.284
X2.1462 Y0.2712
X2.145 Y0.2579
Y0.1696
G3 X2.1626 Y0.1466 I0.025 J0.0009
G1 X2.1664 Y0.1454 Z0.3153
X2.17 Y0.1443 Z0.3162
X2.1735 Y0.1432 Z0.3177
X2.1767 Y0.1422 Z0.3198
X2.1795 Y0.1413 Z0.3223
X2.1819 Y0.1406 Z0.3253
X2.1839 Y0.14 Z0.3287
X2.1853 Y0.1396 Z0.3323
X2.1862 Y0.1393 Z0.3361
X2.1865 Y0.1392 Z0.34
Z1.12
X2.5823 Y1.8471
Z0.365
Z0.34
X2.5821 Y1.8472 Z0.3361
X2.5812 Y1.8475 Z0.3323
X2.5798 Y1.848 Z0.3287
X2.5778 Y1.8487 Z0.3253
X2.5754 Y1.8495 Z0.3223
X2.5726 Y1.8505 Z0.3198
X2.5695 Y1.8516 Z0.3177
X2.5661 Y1.8528 Z0.3162
X2.5625 Y1.8541 Z0.3153
X2.5588 Y1.8554 Z0.315
G3 X2.528 Y1.8582 I-0.0208 J-0.0587
G1 X2.5182 Y1.8562
X2.5161 Y1.8561
X2.4996 Y1.8553
X2.4914 Y1.855
X2.49
X2.484 Y1.8547
X2.4781 Y1.8538
X2.4723 Y1.8525
X2.4664 Y1.8507
X2.4605 Y1.8484
X2.4538 Y1.8453
X2.4471 Y1.8417
X2.4394 Y1.8369
X2.4318 Y1.8315
X2.4234 Y1.8246
X2.4151 Y1.8169
X2.4059 Y1.8071
X2.3969 Y1.7963
X2.3871 Y1.7828
X2.3775 Y1.7676
X2.3673 Y1.7491
X2.3576 Y1.7282
X2.3475 Y1.7023
X2.3374 Y1.6707
X2.3286 Y1.6356
X2.3218 Y1.6
X2.3166 Y1.5642
X2.3125 Y1.5283
X2.3093 Y1.4922
X2.3069 Y1.4561
X2.3051 Y1.42
X2.3037 Y1.3838
X2.3026 Y1.3477
X2.3018 Y1.3115
X2.3011 Y1.2753
X2.3007 Y1.2392
X2.3003 Y1.203
X2.3001 Y1.1668
X2.2999 Y1.1306
X2.2996 Y1.0582
X2.2994 Y0.9497
Y0.7688
X2.2993 Y0.6602
X2.2985 Y0.6241
X2.2928 Y0.5883
X2.2812 Y0.5541
X2.2643 Y0.5221
X2.2432 Y0.4926
X2.2193 Y0.4655
X2.1936 Y0.44
X2.1675 Y0.415
X2.1657 Y0.4131
X2.1569 Y0.4019
X2.1504 Y0.3892
X2.1464 Y0.3755
X2.145 Y0.3613
Y0.2579
G3 X2.1626 Y0.2349 I0.025 J0.0009
G1 X2.1664 Y0.2337 Z0.3153
X2.17 Y0.2326 Z0.3162
X2.1735 Y0.2315 Z0.3177
X2.1767 Y0.2306 Z0.3198
X2.1795 Y0.2297 Z0.3223
X2.1819 Y0.2289 Z0.3253
X2.1839 Y0.2283 Z0.3287
X2.1853 Y0.2279 Z0.3323
X2.1862 Y0.2276 Z0.3361
X2.1865 Y0.2275 Z0.34
Z1.12
X2.5412 Y1.8335
Z0.365
Z0.34
X2.5409 Y1.8337 Z0.3361
X2.5401 Y1.8341 Z0.3323
X2.5388 Y1.8349 Z0.3287
X2.5371 Y1.836 Z0.3253
X2.5349 Y1.8373 Z0.3223
X2.5323 Y1.8388 Z0.3198
X2.5295 Y1.8405 Z0.3177
X2.5263 Y1.8423 Z0.3162
X2.5231 Y1.8443 Z0.3153
X2.5197 Y1.8463 Z0.315
G3 X2.49 Y1.855 I-0.0318 J-0.0536
G1 X2.4376
X2.4316 Y1.8547
X2.4256 Y1.8539
X2.4197 Y1.8526
X2.4135 Y1.8509
X2.4066 Y1.8485
X2.3994 Y1.8455
X2.3916 Y1.8415
X2.3835 Y1.8368
X2.3746 Y1.8308
X2.3656 Y1.8239
X2.3561 Y1.8155
X2.3462 Y1.8056
X2.336 Y1.794
X2.3253 Y1.7802
X2.3146 Y1.7644
X2.3033 Y1.7451
X2.2926 Y1.7238
X2.2815 Y1.6977
X2.2705 Y1.6662
X2.2607 Y1.6314
X2.2529 Y1.596
X2.2467 Y1.5604
X2.2418 Y1.5245
X2.2379 Y1.4886
X2.2349 Y1.4525
X2.2325 Y1.4164
X2.2306 Y1.3803
X2.2292 Y1.3441
X2.228 Y1.308
X2.2271 Y1.2718
X2.2265 Y1.2356
X2.2259 Y1.1994
X2.2255 Y1.1632
X2.2252 Y1.1271
X2.225 Y1.0909
X2.2248 Y1.0547
X2.2246 Y0.9823
X2.2244 Y0.8738
Y0.7653
X2.2243 Y0.7291
X2.223 Y0.6929
X2.2178 Y0.6571
X2.2075 Y0.6224
X2.1927 Y0.5894
X2.1745 Y0.5581
X2.1581 Y0.5341
X2.1525 Y0.5244
X2.1483 Y0.5139
X2.1458 Y0.503
X2.145 Y0.4918
Y0.3613
G3 X2.1626 Y0.3383 I0.025 J0.0009
G1 X2.1664 Y0.3372 Z0.3153
X2.17 Y0.336 Z0.3162
X2.1735 Y0.335 Z0.3177
X2.1767 Y0.334 Z0.3198
X2.1795 Y0.3331 Z0.3223
X2.1819 Y0.3324 Z0.3253
X2.1839 Y0.3318 Z0.3287
X2.1853 Y0.3313 Z0.3323
X2.1862 Y0.331 Z0.3361
X2.1865 Y0.3309 Z0.34
Z1.12
X2.4887 Y1.8335
Z0.365
Z0.34
X2.4884 Y1.8337 Z0.3361
X2.4877 Y1.8341 Z0.3323
X2.4864 Y1.8349 Z0.3287
X2.4846 Y1.836 Z0.3253
X2.4824 Y1.8373 Z0.3223
X2.4799 Y1.8388 Z0.3198
X2.477 Y1.8405 Z0.3177
X2.4739 Y1.8423 Z0.3162
X2.4706 Y1.8443 Z0.3153
X2.4672 Y1.8463 Z0.315
G3 X2.4376 Y1.855 I-0.0318 J-0.0536
G1 X2.38
X2.374 Y1.8547
X2.3681 Y1.854
X2.3617 Y1.8527
X2.3552 Y1.851
X2.3478 Y1.8485
X2.3402 Y1.8455
X2.3318 Y1.8414
X2.3232 Y1.8366
X2.3136 Y1.8303
X2.3041 Y1.8232
X2.2937 Y1.8144
X2.2832 Y1.8042
X2.2722 Y1.792
X2.2607 Y1.7777
X2.2492 Y1.7612
X2.237 Y1.741
X2.2255 Y1.719
X2.2135 Y1.692
X2.2016 Y1.6597
X2.1913 Y1.625
X2.1829 Y1.5898
X2.1761 Y1.5543
X2.1707 Y1.5185
X2.1662 Y1.4826
X2.1627 Y1.4466
X2.1598 Y1.4105
X2.1576 Y1.3744
X2.1558 Y1.3383
X2.1544 Y1.3021
X2.1532 Y1.2659
X2.1524 Y1.2298
X2.1517 Y1.1936
X2.1511 Y1.1574
X2.1507 Y1.1212
X2.1504 Y1.0851
X2.1501 Y1.0489
X2.1499 Y1.0127
X2.1497 Y0.9403
X2.1495 Y0.8318
X2.1493 Y0.7956
X2.1479 Y0.7595
X2.1456 Y0.7412
X2.1453 Y0.7381
X2.1451 Y0.7349
X2.145 Y0.7317
Y0.4918
G3 X2.1626 Y0.4688 I0.025 J0.0009
G1 X2.1664 Y0.4676 Z0.3153
X2.17 Y0.4665 Z0.3162
X2.1735 Y0.4654 Z0.3177
X2.1767 Y0.4644 Z0.3198
X2.1795 Y0.4635 Z0.3223
X2.1819 Y0.4628 Z0.3253
X2.1839 Y0.4622 Z0.3287
X2.1853 Y0.4618 Z0.3323
X2.1862 Y0.4615 Z0.3361
X2.1865 Y0.4614 Z0.34
Z1.12
X2.4312 Y1.8335
Z0.365
Z0.34
X2.4309 Y1.8337 Z0.3361
X2.4301 Y1.8341 Z0.3323
X2.4288 Y1.8349 Z0.3287
X2.4271 Y1.836 Z0.3253
X2.4249 Y1.8373 Z0.3223
X2.4223 Y1.8388 Z0.3198
X2.4194 Y1.8405 Z0.3177
X2.4163 Y1.8423 Z0.3162
X2.413 Y1.8443 Z0.3153
X2.4097 Y1.8463 Z0.315
G3 X2.38 Y1.855 I-0.0318 J-0.0536
G1 X2.3188
X2.3128 Y1.8547
X2.3068 Y1.854
X2.3002 Y1.8527
X2.2934 Y1.851
X2.2856 Y1.8485
X2.2778 Y1.8454
X2.2689 Y1.8411
X2.26 Y1.8362
X2.2498 Y1.8297
X2.2399 Y1.8224
X2.2288 Y1.8131
X2.2179 Y1.8027
X2.2061 Y1.7898
X2.1942 Y1.7751
X2.1818 Y1.7577
X2.169 Y1.7368
X2.1567 Y1.7138
X2.1517 Y1.7026
X2.148 Y1.6926
X2.1457 Y1.6822
X2.145 Y1.6717
G3 X2.1708 Y1.6476 Z0.323 I0.025 J0.0009
G3 X2.1882 Y1.6554 I-0.0009 J0.025
G1 X2.3361 Y1.8129
G3 X2.3429 Y1.8292 I-0.0182 J0.0171
G3 X2.3188 Y1.855 Z0.315 I-0.025 J0.0009
G1 X2.2567
X2.2492 Y1.8546
X2.2433 Y1.8539
X2.2365 Y1.8527
X2.2295 Y1.851
X2.2216 Y1.8485
X2.2135 Y1.8453
X2.2043 Y1.841
X2.1951 Y1.836
X2.1847 Y1.8294
X2.1743 Y1.8218
X2.1721 Y1.82
X2.1628 Y1.8108
X2.1552 Y1.8
X2.1496 Y1.7881
X2.1462 Y1.7754
X2.145 Y1.7623
G3 X2.1708 Y1.7382 Z0.323 I0.025 J0.0009
G3 X2.1853 Y1.7435 I-0.0009 J0.025
G1 X2.2712 Y1.8103
G3 X2.2808 Y1.8292 I-0.0154 J0.0197
G3 X2.2567 Y1.855 Z0.315 I-0.025 J0.0009
G1 X2.1954
X2.1913 Y1.8549
X2.1872 Y1.8543
X2.1831 Y1.853
X2.1811 Y1.852
X2.179 Y1.8508
X2.1756 Y1.848
X2.1543 Y1.8284
X2.1517 Y1.8259
X2.1497 Y1.8234
X2.1475 Y1.8198
X2.1461 Y1.8162
X2.1458 Y1.8152
X2.1451 Y1.8111
X2.145 Y1.807
Y0.7317
X2.1453 Y0.7288
X2.1459 Y0.7259
X2.1472 Y0.7232 Z0.3152
X2.1485 Y0.7206 Z0.3157
X2.1497 Y0.718 Z0.3166
X2.152 Y0.7158 Z0.3181
X2.1541 Y0.7137 Z0.32
X2.156 Y0.7119 Z0.3223
X2.1583 Y0.7108 Z0.3253
X2.1602 Y0.7099 Z0.3286
X2.1615 Y0.7092 Z0.3323
X2.1623 Y0.7089 Z0.3361
X2.1626 Y0.7087 Z0.34
Z1.12
X1.2933 Y0.79
Z1.04
G3 X1.3016 Y0.9458 Z1.0335 I-0.0433 J0.0805 F13.3333
G3 X1.1595 Y0.8819 Z1.0269 I-0.0516 J-0.0753
G3 X1.2814 Y0.7851 Z1.0204 I0.0904 J-0.0113
G3 X1.3114 Y0.9376 Z1.0139 I-0.0314 J0.0854
G3 X1.1623 Y0.8943 Z1.0073 I-0.0614 J-0.067
G3 X1.2691 Y0.7819 Z1.0008 I0.0876 J-0.0237
G3 X1.32 Y0.9281 Z0.9943 I-0.0191 J0.0886
G3 X1.1669 Y0.9063 Z0.9877 I-0.0699 J-0.0576
G3 X1.2564 Y0.7804 Z0.9812 I0.0831 J-0.0357
G3 X1.3271 Y0.9176 Z0.9747 I-0.0064 J0.0901
G3 X1.173 Y0.9174 Z0.9682 I-0.077 J-0.047
G3 X1.2437 Y0.7807 Z0.9616 I0.077 J-0.0468
G3 X1.3326 Y0.9061 Z0.9551 I0.0062 J0.0898
G3 X1.1806 Y0.9275 Z0.9486 I-0.0825 J-0.0356
G3 X1.2313 Y0.7828 Z0.942 I0.0694 J-0.0569
G3 X1.3364 Y0.8941 Z0.9355 I0.0187 J0.0877
G3 X1.1895 Y0.9364 Z0.929 I-0.0864 J-0.0236
G3 X1.2193 Y0.7866 Z0.9224 I0.0605 J-0.0658
G3 X1.3385 Y0.8817 Z0.9159 I0.0307 J0.0839
G3 X1.1995 Y0.944 Z0.9094 I-0.0885 J-0.0112
G3 X1.208 Y0.7921 Z0.9028 I0.0505 J-0.0734
G3 X1.3389 Y0.8692 Z0.8963 I0.042 J0.0784
G3 X1.2105 Y0.95 Z0.8898 I-0.0888 J0.0013
G3 X1.1976 Y0.799 Z0.8832 I0.0395 J-0.0794
G3 X1.3375 Y0.8568 Z0.8767 I0.0524 J0.0715
G3 X1.2221 Y0.9545 Z0.8702 I-0.0874 J0.0137
G3 X1.1883 Y0.8073 Z0.8636 I0.0279 J-0.0839
G3 X1.3344 Y0.8448 Z0.8571 I0.0616 J0.0632
G3 X1.2342 Y0.9572 Z0.8506 I-0.0843 J0.0257
G3 X1.1803 Y0.8168 Z0.8441 I0.0158 J-0.0866
G3 X1.3296 Y0.8333 Z0.8375 I0.0696 J0.0537
G3 X1.2465 Y0.9582 Z0.831 I-0.0796 J0.0372
G3 X1.1738 Y0.8273 Z0.8245 I0.0035 J-0.0876
G3 X1.3233 Y0.8227 Z0.8179 I0.0762 J0.0433
G3 X1.2588 Y0.9575 Z0.8114 I-0.0733 J0.0478
G3 X1.1688 Y0.8385 Z0.8049 I-0.0088 J-0.0869
G3 X1.3156 Y0.8131 Z0.7983 I0.0812 J0.032
G3 X1.2709 Y0.9551 Z0.7918 I-0.0656 J0.0573
G3 X1.1654 Y0.8503 Z0.7853 I-0.0208 J-0.0845
G3 X1.3067 Y0.8048 Z0.7787 I0.0845 J0.0202
G3 X1.2824 Y0.951 Z0.7722 I-0.0567 J0.0657
G3 X1.1638 Y0.8624 Z0.7657 I-0.0323 J-0.0804
G3 X1.2967 Y0.7978 Z0.7591 I0.0862 J0.0082
G3 X1.2932 Y0.9454 Z0.7526 I-0.0467 J0.0727
G3 X1.1638 Y0.8746 Z0.7461 I-0.0431 J-0.0748
G3 X1.2859 Y0.7922 Z0.7395 I0.0861 J-0.004
G3 X1.303 Y0.9383 Z0.733 I-0.0359 J0.0783
G3 X1.1656 Y0.8866 Z0.7265 I-0.053 J-0.0677
G3 X1.2745 Y0.7883 Z0.72 I0.0844 J-0.016
G3 X1.3118 Y0.93 Z0.7134 I-0.0245 J0.0822
G3 X1.169 Y0.8981 Z0.7069 I-0.0617 J-0.0594
G3 X1.2627 Y0.786 Z0.7004 I0.081 J-0.0275
G3 X1.3192 Y0.9205 Z0.6938 I-0.0127 J0.0845
G3 X1.1739 Y0.9091 Z0.6873 I-0.0691 J-0.05
G3 X1.2507 Y0.7854 Z0.6808 I0.076 J-0.0385
G3 X1.3252 Y0.9102 Z0.6742 I-0.0007 J0.0851
G3 X1.1804 Y0.9192 Z0.6677 I-0.0752 J-0.0396
G3 X1.2388 Y0.7865 Z0.6612 I0.0696 J-0.0485
G3 X1.3297 Y0.8991 Z0.6546 I0.0112 J0.084
G3 X1.1881 Y0.9282 Z0.6481 I-0.0797 J-0.0286
G3 X1.2272 Y0.7892 Z0.6416 I0.0619 J-0.0576
G3 X1.3326 Y0.8876 Z0.635 I0.0228 J0.0813
G3 X1.197 Y0.936 Z0.6285 I-0.0825 J-0.017
G3 X1.2162 Y0.7935 Z0.622 I0.0529 J-0.0654
G3 X1.3338 Y0.8758 Z0.6155 I0.0338 J0.077
G3 X1.2069 Y0.9425 Z0.6089 I-0.0838 J-0.0053
G3 X1.2059 Y0.7993 Z0.6024 I0.0431 J-0.0719
G3 X1.3334 Y0.864 Z0.5959 I0.0441 J0.0712
G3 X1.2176 Y0.9475 Z0.5893 I-0.0833 J0.0065
G3 X1.1965 Y0.8065 Z0.5828 I0.0324 J-0.0769
G3 X1.3313 Y0.8525 Z0.5763 I0.0534 J0.064
G3 X1.2288 Y0.951 Z0.5697 I-0.0813 J0.018
G3 X1.1883 Y0.8149 Z0.5632 I0.0212 J-0.0804
G3 X1.3277 Y0.8414 Z0.5567 I0.0616 J0.0557
G3 X1.2403 Y0.9528 Z0.5501 I-0.0776 J0.0291
G3 X1.1814 Y0.8242 Z0.5436 I0.0097 J-0.0822
G3 X1.3225 Y0.8309 Z0.5371 I0.0685 J0.0463
G3 X1.2519 Y0.953 Z0.5305 I-0.0725 J0.0396
G3 X1.1759 Y0.8345 Z0.524 I-0.0019 J-0.0824
G3 X1.316 Y0.8213 Z0.5175 I0.074 J0.0361
G3 X1.2634 Y0.9516 Z0.5109 I-0.0659 J0.0491
G3 X1.1719 Y0.8453 Z0.5044 I-0.0134 J-0.081
G3 X1.3082 Y0.8128 Z0.4979 I0.078 J0.0252
G3 X1.2746 Y0.9486 Z0.4914 I-0.0581 J0.0577
G3 X1.1695 Y0.8566 Z0.4848 I-0.0245 J-0.078
G3 X1.2993 Y0.8055 Z0.4783 I0.0805 J0.014
G3 X1.2851 Y0.9441 Z0.4718 I-0.0493 J0.065
G3 X1.1687 Y0.868 Z0.4652 I-0.0351 J-0.0735
G3 X1.2895 Y0.7995 Z0.4587 I0.0813 J0.0026
G3 X1.2949 Y0.9381 Z0.4522 I-0.0395 J0.0709
G3 X1.1695 Y0.8794 Z0.4456 I-0.0448 J-0.0676
G3 X1.279 Y0.795 Z0.4391 I0.0805 J-0.0088
G3 X1.3037 Y0.9309 Z0.4326 I-0.0291 J0.0755
G3 X1.1718 Y0.8905 Z0.426 I-0.0536 J-0.0604
G3 X1.2681 Y0.792 Z0.4195 I0.0781 J-0.0199
G3 X1.3114 Y0.9226 Z0.413 I-0.0181 J0.0785
G3 X1.1757 Y0.9012 Z0.4064 I-0.0613 J-0.052
G3 X1.2569 Y0.7906 Z0.3999 I0.0742 J-0.0306
G3 X1.3178 Y0.9133 Z0.3934 I-0.0069 J0.0799
G3 X1.181 Y0.9111 Z0.3868 I-0.0677 J-0.0427
G3 X1.2456 Y0.7908 Z0.3803 I0.0689 J-0.0405
G3 X1.3228 Y0.9032 Z0.3738 I0.0044 J0.0797
G3 X1.1877 Y0.9202 Z0.3673 I-0.0727 J-0.0327
G3 X1.2345 Y0.7925 Z0.3607 I0.0623 J-0.0496
G3 X1.3263 Y0.8926 Z0.3542 I0.0154 J0.078
G3 X1.1955 Y0.9282 Z0.3477 I-0.0763 J-0.022
G3 X1.2239 Y0.7958 Z0.3411 I0.0545 J-0.0576
G3 X1.3283 Y0.8816 Z0.3346 I0.0261 J0.0747
G3 X1.2043 Y0.935 Z0.3281 I-0.0783 J-0.0111
G3 X1.2138 Y0.8005 Z0.3215 I0.0457 J-0.0644
G3 X1.3288 Y0.8705 Z0.315 I0.0362 J0.07
G3 X1.1711 I-0.0788 J0.
G3 X1.3288 I0.0788 J0.
G1 X1.3296 Y0.9067 F20.
X1.3303 Y0.9112
X1.3305 Y0.9172
X1.3299 Y0.9231
X1.3286 Y0.929
X1.3267 Y0.9347
X1.3242 Y0.9402
X1.3213 Y0.9454
X1.318 Y0.9504
X1.3142 Y0.9551
X1.3101 Y0.9595
X1.3096 Y0.96
X1.2985 Y0.9685
X1.286 Y0.9748
X1.2725 Y0.9787
X1.2586 Y0.98
X1.2336
X1.227 Y0.9797
X1.221 Y0.979
X1.2149 Y0.9779
X1.2088 Y0.9764
X1.2027 Y0.9744
X1.1966 Y0.9721
X1.1906 Y0.9693
X1.1848 Y0.9661
X1.179 Y0.9625
X1.1735 Y0.9585
X1.1722 Y0.9575
X1.1629 Y0.9482
X1.1552 Y0.9374
X1.1496 Y0.9255
X1.1462 Y0.9128
X1.145 Y0.8996
G3 X1.1708 Y0.8755 Z0.323 I0.025 J0.0009
G3 X1.1864 Y0.8816 I-0.0009 J0.025
G1 X1.2491 Y0.9361
G3 X1.2577 Y0.9542 I-0.0164 J0.0189
G3 X1.2336 Y0.98 Z0.315 I-0.025 J0.0009
G1 X1.1842
X1.1801
X1.176 Y0.9794
X1.1732 Y0.9785
X1.1703 Y0.9773
X1.1678 Y0.9758
X1.1644 Y0.9731
X1.1625 Y0.9711
X1.161 Y0.9691
X1.1596 Y0.9667
X1.1513 Y0.9524
X1.147 Y0.9444
X1.1456 Y0.9403
X1.145 Y0.9362
Y0.928
Y0.8495
X1.1453 Y0.8431
X1.146 Y0.8371
X1.1471 Y0.8313
X1.1486 Y0.8254
X1.1505 Y0.8197
X1.1527 Y0.8141
X1.1554 Y0.8085
X1.1585 Y0.8029
X1.162 Y0.7975
X1.1659 Y0.7923
X1.1701 Y0.7872
X1.1748 Y0.7824
X1.1798 Y0.7778
X1.1851 Y0.7735
X1.1908 Y0.7695
X1.1968 Y0.7659
X1.203 Y0.7626
X1.2095 Y0.7597
X1.2162 Y0.7572
X1.2231 Y0.7551
X1.2302 Y0.7534
X1.2374 Y0.7522
X1.2447 Y0.7515
X1.2521 Y0.7512
X1.2595 Y0.7514
X1.2669 Y0.7521
X1.2743 Y0.7533
X1.2816 Y0.7549
X1.2888 Y0.757
X1.2959 Y0.7596
X1.3028 Y0.7626
X1.3095 Y0.766
X1.316 Y0.7699
X1.3223 Y0.7742
X1.3283 Y0.779
X1.3301 Y0.7806
X1.3387 Y0.7897
X1.3457 Y0.8002
X1.3508 Y0.8117
X1.3539 Y0.8239
X1.355 Y0.8364
Y0.928
Y0.9362
X1.3544 Y0.9403
X1.353 Y0.9444
X1.3485 Y0.9526
X1.3404 Y0.9667
X1.339 Y0.9691
X1.3375 Y0.9711
X1.3356 Y0.9731
X1.3322 Y0.9758
X1.3297 Y0.9773
X1.3268 Y0.9785
X1.324 Y0.9794
X1.3199 Y0.98
X1.3158
X1.2586
G3 X1.2403 Y0.9711 Z0.3193 I0.0009 J-0.025
G1 X1.2343 Y0.9639 Z0.3212
X1.2285 Y0.9571 Z0.323
X1.1654 Y0.8821
X1.1597 Y0.8752 Z0.3212
X1.1509 Y0.8648 Z0.3184
G3 X1.145 Y0.8495 Z0.315 I0.0191 J-0.0161
G1 Y0.8002
X1.1453 Y0.7942
X1.146 Y0.7882
X1.1473 Y0.7823
X1.149 Y0.7766
X1.1513 Y0.771
X1.1539 Y0.7657
X1.157 Y0.7605
X1.1604 Y0.7554
X1.1642 Y0.7505
X1.1685 Y0.7456
X1.1734 Y0.7408
X1.1788 Y0.7361
X1.1846 Y0.7316
X1.1909 Y0.7274
X1.1976 Y0.7235
X1.2047 Y0.7199
X1.2123 Y0.7167
X1.2203 Y0.7139
X1.2286 Y0.7116
X1.2373 Y0.7098
X1.2462 Y0.7085
X1.2552 Y0.7078
X1.2645 Y0.7077
X1.2739 Y0.7081
X1.2833 Y0.7092
X1.2928 Y0.7109
X1.3014 Y0.713
X1.3025 Y0.7134
X1.315 Y0.7186
X1.3264 Y0.726
X1.3362 Y0.7353
X1.3442 Y0.7462
X1.3502 Y0.7584
X1.3538 Y0.7714
X1.355 Y0.7849
Y0.8364
G3 X1.3292 Y0.8605 Z0.323 I-0.025 J-0.0009
G1 X1.3268 Y0.8603
X1.3245 Y0.8599
X1.1707 Y0.8252
X1.1645 Y0.8238 Z0.3217
G3 X1.145 Y0.8002 Z0.315 I0.0055 J-0.0244
G1 Y0.7555
X1.1453 Y0.7495
X1.1462 Y0.7436
X1.1478 Y0.7378
X1.1498 Y0.7321
X1.1522 Y0.7266
X1.1551 Y0.7213
X1.1583 Y0.7162
X1.162 Y0.711
X1.1663 Y0.7059
X1.1711 Y0.7007
X1.1766 Y0.6956
X1.1826 Y0.6907
X1.1891 Y0.686
X1.1963 Y0.6815
X1.2041 Y0.6772
X1.2124 Y0.6734
X1.2212 Y0.67
X1.2304 Y0.6671
X1.24 Y0.6648
X1.2488 Y0.6632
X1.2586 Y0.6621
X1.2673 Y0.6617
X1.2762 Y0.6618
X1.2853 Y0.6625
X1.2933 Y0.6637
X1.2955 Y0.6642
X1.3094 Y0.6685
X1.3222 Y0.6755
X1.3334 Y0.6849
X1.3426 Y0.6962
X1.3494 Y0.7091
X1.3536 Y0.723
X1.355 Y0.7375
Y0.7849
G3 X1.3292 Y0.809 Z0.323 I-0.025 J-0.0009
G1 X1.3255 Y0.8086
X1.1708 Y0.7802
X1.1655 Y0.7792 Z0.3219
G3 X1.145 Y0.7555 Z0.315 I0.0045 J-0.0246
G1 Y0.7144
X1.1453 Y0.7084
X1.1461 Y0.7025
X1.1475 Y0.6966
X1.1528 Y0.6843
X1.1602 Y0.6731
X1.1695 Y0.6634
X1.1803 Y0.6556
X1.1924 Y0.6498
X1.2053 Y0.6462
X1.2187 Y0.645
G3 X1.2428 Y0.6708 Z0.323 I-0.0009 J0.025
G3 X1.2346 Y0.6885 I-0.025 J-0.0009
G1 X1.1868 Y0.732
G3 X1.1708 Y0.7385 I-0.0168 J-0.0185
G3 X1.145 Y0.7144 Z0.315 I-0.0009 J-0.025
G1 Y0.6898
X1.1452 Y0.6857
X1.1461 Y0.6815
X1.1468 Y0.6795
X1.1478 Y0.6774
X1.1502 Y0.6733
X1.1604 Y0.6569
X1.1617 Y0.655
X1.1633 Y0.6531
X1.1655 Y0.6509
X1.1678 Y0.6492
X1.1686 Y0.6487
X1.1723 Y0.6468
X1.176 Y0.6456
X1.1801 Y0.645
X1.1842
X1.3075
X1.3135 Y0.6453
X1.3229 Y0.6475
X1.3315 Y0.6518
X1.3389 Y0.6578
X1.3449 Y0.6653
G3 X1.3356 Y0.6995 Z0.323 I-0.0217 J0.0124
G3 X1.3115 Y0.6999 I-0.0124 J-0.0217
G1 X1.2968 Y0.6921
G3 X1.2834 Y0.6708 I0.0117 J-0.0221
G3 X1.3075 Y0.645 Z0.315 I0.025 J-0.0009
G1 X1.3158
X1.3199
X1.324 Y0.6456
X1.3277 Y0.6468
X1.3314 Y0.6487
X1.3322 Y0.6492
X1.3345 Y0.6509
X1.3367 Y0.6531
X1.3383 Y0.655
X1.3396 Y0.6569
X1.3498 Y0.6733
X1.3522 Y0.6774
X1.3532 Y0.6795
X1.3539 Y0.6815
X1.3548 Y0.6857
X1.355 Y0.6898
Y0.7375
X1.3547 Y0.7405
X1.3541 Y0.7434
X1.3528 Y0.7461 Z0.3152
X1.3515 Y0.7487 Z0.3157
X1.3503 Y0.7513 Z0.3166
X1.348 Y0.7535 Z0.3181
X1.3459 Y0.7556 Z0.32
X1.344 Y0.7574 Z0.3223
X1.3417 Y0.7585 Z0.3253
X1.3398 Y0.7594 Z0.3286
X1.3385 Y0.76 Z0.3323
X1.3377 Y0.7604 Z0.3361
X1.3374 Y0.7606 Z0.34
Z1.12
X2.6708 Y3.1652
Z0.05
Z0.025
X2.6707 Y3.1649 Z0.0211
X2.6705 Y3.1641 Z0.0173
X2.6701 Y3.1626 Z0.0137
X2.6696 Y3.1606 Z0.0103
X2.669 Y3.1582 Z0.0073
X2.6682 Y3.1553 Z0.0048
X2.6674 Y3.152 Z0.0027
X2.6665 Y3.1485 Z0.0012
X2.6655 Y3.1448 Z0.0003
X2.6646 Y3.141 Z0.
G3 X2.645 Y3.0049 I0.6183 J-0.1584
G1 Y2.9981
X2.6451 Y2.9966
X2.6703 Y2.9706
X2.6919 Y2.9416
X2.7082 Y2.9093
X2.7202 Y2.8752
X2.7288 Y2.8401
X2.7349 Y2.8044
X2.7393 Y2.7685
X2.7423 Y2.7324
X2.7443 Y2.6963
X2.7458 Y2.6601
X2.7468 Y2.624
X2.7475 Y2.5878
X2.748 Y2.5516
X2.7483 Y2.5154
X2.7485 Y2.4793
X2.7487 Y2.4431
X2.7489 Y2.3707
X2.749 Y2.2622
X2.7491 Y1.9003
X2.7493 Y1.032
X2.7495 Y0.0912
X2.7371 Y0.0572
X2.7142 Y0.0292
X2.6854 Y0.0074
X2.6531 Y-0.009
X2.619 Y-0.0211
X2.5839 Y-0.0297
X2.5482 Y-0.0359
X2.5123 Y-0.0402
X2.4763 Y-0.0433
X2.4401 Y-0.0454
X2.404 Y-0.0468
X2.3678 Y-0.0478
X2.3316 Y-0.0485
X2.2955 Y-0.049
X2.2593 Y-0.0493
X2.2231 Y-0.0495
X2.1808 Y-0.0497
X2.166 Y-0.0512
X2.1518 Y-0.0556
X2.1387 Y-0.0628
X2.1273 Y-0.0723
X2.118 Y-0.084
G3 X2.1203 Y-0.1129 I0.0215 J-0.0128
G1 X2.1228 Y-0.1159 Z0.0003
X2.1253 Y-0.1188 Z0.0012
X2.1276 Y-0.1216 Z0.0027
X2.1298 Y-0.1241 Z0.0048
X2.1317 Y-0.1264 Z0.0073
X2.1333 Y-0.1284 Z0.0103
X2.1346 Y-0.1299 Z0.0137
X2.1356 Y-0.1311 Z0.0173
X2.1362 Y-0.1318 Z0.0211
X2.1364 Y-0.132 Z0.025
Z1.12
X0.5442 Y-0.2372
Z0.05
Z0.025
X0.544 Y-0.237 Z0.0211
X0.5434 Y-0.2363 Z0.0173
X0.5425 Y-0.2352 Z0.0137
X0.5411 Y-0.2336 Z0.0103
X0.5394 Y-0.2317 Z0.0073
X0.5375 Y-0.2295 Z0.0048
X0.5353 Y-0.2269 Z0.0027
X0.5329 Y-0.2242 Z0.0012
X0.5304 Y-0.2213 Z0.0003
X0.5278 Y-0.2184 Z0.
G3 X0.427 Y-0.1249 I-0.4816 J-0.4188
G1 X0.4063 Y-0.1107
X0.4053 Y-0.1096
X0.4009 Y-0.1054
X0.3943 Y-0.1009
X0.3859 Y-0.096
X0.3753 Y-0.0906
X0.3619 Y-0.0849
X0.3447 Y-0.0789
X0.322 Y-0.0725
X0.2906 Y-0.0658
X0.2548 Y-0.0606
X0.2188 Y-0.057
X0.1827 Y-0.0547
X0.1466 Y-0.053
X0.1104 Y-0.0519
X0.1014 Y-0.0511
X0.0837 Y-0.0472
X0.0509 Y-0.0319
X0.0244 Y-0.0072
X0.004 Y0.0226
X-0.0113 Y0.0554
X-0.0224 Y0.0898
X-0.0304 Y0.1251
X-0.0361 Y0.1609
X-0.0401 Y0.1968
X-0.0429 Y0.2329
X-0.0448 Y0.269
X-0.0462 Y0.3052
X-0.0471 Y0.3414
X-0.0477 Y0.3775
X-0.0482 Y0.4137
X-0.0485 Y0.4499
X-0.0487 Y0.4861
X-0.0489 Y0.5223
X-0.0491 Y0.5946
X-0.0493 Y0.7393
X-0.0498 Y1.5715
X-0.0499 Y1.8195
X-0.0514 Y1.8341
X-0.0556 Y1.8482
X-0.0625 Y1.8611
X-0.0719 Y1.8725
X-0.0832 Y1.8818
G3 X-0.1121 Y1.8799 I-0.0132 J-0.0213
G1 X-0.1152 Y1.8775 Z0.0003
X-0.1181 Y1.8751 Z0.0012
X-0.121 Y1.8728 Z0.0027
X-0.1235 Y1.8707 Z0.0048
X-0.1259 Y1.8688 Z0.0073
X-0.1278 Y1.8672 Z0.0103
X-0.1294 Y1.8659 Z0.0137
X-0.1306 Y1.8649 Z0.0173
X-0.1313 Y1.8644 Z0.0211
X-0.1315 Y1.8642 Z0.025
Z1.12
X0.4248 Y-0.1615
Z0.05
Z0.025
X0.4247 Y-0.1612 Z0.0211
X0.4245 Y-0.1603 Z0.0173
X0.4242 Y-0.1589 Z0.0137
X0.4237 Y-0.1569 Z0.0103
X0.4232 Y-0.1544 Z0.0073
X0.4225 Y-0.1515 Z0.0048
X0.4218 Y-0.1482 Z0.0027
X0.421 Y-0.1447 Z0.0012
X0.4202 Y-0.1409 Z0.0003
X0.4193 Y-0.1371 Z0.
G3 X0.4053 Y-0.1096 I-0.0608 J-0.0136
G1 X0.3868 Y-0.09
X0.3834 Y-0.0862
X0.381 Y-0.0824
X0.376 Y-0.0742
X0.3727 Y-0.0692
X0.3689 Y-0.0644
X0.3638 Y-0.059
X0.3582 Y-0.0535
X0.3514 Y-0.0477
X0.3427 Y-0.0413
X0.3328 Y-0.0348
X0.3206 Y-0.028
X0.3058 Y-0.0209
X0.2875 Y-0.0136
X0.2648 Y-0.0061
X0.2352 Y0.0016
X0.1997 Y0.0085
X0.1656 Y0.0207
X0.1354 Y0.0406
X0.1101 Y0.0665
X0.0896 Y0.0963
X0.0735 Y0.1287
X0.0611 Y0.1627
X0.0517 Y0.1976
X0.0447 Y0.2331
X0.0395 Y0.2689
X0.0357 Y0.3049
X0.0329 Y0.341
X0.0309 Y0.3771
X0.0294 Y0.4133
X0.0284 Y0.4494
X0.0276 Y0.4856
X0.0271 Y0.5218
X0.0267 Y0.558
X0.0264 Y0.5942
X0.0262 Y0.6303
X0.0259 Y0.7027
X0.0257 Y0.8112
X0.0255 Y1.0283
X0.0252 Y1.7158
X0.025 Y1.752
X0.0236 Y1.7767
X0.0215 Y1.7942
X0.0204 Y1.8005
X0.0162 Y1.8147
X0.0094 Y1.8279
X0. Y1.8395
X-0.0114 Y1.8489
X-0.0245 Y1.856
X-0.0387 Y1.8603
G3 X-0.0651 Y1.8484 I-0.0049 J-0.0245
G1 X-0.0671 Y1.845 Z0.0003
X-0.069 Y1.8418 Z0.0012
X-0.0708 Y1.8386 Z0.0027
X-0.0725 Y1.8357 Z0.0048
X-0.074 Y1.8332 Z0.0073
X-0.0753 Y1.831 Z0.0103
X-0.0764 Y1.8292 Z0.0137
X-0.0771 Y1.8279 Z0.0173
X-0.0776 Y1.8271 Z0.0211
X-0.0777 Y1.8268 Z0.025
Z1.12
X0.384 Y-0.1291
Z0.05
Z0.025
Y-0.1288 Z0.0211
Y-0.1279 Z0.0173
Y-0.1264 Z0.0137
Y-0.1243 Z0.0103
Y-0.1218 Z0.0073
Y-0.1188 Z0.0048
X0.3839 Y-0.1155 Z0.0027
Y-0.1118 Z0.0012
Y-0.108 Z0.0003
Y-0.1041 Z0.
G3 X0.376 Y-0.0742 I-0.0623 J-0.0004
G1 X0.3711 Y-0.066
X0.3703 Y-0.0647
X0.3611 Y-0.0413
X0.3604 Y-0.0389
X0.3586 Y-0.0332
X0.3562 Y-0.0276
X0.3534 Y-0.0223
X0.3501 Y-0.0168
X0.346 Y-0.0111
X0.3408 Y-0.0045
X0.335 Y0.0018
X0.3276 Y0.0089
X0.3187 Y0.0164
X0.3087 Y0.0239
X0.2783 Y0.0435
X0.2475 Y0.0625
X0.2195 Y0.0855
X0.1952 Y0.1123
X0.1748 Y0.1421
X0.158 Y0.1742
X0.1446 Y0.2078
X0.134 Y0.2424
X0.1258 Y0.2776
X0.1195 Y0.3133
X0.1147 Y0.3491
X0.1111 Y0.3851
X0.1084 Y0.4212
X0.1064 Y0.4573
X0.1049 Y0.4935
X0.1038 Y0.5296
X0.1029 Y0.5658
X0.1023 Y0.602
X0.1019 Y0.6382
X0.1015 Y0.6743
X0.1013 Y0.7105
X0.1011 Y0.7467
X0.1009 Y0.8191
X0.1007 Y0.9276
X0.1005 Y1.1447
X0.1002 Y1.6513
X0.0999 Y1.6874
X0.0988 Y1.7236
X0.0965 Y1.7488
X0.0937 Y1.7673
X0.0904 Y1.7825
X0.0863 Y1.7964
X0.082 Y1.8086
X0.0773 Y1.8194
X0.0718 Y1.8301
X0.0666 Y1.8388
X0.0603 Y1.848
X0.0563 Y1.8518
X0.0514 Y1.8542
X0.0459 Y1.855
X0.0086
X0.0004 Y1.8553
X-0.0041 Y1.8555
G3 X-0.028 Y1.839 I-0.0003 J-0.025
G1 X-0.0293 Y1.8353 Z0.0003
X-0.0306 Y1.8317 Z0.0012
X-0.0318 Y1.8283 Z0.0027
X-0.033 Y1.8252 Z0.0048
X-0.034 Y1.8224 Z0.0073
X-0.0348 Y1.82 Z0.0103
X-0.0355 Y1.8181 Z0.0137
X-0.036 Y1.8166 Z0.0173
X-0.0363 Y1.8158 Z0.0211
X-0.0365 Y1.8155 Z0.025
Z1.12
X0.3532 Y-0.0939
Z0.05
Z0.025
Y-0.0936 Z0.0211
X0.3535 Y-0.0927 Z0.0173
X0.3539 Y-0.0912 Z0.0137
X0.3544 Y-0.0893 Z0.0103
X0.3551 Y-0.0868 Z0.0073
X0.3559 Y-0.0839 Z0.0048
X0.3568 Y-0.0807 Z0.0027
X0.3578 Y-0.0772 Z0.0012
X0.3588 Y-0.0735 Z0.0003
X0.3598 Y-0.0698 Z0.
G3 X0.3604 Y-0.0389 I-0.0601 J0.0166
G1 X0.3589 Y-0.0331
X0.3574 Y-0.0249
X0.3561 Y-0.0167
X0.3555 Y-0.004
X0.3549 Y0.002
X0.3539 Y0.0079
X0.3523 Y0.0137
X0.3502 Y0.0199
X0.3471 Y0.0271
X0.3431 Y0.0351
X0.3365 Y0.0465
X0.3163 Y0.0766
X0.2947 Y0.1055
X0.2742 Y0.1354
X0.2559 Y0.1666
X0.2401 Y0.1992
X0.2268 Y0.2328
X0.2159 Y0.2673
X0.207 Y0.3024
X0.1999 Y0.3378
X0.1943 Y0.3736
X0.1899 Y0.4095
X0.1865 Y0.4455
X0.1838 Y0.4816
X0.1818 Y0.5177
X0.1803 Y0.5539
X0.1791 Y0.59
X0.1783 Y0.6262
X0.1776 Y0.6624
X0.1771 Y0.6986
X0.1767 Y0.7347
X0.1764 Y0.7709
X0.1762 Y0.8071
X0.1759 Y0.8795
X0.1757 Y0.988
X0.1755 Y1.1689
X0.1752 Y1.5669
X0.1751 Y1.6031
X0.1748 Y1.6393
X0.1737 Y1.6755
X0.1713 Y1.7116
X0.1676 Y1.7406
X0.1628 Y1.7654
X0.1572 Y1.7866
X0.151 Y1.8053
X0.1499 Y1.8081
X0.143 Y1.8212
X0.1337 Y1.8327
X0.1223 Y1.8422
X0.1092 Y1.8492
X0.0951 Y1.8535
X0.0804 Y1.855
X0.0459
G3 X0.0229 Y1.8374 I0.0009 J-0.025
G1 X0.0217 Y1.8336 Z0.0003
X0.0206 Y1.83 Z0.0012
X0.0195 Y1.8265 Z0.0027
X0.0185 Y1.8233 Z0.0048
X0.0177 Y1.8205 Z0.0073
X0.0169 Y1.8181 Z0.0103
X0.0163 Y1.8161 Z0.0137
X0.0159 Y1.8147 Z0.0173
X0.0156 Y1.8138 Z0.0211
X0.0155 Y1.8135 Z0.025
Z1.12
X0.3366 Y-0.0561
Z0.05
Z0.025
X0.3367 Y-0.0558 Z0.0211
X0.3371 Y-0.055 Z0.0173
X0.3379 Y-0.0537 Z0.0137
X0.3388 Y-0.0519 Z0.0103
X0.34 Y-0.0496 Z0.0073
X0.3414 Y-0.047 Z0.0048
X0.343 Y-0.0441 Z0.0027
X0.3447 Y-0.0409 Z0.0012
X0.3464 Y-0.0375 Z0.0003
X0.3483 Y-0.034 Z0.
G3 X0.3555 Y-0.004 I-0.0551 J0.0292
G1 X0.3553 Y-0.0003
X0.355 Y0.0079
Y0.0572
X0.3545 Y0.0663
X0.3533 Y0.0773
X0.3504 Y0.0934
X0.3436 Y0.1208
X0.3327 Y0.1553
X0.321 Y0.1896
X0.3098 Y0.224
X0.2996 Y0.2587
X0.2905 Y0.2937
X0.2828 Y0.3291
X0.2764 Y0.3647
X0.271 Y0.4004
X0.2667 Y0.4364
X0.2632 Y0.4724
X0.2604 Y0.5084
X0.2582 Y0.5446
X0.2564 Y0.5807
X0.2551 Y0.6169
X0.254 Y0.653
X0.2532 Y0.6892
X0.2526 Y0.7254
X0.2521 Y0.7616
X0.2517 Y0.7977
X0.2514 Y0.8339
X0.2512 Y0.8701
X0.2509 Y0.9425
X0.2507 Y1.051
X0.2504 Y1.2319
X0.2502 Y1.5214
X0.2501 Y1.5575
X0.2497 Y1.5937
X0.2488 Y1.6299
X0.2469 Y1.666
X0.2437 Y1.7021
X0.2388 Y1.7361
X0.2339 Y1.7595
X0.229 Y1.777
X0.2236 Y1.7929
X0.2183 Y1.8054
X0.2122 Y1.8177
X0.2046 Y1.8283
X0.1954 Y1.8375
X0.1847 Y1.845
X0.1729 Y1.8505
X0.1603 Y1.8539
X0.1473 Y1.855
X0.0804
G3 X0.0573 Y1.8374 I0.0009 J-0.025
G1 X0.0562 Y1.8336 Z0.0003
X0.0551 Y1.83 Z0.0012
X0.054 Y1.8265 Z0.0027
X0.053 Y1.8233 Z0.0048
X0.0521 Y1.8205 Z0.0073
X0.0514 Y1.8181 Z0.0103
X0.0508 Y1.8161 Z0.0137
X0.0503 Y1.8147 Z0.0173
X0.0501 Y1.8138 Z0.0211
X0.05 Y1.8135 Z0.025
Z1.12
X0.3335 Y0.0061
Z0.05
Z0.025
X0.3337 Y0.0063 Z0.0211
X0.3341 Y0.0071 Z0.0173
X0.3349 Y0.0084 Z0.0137
X0.336 Y0.0102 Z0.0103
X0.3373 Y0.0124 Z0.0073
X0.3388 Y0.0149 Z0.0048
X0.3405 Y0.0178 Z0.0027
X0.3423 Y0.0209 Z0.0012
X0.3443 Y0.0242 Z0.0003
X0.3463 Y0.0276 Z0.
G3 X0.355 Y0.0572 I-0.0536 J0.0318
G1 Y0.2462
X0.3532 Y0.2823
X0.3514 Y0.3184
X0.3487 Y0.3545
X0.3425 Y0.4266
X0.3397 Y0.4627
X0.3372 Y0.4988
X0.335 Y0.5349
X0.3332 Y0.571
X0.3316 Y0.6072
X0.3304 Y0.6434
X0.3294 Y0.6795
X0.3285 Y0.7157
X0.3279 Y0.7519
X0.3274 Y0.788
X0.327 Y0.8242
X0.3266 Y0.8604
X0.3264 Y0.8966
X0.3262 Y0.9328
X0.3259 Y1.0051
X0.3256 Y1.1137
X0.3254 Y1.2946
X0.3253 Y1.4393
X0.3252 Y1.4755
X0.3251 Y1.5117
X0.3247 Y1.5479
X0.3239 Y1.584
X0.3225 Y1.6202
X0.3201 Y1.6563
X0.3165 Y1.6923
X0.3114 Y1.7255
X0.3053 Y1.7536
X0.2996 Y1.7736
X0.2936 Y1.7905
X0.2875 Y1.8046
X0.2814 Y1.8166
X0.2805 Y1.8182
X0.2729 Y1.8287
X0.2637 Y1.8378
X0.2531 Y1.8452
X0.2413 Y1.8506
X0.2288 Y1.8539
X0.2159 Y1.855
X0.1473
G3 X0.1243 Y1.8374 I0.0009 J-0.025
G1 X0.1231 Y1.8336 Z0.0003
X0.122 Y1.83 Z0.0012
X0.1209 Y1.8265 Z0.0027
X0.1199 Y1.8233 Z0.0048
X0.1191 Y1.8205 Z0.0073
X0.1183 Y1.8181 Z0.0103
X0.1177 Y1.8161 Z0.0137
X0.1173 Y1.8147 Z0.0173
X0.117 Y1.8138 Z0.0211
X0.1169 Y1.8135 Z0.025
Z1.12
X0.3335 Y0.195
Z0.05
Z0.025
X0.3337 Y0.1953 Z0.0211
X0.3341 Y0.1961 Z0.0173
X0.3349 Y0.1974 Z0.0137
X0.336 Y0.1991 Z0.0103
X0.3373 Y0.2013 Z0.0073
X0.3388 Y0.2039 Z0.0048
X0.3405 Y0.2067 Z0.0027
X0.3423 Y0.2099 Z0.0012
X0.3443 Y0.2131 Z0.0003
X0.3463 Y0.2165 Z0.
G3 X0.355 Y0.2462 I-0.0536 J0.0318
G1 Y1.7412
X0.3542 Y1.7575
X0.3528 Y1.7699
X0.3506 Y1.7822
X0.3479 Y1.7931
X0.3445 Y1.8036
X0.3432 Y1.8071
X0.3364 Y1.8205
X0.3271 Y1.8322
X0.3156 Y1.8419
X0.3025 Y1.8491
X0.2882 Y1.8535
X0.2733 Y1.855
G3 X0.2491 Y1.8292 Z0.008 I0.0009 J-0.025
G3 X0.253 Y1.8166 I0.025 J0.0009
G1 X0.3089 Y1.7287
G3 X0.3292 Y1.7171 I0.0211 J0.0134
G3 X0.355 Y1.7412 Z0. I0.0009 J0.025
G1 Y1.807
X0.3549 Y1.8111
X0.3542 Y1.8152
X0.3539 Y1.8162
X0.3525 Y1.8198
X0.3503 Y1.8234
X0.3483 Y1.8259
X0.3457 Y1.8284
X0.3244 Y1.848
X0.321 Y1.8508
X0.3189 Y1.852
X0.3169 Y1.853
X0.3128 Y1.8543
X0.3087 Y1.8549
X0.3046 Y1.855
X0.2159
G3 X0.1929 Y1.8374 I0.0009 J-0.025
G1 X0.1918 Y1.8336 Z0.0003
X0.1906 Y1.83 Z0.0012
X0.1896 Y1.8265 Z0.0027
X0.1886 Y1.8233 Z0.0048
X0.1877 Y1.8205 Z0.0073
X0.1869 Y1.8181 Z0.0103
X0.1863 Y1.8161 Z0.0137
X0.1859 Y1.8147 Z0.0173
X0.1856 Y1.8138 Z0.0211
X0.1855 Y1.8135 Z0.025
Z1.12
X2.6665 Y3.0492
Z0.05
Z0.025
X2.6663 Y3.049 Z0.0211
X2.6659 Y3.0482 Z0.0173
X2.6651 Y3.0469 Z0.0137
X2.6641 Y3.0451 Z0.0103
X2.6627 Y3.0429 Z0.0073
X2.6612 Y3.0404 Z0.0048
X2.6595 Y3.0375 Z0.0027
X2.6577 Y3.0344 Z0.0012
X2.6557 Y3.0311 Z0.0003
X2.6537 Y3.0277 Z0.
G3 X2.645 Y2.9981 I0.0536 J-0.0318
G1 Y2.9324
X2.6452 Y2.9289
X2.6489 Y2.8929
X2.6532 Y2.857
X2.6572 Y2.821
X2.6608 Y2.785
X2.6638 Y2.7489
X2.6662 Y2.7128
X2.6681 Y2.6767
X2.6696 Y2.6406
X2.6707 Y2.6044
X2.6716 Y2.5682
X2.6722 Y2.532
X2.6727 Y2.4959
X2.6731 Y2.4597
X2.6733 Y2.4235
X2.6735 Y2.3873
X2.6738 Y2.315
X2.6739 Y2.2064
X2.6741 Y1.9893
X2.6743 Y0.94
X2.6744 Y0.2164
X2.6698 Y0.1805
X2.6547 Y0.1476
X2.6319 Y0.1195
X2.6039 Y0.0966
X2.5726 Y0.0785
X2.5392 Y0.0645
X2.5046 Y0.0539
X2.4693 Y0.046
X2.4336 Y0.0401
X2.3977 Y0.0359
X2.3616 Y0.0328
X2.3255 Y0.0305
X2.2894 Y0.0289
X2.2532 Y0.0277
X2.2259 Y0.0259
X2.2072 Y0.0235
X2.2006 Y0.0222
X2.1869 Y0.0181
X2.1743 Y0.0117
X2.163 Y0.003
X2.1535 Y-0.0076
X2.1461 Y-0.0198
X2.1411 Y-0.0331
G3 X2.1521 Y-0.06 I0.0243 J-0.0057
G1 X2.1554 Y-0.0621 Z0.0003
X2.1586 Y-0.0641 Z0.0012
X2.1617 Y-0.0661 Z0.0027
X2.1645 Y-0.0678 Z0.0048
X2.167 Y-0.0694 Z0.0073
X2.1692 Y-0.0708 Z0.0103
X2.1709 Y-0.0719 Z0.0137
X2.1721 Y-0.0727 Z0.0173
X2.1729 Y-0.0732 Z0.0211
X2.1732 Y-0.0734 Z0.025
Z1.12
X2.6665 Y2.9835
Z0.05
Z0.025
X2.6663 Y2.9833 Z0.0211
X2.6659 Y2.9825 Z0.0173
X2.6651 Y2.9812 Z0.0137
X2.6641 Y2.9794 Z0.0103
X2.6627 Y2.9772 Z0.0073
X2.6612 Y2.9747 Z0.0048
X2.6595 Y2.9718 Z0.0027
X2.6577 Y2.9687 Z0.0012
X2.6557 Y2.9654 Z0.0003
X2.6537 Y2.962 Z0.
G3 X2.645 Y2.9324 I0.0536 J-0.0318
G1 Y2.0041
X2.6446 Y1.9959
X2.6433 Y1.9795
X2.6417 Y1.9712
X2.6376 Y1.9548
X2.6348 Y1.9466
X2.6342 Y1.9453
X2.6319 Y1.9398
X2.6258 Y1.9207
X2.6193 Y1.8952
X2.6126 Y1.8596
X2.6083 Y1.8237
X2.6053 Y1.7877
X2.6034 Y1.7515
X2.602 Y1.7154
X2.6011 Y1.6792
X2.6005 Y1.643
X2.6001 Y1.6068
X2.5998 Y1.5707
X2.5996 Y1.5345
X2.5995 Y1.4983
X2.5993 Y1.4259
Y1.2812
X2.5994 Y0.3767
Y0.3043
X2.5936 Y0.2686
X2.5789 Y0.2355
X2.5571 Y0.2066
X2.5302 Y0.1825
X2.4997 Y0.163
X2.467 Y0.1476
X2.4328 Y0.1356
X2.3978 Y0.1264
X2.3623 Y0.1195
X2.3265 Y0.1142
X2.2906 Y0.1097
X2.2548 Y0.1047
X2.2327 Y0.1002
X2.2163 Y0.0957
X2.2008 Y0.0904
X2.1886 Y0.0853
X2.1868 Y0.0845
X2.175 Y0.0772
X2.1647 Y0.0679
X2.1563 Y0.0568
X2.1501 Y0.0444
X2.1463 Y0.031
X2.145 Y0.0172
Y0.0079
X2.1447 Y-0.0003
X2.1439 Y-0.0167
X2.1426 Y-0.0249
X2.1411 Y-0.0331
G3 X2.1544 Y-0.0589 I0.0247 J-0.0036
G1 X2.1579 Y-0.0607 Z0.0003
X2.1613 Y-0.0625 Z0.0012
X2.1645 Y-0.0641 Z0.0027
X2.1675 Y-0.0657 Z0.0048
X2.1701 Y-0.067 Z0.0073
X2.1724 Y-0.0682 Z0.0103
X2.1742 Y-0.0691 Z0.0137
X2.1755 Y-0.0698 Z0.0173
X2.1763 Y-0.0702 Z0.0211
X2.1766 Y-0.0704 Z0.025
Z1.12
X2.6753 Y1.9826
Z0.05
Z0.025
X2.675 Y1.9824 Z0.0211
X2.6743 Y1.9819 Z0.0173
X2.673 Y1.9811 Z0.0137
X2.6713 Y1.9799 Z0.0103
X2.6692 Y1.9785 Z0.0073
X2.6668 Y1.9768 Z0.0048
X2.664 Y1.9749 Z0.0027
X2.661 Y1.9729 Z0.0012
X2.6578 Y1.9707 Z0.0003
X2.6546 Y1.9685 Z0.
G3 X2.6342 Y1.9453 I0.0351 J-0.0515
G1 X2.6309 Y1.9384
X2.6269 Y1.9302
X2.6147 Y1.9123
X2.61 Y1.9055
X2.6065 Y1.9016
X2.6023 Y1.8973
X2.6001 Y1.8952
X2.5949 Y1.8896
X2.5899 Y1.8836
X2.5844 Y1.8759
X2.5786 Y1.8666
X2.5725 Y1.8553
X2.566 Y1.8411
X2.5593 Y1.8235
X2.5523 Y1.801
X2.545 Y1.7711
X2.5387 Y1.7355
X2.5344 Y1.6995
X2.5313 Y1.6635
X2.5292 Y1.6274
X2.5277 Y1.5912
X2.5267 Y1.555
X2.5259 Y1.5189
X2.5254 Y1.4827
X2.5251 Y1.4465
X2.5248 Y1.4103
X2.5246 Y1.3741
X2.5244 Y1.3018
X2.5243 Y1.1932
Y0.94
X2.5244 Y0.3972
X2.5203 Y0.3613
X2.5081 Y0.3272
X2.4885 Y0.2968
X2.4634 Y0.2708
X2.4343 Y0.2493
X2.4025 Y0.2319
X2.3691 Y0.218
X2.3348 Y0.2066
X2.3 Y0.1967
X2.2651 Y0.187
X2.2334 Y0.1772
X2.2134 Y0.1695
X2.1967 Y0.1619
X2.184 Y0.1551
X2.1716 Y0.1474
X2.1619 Y0.1405
X2.1548 Y0.1332
X2.1494 Y0.1245
X2.1461 Y0.1149
X2.145 Y0.1048
Y0.0172
G3 X2.1626 Y-0.0058 I0.025 J0.0009
G1 X2.1664 Y-0.007 Z0.0003
X2.17 Y-0.0081 Z0.0012
X2.1735 Y-0.0092 Z0.0027
X2.1767 Y-0.0102 Z0.0048
X2.1795 Y-0.011 Z0.0073
X2.1819 Y-0.0118 Z0.0103
X2.1839 Y-0.0124 Z0.0137
X2.1853 Y-0.0128 Z0.0173
X2.1862 Y-0.0131 Z0.0211
X2.1865 Y-0.0132 Z0.025
Z1.12
X2.6518 Y1.9154
Z0.05
Z0.025
X2.6515 Y1.9153 Z0.0211
X2.6506 Y1.9151 Z0.0173
X2.6491 Y1.9148 Z0.0137
X2.6471 Y1.9143 Z0.0103
X2.6446 Y1.9137 Z0.0073
X2.6417 Y1.913 Z0.0048
X2.6385 Y1.9122 Z0.0027
X2.6349 Y1.9114 Z0.0012
X2.6312 Y1.9105 Z0.0003
X2.6274 Y1.9096 Z0.
G3 X2.6001 Y1.8952 I0.0144 J-0.0606
G1 X2.5983 Y1.8934
X2.5934 Y1.8891
X2.5901 Y1.8864
X2.5818 Y1.8809
X2.5644 Y1.8702
X2.5633 Y1.8698
X2.5579 Y1.8673
X2.5528 Y1.8639
X2.5477 Y1.86
X2.542 Y1.8549
X2.5356 Y1.8485
X2.5295 Y1.8415
X2.5226 Y1.8327
X2.5153 Y1.8219
X2.5082 Y1.8097
X2.5004 Y1.7942
X2.4927 Y1.7761
X2.4848 Y1.7533
X2.4766 Y1.7242
X2.4691 Y1.6888
X2.4636 Y1.653
X2.4597 Y1.617
X2.4568 Y1.581
X2.4547 Y1.5448
X2.4532 Y1.5087
X2.4521 Y1.4725
X2.4513 Y1.4364
X2.4507 Y1.4002
X2.4503 Y1.364
X2.45 Y1.3278
X2.4498 Y1.2916
X2.4496 Y1.2555
X2.4495 Y1.1831
X2.4493 Y1.0745
Y0.8213
X2.4494 Y0.4956
X2.4481 Y0.4595
X2.4398 Y0.4243
X2.4239 Y0.3917
X2.4018 Y0.3631
X2.3752 Y0.3385
X2.3457 Y0.3177
X2.3143 Y0.2997
X2.2818 Y0.2838
X2.2489 Y0.2686
X2.2162 Y0.2531
X2.1913 Y0.24
X2.1808 Y0.2335
X2.1705 Y0.226
X2.1617 Y0.2168
X2.1546 Y0.2062
X2.1493 Y0.1946
X2.1461 Y0.1823
X2.145 Y0.1696
Y0.1048
G3 X2.1626 Y0.0818 I0.025 J0.0009
G1 X2.1664 Y0.0806 Z0.0003
X2.17 Y0.0795 Z0.0012
X2.1735 Y0.0785 Z0.0027
X2.1767 Y0.0775 Z0.0048
X2.1795 Y0.0766 Z0.0073
X2.1819 Y0.0758 Z0.0103
X2.1839 Y0.0752 Z0.0137
X2.1853 Y0.0748 Z0.0173
X2.1862 Y0.0745 Z0.0211
X2.1865 Y0.0744 Z0.025
Z1.12
X2.6188 Y1.8685
Z0.05
Z0.025
X2.6185 Z0.0211
X2.6176 Y1.8687 Z0.0173
X2.6161 Y1.8689 Z0.0137
X2.6141 Y1.8692 Z0.0103
X2.6116 Y1.8697 Z0.0073
X2.6086 Y1.8701 Z0.0048
X2.6053 Y1.8707 Z0.0027
X2.6018 Y1.8713 Z0.0012
X2.598 Y1.8719 Z0.0003
X2.5941 Y1.8725 Z0.
G3 X2.5633 Y1.8698 I-0.0101 J-0.0615
G1 X2.5407 Y1.8609
X2.5397 Y1.8605
X2.5387 Y1.8603
X2.528 Y1.8582
X2.5222 Y1.8567
X2.5165 Y1.8548
X2.511 Y1.8525
X2.5056 Y1.8497
X2.4995 Y1.8461
X2.4934 Y1.8419
X2.4866 Y1.8366
X2.4795 Y1.8303
X2.4721 Y1.8228
X2.464 Y1.8134
X2.4562 Y1.8031
X2.4475 Y1.79
X2.439 Y1.7754
X2.43 Y1.757
X2.4213 Y1.7361
X2.4123 Y1.7097
X2.4032 Y1.6762
X2.3959 Y1.6408
X2.3905 Y1.605
X2.3864 Y1.5691
X2.3833 Y1.533
X2.381 Y1.4969
X2.3792 Y1.4608
X2.3779 Y1.4246
X2.377 Y1.3885
X2.3763 Y1.3523
X2.3757 Y1.3161
X2.3753 Y1.2799
X2.3751 Y1.2437
X2.3748 Y1.2076
X2.3747 Y1.1714
X2.3745 Y1.099
X2.3744 Y0.9905
X2.3743 Y0.7734
X2.3744 Y0.5925
X2.3742 Y0.5563
X2.3696 Y0.5204
X2.3579 Y0.4861
X2.34 Y0.4547
X2.3172 Y0.4266
X2.2911 Y0.4016
X2.2627 Y0.3791
X2.2331 Y0.3584
X2.203 Y0.3383
X2.1799 Y0.3219
X2.1728 Y0.3162
X2.1632 Y0.3069
X2.1554 Y0.2961
X2.1497 Y0.284
X2.1462 Y0.2712
X2.145 Y0.2579
Y0.1696
G3 X2.1626 Y0.1466 I0.025 J0.0009
G1 X2.1664 Y0.1454 Z0.0003
X2.17 Y0.1443 Z0.0012
X2.1735 Y0.1432 Z0.0027
X2.1767 Y0.1422 Z0.0048
X2.1795 Y0.1413 Z0.0073
X2.1819 Y0.1406 Z0.0103
X2.1839 Y0.14 Z0.0137
X2.1853 Y0.1396 Z0.0173
X2.1862 Y0.1393 Z0.0211
X2.1865 Y0.1392 Z0.025
Z1.12
X2.5823 Y1.8471
Z0.05
Z0.025
X2.5821 Y1.8472 Z0.0211
X2.5812 Y1.8475 Z0.0173
X2.5798 Y1.848 Z0.0137
X2.5778 Y1.8487 Z0.0103
X2.5754 Y1.8495 Z0.0073
X2.5726 Y1.8505 Z0.0048
X2.5695 Y1.8516 Z0.0027
X2.5661 Y1.8528 Z0.0012
X2.5625 Y1.8541 Z0.0003
X2.5588 Y1.8554 Z0.
G3 X2.528 Y1.8582 I-0.0208 J-0.0587
G1 X2.5182 Y1.8562
X2.5161 Y1.8561
X2.4996 Y1.8553
X2.4914 Y1.855
X2.49
X2.484 Y1.8547
X2.4781 Y1.8538
X2.4723 Y1.8525
X2.4664 Y1.8507
X2.4605 Y1.8484
X2.4538 Y1.8453
X2.4471 Y1.8417
X2.4394 Y1.8369
X2.4318 Y1.8315
X2.4234 Y1.8246
X2.4151 Y1.8169
X2.4059 Y1.8071
X2.3969 Y1.7963
X2.3871 Y1.7828
X2.3775 Y1.7676
X2.3673 Y1.7491
X2.3576 Y1.7282
X2.3475 Y1.7023
X2.3374 Y1.6707
X2.3286 Y1.6356
X2.3218 Y1.6
X2.3166 Y1.5642
X2.3125 Y1.5283
X2.3093 Y1.4922
X2.3069 Y1.4561
X2.3051 Y1.42
X2.3037 Y1.3838
X2.3026 Y1.3477
X2.3018 Y1.3115
X2.3011 Y1.2753
X2.3007 Y1.2392
X2.3003 Y1.203
X2.3001 Y1.1668
X2.2999 Y1.1306
X2.2996 Y1.0582
X2.2994 Y0.9497
Y0.7688
X2.2993 Y0.6602
X2.2985 Y0.6241
X2.2928 Y0.5883
X2.2812 Y0.5541
X2.2643 Y0.5221
X2.2432 Y0.4926
X2.2193 Y0.4655
X2.1936 Y0.44
X2.1675 Y0.415
X2.1657 Y0.4131
X2.1569 Y0.4019
X2.1504 Y0.3892
X2.1464 Y0.3755
X2.145 Y0.3613
Y0.2579
G3 X2.1626 Y0.2349 I0.025 J0.0009
G1 X2.1664 Y0.2337 Z0.0003
X2.17 Y0.2326 Z0.0012
X2.1735 Y0.2315 Z0.0027
X2.1767 Y0.2306 Z0.0048
X2.1795 Y0.2297 Z0.0073
X2.1819 Y0.2289 Z0.0103
X2.1839 Y0.2283 Z0.0137
X2.1853 Y0.2279 Z0.0173
X2.1862 Y0.2276 Z0.0211
X2.1865 Y0.2275 Z0.025
Z1.12
X2.5412 Y1.8335
Z0.05
Z0.025
X2.5409 Y1.8337 Z0.0211
X2.5401 Y1.8341 Z0.0173
X2.5388 Y1.8349 Z0.0137
X2.5371 Y1.836 Z0.0103
X2.5349 Y1.8373 Z0.0073
X2.5323 Y1.8388 Z0.0048
X2.5295 Y1.8405 Z0.0027
X2.5263 Y1.8423 Z0.0012
X2.5231 Y1.8443 Z0.0003
X2.5197 Y1.8463 Z0.
G3 X2.49 Y1.855 I-0.0318 J-0.0536
G1 X2.4376
X2.4316 Y1.8547
X2.4256 Y1.8539
X2.4197 Y1.8526
X2.4135 Y1.8509
X2.4066 Y1.8485
X2.3994 Y1.8455
X2.3916 Y1.8415
X2.3835 Y1.8368
X2.3746 Y1.8308
X2.3656 Y1.8239
X2.3561 Y1.8155
X2.3462 Y1.8056
X2.336 Y1.794
X2.3253 Y1.7802
X2.3146 Y1.7644
X2.3033 Y1.7451
X2.2926 Y1.7238
X2.2815 Y1.6977
X2.2705 Y1.6662
X2.2607 Y1.6314
X2.2529 Y1.596
X2.2467 Y1.5604
X2.2418 Y1.5245
X2.2379 Y1.4886
X2.2349 Y1.4525
X2.2325 Y1.4164
X2.2306 Y1.3803
X2.2292 Y1.3441
X2.228 Y1.308
X2.2271 Y1.2718
X2.2265 Y1.2356
X2.2259 Y1.1994
X2.2255 Y1.1632
X2.2252 Y1.1271
X2.225 Y1.0909
X2.2248 Y1.0547
X2.2246 Y0.9823
X2.2244 Y0.8738
Y0.7653
X2.2243 Y0.7291
X2.223 Y0.6929
X2.2178 Y0.6571
X2.2075 Y0.6224
X2.1927 Y0.5894
X2.1745 Y0.5581
X2.1581 Y0.5341
X2.1525 Y0.5244
X2.1483 Y0.5139
X2.1458 Y0.503
X2.145 Y0.4918
Y0.3613
G3 X2.1626 Y0.3383 I0.025 J0.0009
G1 X2.1664 Y0.3372 Z0.0003
X2.17 Y0.336 Z0.0012
X2.1735 Y0.335 Z0.0027
X2.1767 Y0.334 Z0.0048
X2.1795 Y0.3331 Z0.0073
X2.1819 Y0.3324 Z0.0103
X2.1839 Y0.3318 Z0.0137
X2.1853 Y0.3313 Z0.0173
X2.1862 Y0.331 Z0.0211
X2.1865 Y0.3309 Z0.025
Z1.12
X2.4887 Y1.8335
Z0.05
Z0.025
X2.4884 Y1.8337 Z0.0211
X2.4877 Y1.8341 Z0.0173
X2.4864 Y1.8349 Z0.0137
X2.4846 Y1.836 Z0.0103
X2.4824 Y1.8373 Z0.0073
X2.4799 Y1.8388 Z0.0048
X2.477 Y1.8405 Z0.0027
X2.4739 Y1.8423 Z0.0012
X2.4706 Y1.8443 Z0.0003
X2.4672 Y1.8463 Z0.
G3 X2.4376 Y1.855 I-0.0318 J-0.0536
G1 X2.38
X2.374 Y1.8547
X2.3681 Y1.854
X2.3617 Y1.8527
X2.3552 Y1.851
X2.3478 Y1.8485
X2.3402 Y1.8455
X2.3318 Y1.8414
X2.3232 Y1.8366
X2.3136 Y1.8303
X2.3041 Y1.8232
X2.2937 Y1.8144
X2.2832 Y1.8042
X2.2722 Y1.792
X2.2607 Y1.7777
X2.2492 Y1.7612
X2.237 Y1.741
X2.2255 Y1.719
X2.2135 Y1.692
X2.2016 Y1.6597
X2.1913 Y1.625
X2.1829 Y1.5898
X2.1761 Y1.5543
X2.1707 Y1.5185
X2.1662 Y1.4826
X2.1627 Y1.4466
X2.1598 Y1.4105
X2.1576 Y1.3744
X2.1558 Y1.3383
X2.1544 Y1.3021
X2.1532 Y1.2659
X2.1524 Y1.2298
X2.1517 Y1.1936
X2.1511 Y1.1574
X2.1507 Y1.1212
X2.1504 Y1.0851
X2.1501 Y1.0489
X2.1499 Y1.0127
X2.1497 Y0.9403
X2.1495 Y0.8318
X2.1493 Y0.7956
X2.1479 Y0.7595
X2.1456 Y0.7412
X2.1453 Y0.7381
X2.1451 Y0.7349
X2.145 Y0.7317
Y0.4918
G3 X2.1626 Y0.4688 I0.025 J0.0009
G1 X2.1664 Y0.4676 Z0.0003
X2.17 Y0.4665 Z0.0012
X2.1735 Y0.4654 Z0.0027
X2.1767 Y0.4644 Z0.0048
X2.1795 Y0.4635 Z0.0073
X2.1819 Y0.4628 Z0.0103
X2.1839 Y0.4622 Z0.0137
X2.1853 Y0.4618 Z0.0173
X2.1862 Y0.4615 Z0.0211
X2.1865 Y0.4614 Z0.025
Z1.12
X2.4312 Y1.8335
Z0.05
Z0.025
X2.4309 Y1.8337 Z0.0211
X2.4301 Y1.8341 Z0.0173
X2.4288 Y1.8349 Z0.0137
X2.4271 Y1.836 Z0.0103
X2.4249 Y1.8373 Z0.0073
X2.4223 Y1.8388 Z0.0048
X2.4194 Y1.8405 Z0.0027
X2.4163 Y1.8423 Z0.0012
X2.413 Y1.8443 Z0.0003
X2.4097 Y1.8463 Z0.
G3 X2.38 Y1.855 I-0.0318 J-0.0536
G1 X2.3188
X2.3128 Y1.8547
X2.3068 Y1.854
X2.3002 Y1.8527
X2.2934 Y1.851
X2.2856 Y1.8485
X2.2778 Y1.8454
X2.2689 Y1.8411
X2.26 Y1.8362
X2.2498 Y1.8297
X2.2399 Y1.8224
X2.2288 Y1.8131
X2.2179 Y1.8027
X2.2061 Y1.7898
X2.1942 Y1.7751
X2.1818 Y1.7577
X2.169 Y1.7368
X2.1567 Y1.7138
X2.1517 Y1.7026
X2.148 Y1.6926
X2.1457 Y1.6822
X2.145 Y1.6717
G3 X2.1708 Y1.6476 Z0.008 I0.025 J0.0009
G3 X2.1882 Y1.6554 I-0.0009 J0.025
G1 X2.3361 Y1.8129
G3 X2.3429 Y1.8292 I-0.0182 J0.0171
G3 X2.3188 Y1.855 Z0. I-0.025 J0.0009
G1 X2.2567
X2.2492 Y1.8546
X2.2433 Y1.8539
X2.2365 Y1.8527
X2.2295 Y1.851
X2.2216 Y1.8485
X2.2135 Y1.8453
X2.2043 Y1.841
X2.1951 Y1.836
X2.1847 Y1.8294
X2.1743 Y1.8218
X2.1721 Y1.82
X2.1628 Y1.8108
X2.1552 Y1.8
X2.1496 Y1.7881
X2.1462 Y1.7754
X2.145 Y1.7623
G3 X2.1708 Y1.7382 Z0.008 I0.025 J0.0009
G3 X2.1853 Y1.7435 I-0.0009 J0.025
G1 X2.2712 Y1.8103
G3 X2.2808 Y1.8292 I-0.0154 J0.0197
G3 X2.2567 Y1.855 Z0. I-0.025 J0.0009
G1 X2.1954
X2.1913 Y1.8549
X2.1872 Y1.8543
X2.1831 Y1.853
X2.1811 Y1.852
X2.179 Y1.8508
X2.1756 Y1.848
X2.1543 Y1.8284
X2.1517 Y1.8259
X2.1497 Y1.8234
X2.1475 Y1.8198
X2.1461 Y1.8162
X2.1458 Y1.8152
X2.1451 Y1.8111
X2.145 Y1.807
Y0.7317
X2.1453 Y0.7288
X2.1459 Y0.7259
X2.1472 Y0.7232 Z0.0002
X2.1485 Y0.7206 Z0.0007
X2.1497 Y0.718 Z0.0016
X2.152 Y0.7158 Z0.0031
X2.1541 Y0.7137 Z0.005
X2.156 Y0.7119 Z0.0073
X2.1583 Y0.7108 Z0.0103
X2.1602 Y0.7099 Z0.0136
X2.1615 Y0.7092 Z0.0173
X2.1623 Y0.7089 Z0.0211
X2.1626 Y0.7087 Z0.025
Z1.12
X1.2245 Y0.9582
Z0.415
G3 X1.1809 Y0.8107 Z0.4086 I0.0255 J-0.0877 F13.3333
G3 X1.333 Y0.8326 Z0.4022 I0.069 J0.0597
G3 X1.2497 Y0.9615 Z0.3958 I-0.0829 J0.0377
G3 X1.1675 Y0.8322 Z0.3895 I0.0003 J-0.091
G3 X1.3191 Y0.8115 Z0.3831 I0.0825 J0.0383
G3 X1.2747 Y0.9577 Z0.3767 I-0.0691 J0.0589
G3 X1.1604 Y0.8564 Z0.3703 I-0.0246 J-0.0873
G3 X1.3 Y0.795 Z0.3639 I0.0895 J0.014
G3 X1.2976 Y0.9473 Z0.3575 I-0.05 J0.0754
G3 X1.1604 Y0.8816 Z0.3512 I-0.0475 J-0.0768
G3 X1.2772 Y0.7845 Z0.3448 I0.0895 J-0.0111
G3 X1.3166 Y0.931 Z0.3384 I-0.0273 J0.0859
G3 X1.1672 Y0.9057 Z0.332 I-0.0666 J-0.0606
G3 X1.2525 Y0.7806 Z0.3256 I0.0827 J-0.0352
G3 X1.3304 Y0.9101 Z0.3192 I-0.0025 J0.0898
G3 X1.1804 Y0.9269 Z0.3128 I-0.0804 J-0.0397
G3 X1.2278 Y0.7837 Z0.3065 I0.0696 J-0.0564
G3 X1.3379 Y0.8864 Z0.3001 I0.0222 J0.0867
G3 X1.1988 Y0.9436 Z0.2937 I-0.0879 J-0.016
G3 X1.2049 Y0.7935 Z0.2873 I0.0512 J-0.0731
G3 X1.3386 Y0.8616 Z0.2809 I0.045 J0.0769
G3 X1.221 Y0.9545 Z0.2745 I-0.0886 J0.0088
G3 X1.1857 Y0.8091 Z0.2682 I0.029 J-0.084
G3 X1.3324 Y0.8377 Z0.2618 I0.0642 J0.0613
G3 X1.2453 Y0.9589 Z0.2554 I-0.0824 J0.0327
G3 X1.1716 Y0.8293 Z0.249 I0.0047 J-0.0884
G3 X1.32 Y0.8164 Z0.2426 I0.0783 J0.0411
G3 X1.2698 Y0.9565 Z0.2362 I-0.07 J0.0539
G3 X1.1636 Y0.8525 Z0.2298 I-0.0198 J-0.086
G3 X1.3022 Y0.7995 Z0.2235 I0.0863 J0.0179
G3 X1.2925 Y0.9474 Z0.2171 I-0.0522 J0.0708
G3 X1.1624 Y0.877 Z0.2107 I-0.0425 J-0.0769
G3 X1.2806 Y0.7882 Z0.2043 I0.0875 J-0.0065
G3 X1.3118 Y0.9325 Z0.1979 I-0.0306 J0.0822
G3 X1.1679 Y0.9007 Z0.1915 I-0.0618 J-0.062
G3 X1.2567 Y0.7833 Z0.1852 I0.0821 J-0.0302
G3 X1.3262 Y0.9129 Z0.1788 I-0.0068 J0.0871
G3 X1.1797 Y0.9219 Z0.1724 I-0.0762 J-0.0425
G3 X1.2326 Y0.7851 Z0.166 I0.0703 J-0.0515
G3 X1.3347 Y0.8902 Z0.1596 I0.0174 J0.0853
G3 X1.1968 Y0.939 Z0.1532 I-0.0846 J-0.0198
G3 X1.2099 Y0.7935 Z0.1468 I0.0532 J-0.0685
G3 X1.3365 Y0.8661 Z0.1405 I0.04 J0.0769
G3 X1.2178 Y0.9507 Z0.1341 I-0.0865 J0.0043
G3 X1.1905 Y0.8078 Z0.1277 I0.0322 J-0.0802
G3 X1.3316 Y0.8426 Z0.1213 I0.0594 J0.0626
G3 X1.2412 Y0.9561 Z0.1149 I-0.0816 J0.0278
G3 X1.1758 Y0.8267 Z0.1085 I0.0088 J-0.0857
G3 X1.3205 Y0.8214 Z0.1022 I0.0741 J0.0437
G3 X1.2651 Y0.9549 Z0.0958 I-0.0705 J0.049
G3 X1.167 Y0.8489 Z0.0894 I-0.0151 J-0.0844
G3 X1.3041 Y0.8041 Z0.083 I0.0829 J0.0215
G3 X1.2876 Y0.9472 Z0.0766 I-0.0541 J0.0663
G3 X1.1646 Y0.8726 Z0.0702 I-0.0376 J-0.0767
G3 X1.2836 Y0.7921 Z0.0638 I0.0853 J-0.0021
G3 X1.3071 Y0.9336 Z0.0575 I-0.0337 J0.0783
G3 X1.1688 Y0.8959 Z0.0511 I-0.057 J-0.0632
G3 X1.2607 Y0.7862 Z0.0447 I0.0811 J-0.0254
G3 X1.322 Y0.9153 Z0.0383 I-0.0108 J0.0842
G3 X1.1792 Y0.9171 Z0.0319 I-0.0719 J-0.0449
G3 X1.2372 Y0.7868 Z0.0255 I0.0707 J-0.0466
G3 X1.3312 Y0.8936 Z0.0192 I0.0128 J0.0836
G3 X1.195 Y0.9345 Z0.0128 I-0.0812 J-0.0232
G3 X1.2148 Y0.7939 Z0.0064 I0.0549 J-0.064
G3 X1.3341 Y0.8704 Z0. I0.0352 J0.0765
G3 X1.1657 I-0.0842 J0.
G3 X1.3341 I0.0842 J0.
G1 X1.3351 Y0.9066 F20.
X1.336 Y0.911
X1.3365 Y0.917
X1.3362 Y0.923
X1.3351 Y0.9289
X1.3335 Y0.9347
X1.3314 Y0.9403
X1.3246 Y0.9515
X1.3158 Y0.9613
X1.3054 Y0.9692
X1.2936 Y0.9752
X1.281 Y0.9788
X1.2679 Y0.98
X1.2253
X1.2193 Y0.9797
X1.2134 Y0.979
X1.2075 Y0.9779
X1.2017 Y0.9764
X1.1958 Y0.9745
X1.19 Y0.9722
X1.1842 Y0.9694
X1.1836 Y0.9691
X1.1726 Y0.9617
X1.1631 Y0.9524
X1.1554 Y0.9416
X1.1497 Y0.9296
X1.1462 Y0.9168
X1.145 Y0.9035
G3 X1.1708 Y0.8794 Z0.008 I0.025 J0.0009
G3 X1.187 Y0.8861 I-0.0009 J0.025
G1 X1.2415 Y0.9367
G3 X1.2494 Y0.9542 I-0.017 J0.0183
G3 X1.2253 Y0.98 Z0. I-0.025 J0.0009
G1 X1.1842
X1.1801
X1.176 Y0.9794
X1.1732 Y0.9785
X1.1703 Y0.9773
X1.1678 Y0.9758
X1.1644 Y0.9731
X1.1625 Y0.9711
X1.161 Y0.9691
X1.1596 Y0.9667
X1.1513 Y0.9524
X1.147 Y0.9444
X1.1456 Y0.9403
X1.145 Y0.9362
Y0.928
Y0.8413
X1.1453 Y0.8353
X1.146 Y0.8294
X1.1471 Y0.8235
X1.1487 Y0.8177
X1.1507 Y0.812
X1.153 Y0.8065
X1.1557 Y0.8011
X1.1589 Y0.7957
X1.1624 Y0.7904
X1.1664 Y0.7853
X1.1707 Y0.7803
X1.1755 Y0.7755
X1.1806 Y0.771
X1.1861 Y0.7668
X1.192 Y0.7628
X1.1981 Y0.7592
X1.2045 Y0.756
X1.2113 Y0.7531
X1.2182 Y0.7507
X1.2254 Y0.7487
X1.2327 Y0.7471
X1.2402 Y0.746
X1.2477 Y0.7454
X1.2554 Y0.7452
X1.2631 Y0.7456
X1.2708 Y0.7464
X1.2784 Y0.7478
X1.286 Y0.7496
X1.2935 Y0.752
X1.3009 Y0.7548
X1.308 Y0.7581
X1.315 Y0.7618
X1.3218 Y0.766
X1.3237 Y0.7675
X1.3344 Y0.7768
X1.3432 Y0.788
X1.3497 Y0.8006
X1.3537 Y0.8143
X1.355 Y0.8284
Y0.928
Y0.9362
X1.3544 Y0.9403
X1.353 Y0.9444
X1.3485 Y0.9526
X1.3404 Y0.9667
X1.339 Y0.9691
X1.3375 Y0.9711
X1.3356 Y0.9731
X1.3322 Y0.9758
X1.3297 Y0.9773
X1.3268 Y0.9785
X1.324 Y0.9794
X1.3199 Y0.98
X1.3158
X1.2679
G3 X1.2499 Y0.9713 Z0.0042 I0.0009 J-0.025
G1 X1.2435 Y0.964 Z0.0062
X1.2377 Y0.9572 Z0.008
X1.1656 Y0.8737
X1.1598 Y0.8669 Z0.0062
X1.1511 Y0.8568 Z0.0034
G3 X1.145 Y0.8413 Z0. I0.0189 J-0.0163
G1 Y0.792
X1.1453 Y0.786
X1.1462 Y0.7801
X1.1477 Y0.7743
X1.1496 Y0.7686
X1.152 Y0.7631
X1.1548 Y0.7578
X1.158 Y0.7527
X1.1616 Y0.7477
X1.1657 Y0.7427
X1.1702 Y0.7378
X1.1753 Y0.733
X1.1809 Y0.7283
X1.187 Y0.7239
X1.1936 Y0.7197
X1.2005 Y0.7159
X1.208 Y0.7124
X1.2159 Y0.7093
X1.2242 Y0.7067
X1.2329 Y0.7045
X1.2418 Y0.7028
X1.251 Y0.7018
X1.2604 Y0.7012
X1.27 Y0.7013
X1.2795 Y0.7021
X1.2883 Y0.7033
X1.2979 Y0.7052
X1.2997 Y0.7058
X1.3128 Y0.7107
X1.3247 Y0.7179
X1.3351 Y0.7272
X1.3436 Y0.7383
X1.3499 Y0.7508
X1.3537 Y0.7642
X1.355 Y0.7781
Y0.8284
G3 X1.3292 Y0.8525 Z0.008 I-0.025 J-0.0009
G1 X1.3268 Y0.8523
X1.3245 Y0.8519
X1.1707 Y0.817
X1.1644 Y0.8155 Z0.0067
G3 X1.145 Y0.792 Z0. I0.0055 J-0.0244
G1 Y0.751
X1.1453 Y0.745
X1.1461 Y0.739
X1.1475 Y0.7332
X1.1493 Y0.7275
X1.1517 Y0.722
X1.1544 Y0.7166
X1.1575 Y0.7115
X1.1612 Y0.7063
X1.1654 Y0.701
X1.17 Y0.6959
X1.1753 Y0.6907
X1.1813 Y0.6856
X1.1878 Y0.6808
X1.1948 Y0.6762
X1.2025 Y0.6719
X1.2108 Y0.6679
X1.2196 Y0.6643
X1.2288 Y0.6612
X1.238 Y0.6588
X1.2469 Y0.657
X1.2567 Y0.6558
X1.2652 Y0.6552
X1.2744
X1.2832 Y0.6558
X1.2912 Y0.6568
X1.2943 Y0.6574
X1.3085 Y0.6616
X1.3215 Y0.6684
X1.3329 Y0.6778
X1.3423 Y0.6891
X1.3493 Y0.7021
X1.3535 Y0.7162
X1.355 Y0.7308
Y0.7781
G3 X1.3292 Y0.8022 Z0.008 I-0.025 J-0.0009
G1 X1.3258 Y0.8019
X1.1708 Y0.7756
X1.1658 Y0.7747 Z0.007
G3 X1.145 Y0.751 Z0. I0.0042 J-0.0246
G1 Y0.7062
X1.1453 Y0.7002
X1.1463 Y0.6943
X1.1507 Y0.6826
X1.1571 Y0.672
X1.1654 Y0.6627
X1.1752 Y0.6552
X1.1863 Y0.6496
X1.1983 Y0.6462
X1.2106 Y0.645
G3 X1.2347 Y0.6708 Z0.008 I-0.0009 J0.025
G3 X1.2264 Y0.6887 I-0.025 J-0.0009
G1 X1.1866 Y0.724
G3 X1.1708 Y0.7303 I-0.0166 J-0.0187
G3 X1.145 Y0.7062 Z0. I-0.0009 J-0.025
G1 Y0.6898
X1.1452 Y0.6857
X1.1461 Y0.6815
X1.1468 Y0.6795
X1.1478 Y0.6774
X1.1502 Y0.6733
X1.1604 Y0.6569
X1.1617 Y0.655
X1.1633 Y0.6531
X1.1655 Y0.6509
X1.1678 Y0.6492
X1.1686 Y0.6487
X1.1723 Y0.6468
X1.176 Y0.6456
X1.1801 Y0.645
X1.1842
X1.3121
X1.3158
X1.3199
X1.324 Y0.6456
X1.3277 Y0.6468
X1.3314 Y0.6487
X1.3322 Y0.6492
X1.3345 Y0.6509
X1.3367 Y0.6531
X1.3383 Y0.655
X1.3396 Y0.6569
X1.3498 Y0.6733
X1.3522 Y0.6774
X1.3532 Y0.6795
X1.3539 Y0.6815
X1.3548 Y0.6857
X1.355 Y0.6898
Y0.7308
G3 X1.3374 Y0.7539 I-0.025 J-0.0009
G1 X1.3336 Y0.755 Z0.0003
X1.33 Y0.7561 Z0.0012
X1.3265 Y0.7572 Z0.0027
X1.3233 Y0.7582 Z0.0048
X1.3205 Y0.7591 Z0.0073
X1.3181 Y0.7598 Z0.0103
X1.3161 Y0.7604 Z0.0137
X1.3147 Y0.7609 Z0.0173
X1.3138 Y0.7611 Z0.0211
X1.3135 Y0.7612 Z0.025
Z2.12
G53 Z
M5
G53 P10
