[test_tenon_t3]
[Machine]
[  vendor: Nova Labs]
[  model: ShopSaber]
[  description: Generic 3-axis]
[T3 D=0.25 CR=0. - ZMIN=0. - flat end mill]
G90
G20
[When using Fusion for Personal Use, the feedrate of rapid]
[moves is reduced to match the feedrate of cutting moves,]
[which can increase machining time. Unrestricted rapid moves]
[are available with a Fusion Subscription.]
G53 Z
[Shoulders]
M0
[MANUAL TOOL CHANGE TO T3]
S10000
M3
G4 X4.
G90
G0 X2.7376 Y2.0461
Z2.12
G1 Z1.12 F20.
Z0.365
Z0.34
X2.7374 Y2.0459 Z0.3361 F20.
X2.7367 Y2.0453 Z0.3323
X2.7355 Y2.0443 Z0.3287
X2.734 Y2.043 Z0.3253
X2.7321 Y2.0413 Z0.3223
X2.7298 Y2.0393 Z0.3198
X2.7273 Y2.0371 Z0.3177
X2.7246 Y2.0347 Z0.3162
X2.7217 Y2.0322 Z0.3153
X2.7188 Y2.0296 Z0.315
G3 X2.6257 Y1.9284 I0.4206 J-0.48
G1 X2.6147 Y1.9123
X2.61 Y1.9055
X2.6089 Y1.9043
X2.6052 Y1.8997
X2.6006 Y1.8929
X2.5957 Y1.8843
X2.5903 Y1.8736
X2.5846 Y1.8599
X2.5786 Y1.8424
X2.5722 Y1.8192
X2.5655 Y1.787
X2.5604 Y1.7512
X2.557 Y1.7151
X2.5547 Y1.679
X2.5532 Y1.6429
X2.5521 Y1.6067
X2.5514 Y1.5705
X2.5509 Y1.5344
X2.5506 Y1.4982
X2.5504 Y1.462
X2.5502 Y1.4258
X2.55 Y1.3535
X2.5499 Y1.2449
X2.5497 Y0.8831
X2.5495 Y0.1052
X2.5465 Y0.0874
X2.5328 Y0.0539
X2.5091 Y0.0265
X2.4797 Y0.0053
X2.4472 Y-0.0105
X2.413 Y-0.0222
X2.3778 Y-0.0305
X2.3421 Y-0.0365
X2.3061 Y-0.0406
X2.2701 Y-0.0435
X2.2339 Y-0.0456
X2.1978 Y-0.0469
X2.1814 Y-0.0474
X2.1666 Y-0.0492
X2.1525 Y-0.0539
X2.1396 Y-0.0611
X2.1283 Y-0.0708
X2.119 Y-0.0824
G3 X2.1213 Y-0.1113 I0.0215 J-0.0128
G1 X2.1238 Y-0.1143 Z0.3153
X2.1263 Y-0.1172 Z0.3162
X2.1286 Y-0.12 Z0.3177
X2.1308 Y-0.1226 Z0.3198
X2.1327 Y-0.1249 Z0.3223
X2.1343 Y-0.1268 Z0.3253
X2.1356 Y-0.1284 Z0.3287
X2.1366 Y-0.1295 Z0.3323
X2.1372 Y-0.1302 Z0.3361
X2.1374 Y-0.1305 Z0.34
Z1.12
X0.5442 Y-0.2372
Z0.365
Z0.34
X0.544 Y-0.237 Z0.3361
X0.5434 Y-0.2363 Z0.3323
X0.5425 Y-0.2352 Z0.3287
X0.5411 Y-0.2336 Z0.3253
X0.5394 Y-0.2317 Z0.3223
X0.5375 Y-0.2295 Z0.3198
X0.5353 Y-0.2269 Z0.3177
X0.5329 Y-0.2242 Z0.3162
X0.5304 Y-0.2213 Z0.3153
X0.5278 Y-0.2184 Z0.315
G3 X0.427 Y-0.1249 I-0.4816 J-0.4188
G1 X0.4063 Y-0.1107
X0.4053 Y-0.1096
X0.4009 Y-0.1054
X0.3943 Y-0.1009
X0.3859 Y-0.096
X0.3753 Y-0.0906
X0.3619 Y-0.0849
X0.3447 Y-0.0789
X0.322 Y-0.0725
X0.2906 Y-0.0658
X0.2548 Y-0.0606
X0.2188 Y-0.057
X0.1827 Y-0.0547
X0.1466 Y-0.053
X0.1104 Y-0.0519
X0.1014 Y-0.0511
X0.0837 Y-0.0472
X0.0509 Y-0.0319
X0.0244 Y-0.0073
X0.004 Y0.0226
X-0.0113 Y0.0554
X-0.0224 Y0.0898
X-0.0304 Y0.1251
X-0.0361 Y0.1609
X-0.0401 Y0.1968
X-0.0429 Y0.2329
X-0.0448 Y0.269
X-0.0462 Y0.3052
X-0.0471 Y0.3413
X-0.0478 Y0.3775
X-0.0482 Y0.4137
X-0.0485 Y0.4499
X-0.0487 Y0.4861
X-0.0489 Y0.5222
X-0.0491 Y0.5946
X-0.0493 Y0.7393
X-0.0498 Y1.5715
X-0.0499 Y1.8195
X-0.0514 Y1.8341
X-0.0556 Y1.8482
X-0.0625 Y1.8611
X-0.0719 Y1.8725
X-0.0832 Y1.8818
G3 X-0.1121 Y1.8799 I-0.0132 J-0.0213
G1 X-0.1152 Y1.8775 Z0.3153
X-0.1181 Y1.8751 Z0.3162
X-0.121 Y1.8728 Z0.3177
X-0.1235 Y1.8707 Z0.3198
X-0.1259 Y1.8688 Z0.3223
X-0.1278 Y1.8672 Z0.3253
X-0.1294 Y1.8659 Z0.3287
X-0.1306 Y1.8649 Z0.3323
X-0.1313 Y1.8644 Z0.3361
X-0.1315 Y1.8642 Z0.34
Z1.12
X0.4248 Y-0.1615
Z0.365
Z0.34
X0.4247 Y-0.1612 Z0.3361
X0.4245 Y-0.1603 Z0.3323
X0.4242 Y-0.1589 Z0.3287
X0.4237 Y-0.1569 Z0.3253
X0.4232 Y-0.1544 Z0.3223
X0.4225 Y-0.1515 Z0.3198
X0.4218 Y-0.1482 Z0.3177
X0.421 Y-0.1447 Z0.3162
X0.4202 Y-0.1409 Z0.3153
X0.4193 Y-0.1371 Z0.315
G3 X0.4053 Y-0.1096 I-0.0608 J-0.0136
G1 X0.3868 Y-0.09
X0.3834 Y-0.0862
X0.381 Y-0.0824
X0.376 Y-0.0742
X0.3727 Y-0.0692
X0.3689 Y-0.0644
X0.3638 Y-0.059
X0.3582 Y-0.0535
X0.3514 Y-0.0477
X0.3427 Y-0.0413
X0.3328 Y-0.0348
X0.3206 Y-0.028
X0.3058 Y-0.0209
X0.2875 Y-0.0136
X0.2648 Y-0.0061
X0.2352 Y0.0016
X0.1997 Y0.0085
X0.1656 Y0.0207
X0.1354 Y0.0406
X0.1101 Y0.0665
X0.0896 Y0.0963
X0.0735 Y0.1287
X0.0611 Y0.1627
X0.0517 Y0.1976
X0.0447 Y0.2331
X0.0395 Y0.2689
X0.0357 Y0.3049
X0.0329 Y0.341
X0.0309 Y0.3771
X0.0294 Y0.4133
X0.0284 Y0.4494
X0.0276 Y0.4856
X0.0271 Y0.5218
X0.0267 Y0.558
X0.0264 Y0.5941
X0.0262 Y0.6303
X0.0259 Y0.7027
X0.0257 Y0.8112
X0.0255 Y1.0283
X0.0251 Y1.7158
X0.025 Y1.752
X0.0236 Y1.7767
X0.0215 Y1.7942
X0.0204 Y1.8005
X0.0162 Y1.8147
X0.0094 Y1.8279
X0. Y1.8395
X-0.0114 Y1.8489
X-0.0245 Y1.856
X-0.0387 Y1.8603
G3 X-0.0651 Y1.8484 I-0.0049 J-0.0245
G1 X-0.0671 Y1.845 Z0.3153
X-0.069 Y1.8418 Z0.3162
X-0.0708 Y1.8386 Z0.3177
X-0.0725 Y1.8357 Z0.3198
X-0.074 Y1.8332 Z0.3223
X-0.0753 Y1.831 Z0.3253
X-0.0764 Y1.8292 Z0.3287
X-0.0771 Y1.8279 Z0.3323
X-0.0776 Y1.8271 Z0.3361
X-0.0777 Y1.8268 Z0.34
Z1.12
X0.384 Y-0.1291
Z0.365
Z0.34
Y-0.1288 Z0.3361
Y-0.1279 Z0.3323
Y-0.1264 Z0.3287
Y-0.1243 Z0.3253
Y-0.1218 Z0.3223
Y-0.1188 Z0.3198
X0.3839 Y-0.1155 Z0.3177
Y-0.1118 Z0.3162
Y-0.108 Z0.3153
Y-0.1041 Z0.315
G3 X0.376 Y-0.0742 I-0.0623 J-0.0004
G1 X0.3711 Y-0.066
X0.3703 Y-0.0647
X0.3611 Y-0.0413
X0.3604 Y-0.0389
X0.3586 Y-0.0332
X0.3562 Y-0.0276
X0.3534 Y-0.0223
X0.3501 Y-0.0168
X0.346 Y-0.0111
X0.3408 Y-0.0045
X0.335 Y0.0018
X0.3276 Y0.0089
X0.3187 Y0.0164
X0.3087 Y0.0239
X0.2783 Y0.0435
X0.2475 Y0.0625
X0.2195 Y0.0855
X0.1952 Y0.1122
X0.1748 Y0.1421
X0.158 Y0.1742
X0.1446 Y0.2078
X0.134 Y0.2424
X0.1258 Y0.2776
X0.1195 Y0.3133
X0.1147 Y0.3491
X0.1111 Y0.3851
X0.1084 Y0.4212
X0.1064 Y0.4573
X0.1049 Y0.4935
X0.1037 Y0.5296
X0.1029 Y0.5658
X0.1023 Y0.602
X0.1019 Y0.6382
X0.1015 Y0.6743
X0.1013 Y0.7105
X0.1011 Y0.7467
X0.1009 Y0.8191
X0.1007 Y0.9276
X0.1005 Y1.1447
X0.1002 Y1.6513
X0.0999 Y1.6874
X0.0988 Y1.7236
X0.0965 Y1.7488
X0.0937 Y1.7673
X0.0904 Y1.7825
X0.0863 Y1.7964
X0.082 Y1.8086
X0.0773 Y1.8194
X0.0718 Y1.8301
X0.0666 Y1.8388
X0.0603 Y1.848
X0.0563 Y1.8518
X0.0513 Y1.8542
X0.0459 Y1.855
X0.0086
X0.0004 Y1.8553
X-0.0041 Y1.8555
G3 X-0.028 Y1.839 I-0.0003 J-0.025
G1 X-0.0293 Y1.8353 Z0.3153
X-0.0306 Y1.8317 Z0.3162
X-0.0318 Y1.8283 Z0.3177
X-0.033 Y1.8252 Z0.3198
X-0.034 Y1.8224 Z0.3223
X-0.0348 Y1.82 Z0.3253
X-0.0355 Y1.8181 Z0.3287
X-0.036 Y1.8166 Z0.3323
X-0.0363 Y1.8158 Z0.3361
X-0.0365 Y1.8155 Z0.34
Z1.12
X0.3532 Y-0.0939
Z0.365
Z0.34
Y-0.0936 Z0.3361
X0.3535 Y-0.0927 Z0.3323
X0.3539 Y-0.0912 Z0.3287
X0.3544 Y-0.0893 Z0.3253
X0.3551 Y-0.0868 Z0.3223
X0.3559 Y-0.0839 Z0.3198
X0.3568 Y-0.0807 Z0.3177
X0.3578 Y-0.0772 Z0.3162
X0.3588 Y-0.0735 Z0.3153
X0.3598 Y-0.0698 Z0.315
G3 X0.3604 Y-0.0389 I-0.0601 J0.0166
G1 X0.3589 Y-0.0331
X0.3574 Y-0.0249
X0.3561 Y-0.0167
X0.3555 Y-0.004
X0.3549 Y0.002
X0.3539 Y0.0079
X0.3523 Y0.0137
X0.3502 Y0.0199
X0.3471 Y0.0271
X0.3431 Y0.0351
X0.3365 Y0.0465
X0.3163 Y0.0766
X0.2947 Y0.1055
X0.2742 Y0.1354
X0.2559 Y0.1666
X0.2401 Y0.1992
X0.2268 Y0.2328
X0.2159 Y0.2673
X0.207 Y0.3024
X0.1999 Y0.3378
X0.1943 Y0.3736
X0.1899 Y0.4095
X0.1865 Y0.4455
X0.1838 Y0.4816
X0.1818 Y0.5177
X0.1803 Y0.5539
X0.1791 Y0.59
X0.1782 Y0.6262
X0.1776 Y0.6624
X0.1771 Y0.6986
X0.1767 Y0.7347
X0.1764 Y0.7709
X0.1762 Y0.8071
X0.1759 Y0.8795
X0.1757 Y0.988
X0.1755 Y1.1689
X0.1752 Y1.5669
X0.1751 Y1.6031
X0.1748 Y1.6393
X0.1737 Y1.6754
X0.1713 Y1.7115
X0.1676 Y1.7406
X0.1628 Y1.7654
X0.1572 Y1.7866
X0.151 Y1.8053
X0.1499 Y1.8081
X0.143 Y1.8212
X0.1337 Y1.8327
X0.1223 Y1.8422
X0.1092 Y1.8492
X0.0951 Y1.8535
X0.0803 Y1.855
X0.0459
G3 X0.0229 Y1.8374 I0.0009 J-0.025
G1 X0.0217 Y1.8336 Z0.3153
X0.0206 Y1.83 Z0.3162
X0.0195 Y1.8265 Z0.3177
X0.0185 Y1.8233 Z0.3198
X0.0177 Y1.8205 Z0.3223
X0.0169 Y1.8181 Z0.3253
X0.0163 Y1.8161 Z0.3287
X0.0159 Y1.8147 Z0.3323
X0.0156 Y1.8138 Z0.3361
X0.0155 Y1.8135 Z0.34
Z1.12
X0.3366 Y-0.0561
Z0.365
Z0.34
X0.3367 Y-0.0558 Z0.3361
X0.3371 Y-0.055 Z0.3323
X0.3379 Y-0.0537 Z0.3287
X0.3388 Y-0.0519 Z0.3253
X0.34 Y-0.0496 Z0.3223
X0.3414 Y-0.047 Z0.3198
X0.343 Y-0.0441 Z0.3177
X0.3447 Y-0.0409 Z0.3162
X0.3464 Y-0.0375 Z0.3153
X0.3483 Y-0.034 Z0.315
G3 X0.3555 Y-0.004 I-0.0551 J0.0292
G1 X0.3553 Y-0.0003
X0.355 Y0.0079
Y0.0572
X0.3545 Y0.0663
X0.3533 Y0.0773
X0.3504 Y0.0934
X0.3436 Y0.1208
X0.3327 Y0.1553
X0.321 Y0.1896
X0.3098 Y0.2239
X0.2996 Y0.2586
X0.2905 Y0.2937
X0.2828 Y0.329
X0.2764 Y0.3646
X0.271 Y0.4004
X0.2667 Y0.4363
X0.2632 Y0.4724
X0.2604 Y0.5084
X0.2582 Y0.5445
X0.2564 Y0.5807
X0.2551 Y0.6168
X0.254 Y0.653
X0.2532 Y0.6892
X0.2526 Y0.7254
X0.2521 Y0.7615
X0.2517 Y0.7977
X0.2514 Y0.8339
X0.2512 Y0.8701
X0.2509 Y0.9424
X0.2507 Y1.051
X0.2504 Y1.2319
X0.2502 Y1.5213
X0.2501 Y1.5575
X0.2497 Y1.5937
X0.2488 Y1.6299
X0.2469 Y1.666
X0.2437 Y1.702
X0.2388 Y1.7361
X0.2339 Y1.7595
X0.229 Y1.777
X0.2236 Y1.7929
X0.2183 Y1.8054
X0.2122 Y1.8177
X0.2046 Y1.8283
X0.1954 Y1.8375
X0.1847 Y1.845
X0.1729 Y1.8505
X0.1603 Y1.8539
X0.1473 Y1.855
X0.0803
G3 X0.0573 Y1.8374 I0.0009 J-0.025
G1 X0.0562 Y1.8336 Z0.3153
X0.0551 Y1.83 Z0.3162
X0.054 Y1.8265 Z0.3177
X0.053 Y1.8233 Z0.3198
X0.0521 Y1.8205 Z0.3223
X0.0514 Y1.8181 Z0.3253
X0.0508 Y1.8161 Z0.3287
X0.0503 Y1.8147 Z0.3323
X0.0501 Y1.8138 Z0.3361
X0.05 Y1.8135 Z0.34
Z1.12
X0.3335 Y0.0061
Z0.365
Z0.34
X0.3337 Y0.0063 Z0.3361
X0.3341 Y0.0071 Z0.3323
X0.3349 Y0.0084 Z0.3287
X0.336 Y0.0102 Z0.3253
X0.3373 Y0.0124 Z0.3223
X0.3388 Y0.0149 Z0.3198
X0.3405 Y0.0178 Z0.3177
X0.3423 Y0.0209 Z0.3162
X0.3443 Y0.0242 Z0.3153
X0.3463 Y0.0276 Z0.315
G3 X0.355 Y0.0572 I-0.0536 J0.0318
G1 Y0.2462
X0.3532 Y0.2823
X0.3514 Y0.3184
X0.3487 Y0.3545
X0.3425 Y0.4266
X0.3397 Y0.4627
X0.3372 Y0.4988
X0.335 Y0.5349
X0.3332 Y0.571
X0.3316 Y0.6072
X0.3304 Y0.6433
X0.3294 Y0.6795
X0.3285 Y0.7157
X0.3279 Y0.7519
X0.3274 Y0.788
X0.327 Y0.8242
X0.3266 Y0.8604
X0.3264 Y0.8966
X0.3262 Y0.9328
X0.3259 Y1.0051
X0.3256 Y1.1137
X0.3254 Y1.2946
X0.3253 Y1.4393
X0.3252 Y1.4755
X0.3251 Y1.5117
X0.3247 Y1.5479
X0.3239 Y1.584
X0.3225 Y1.6202
X0.3201 Y1.6563
X0.3165 Y1.6923
X0.3114 Y1.7255
X0.3053 Y1.7536
X0.2996 Y1.7736
X0.2936 Y1.7905
X0.2875 Y1.8046
X0.2814 Y1.8166
X0.2805 Y1.8182
X0.2729 Y1.8287
X0.2637 Y1.8378
X0.2531 Y1.8452
X0.2413 Y1.8506
X0.2288 Y1.8539
X0.2159 Y1.855
X0.1473
G3 X0.1243 Y1.8374 I0.0009 J-0.025
G1 X0.1231 Y1.8336 Z0.3153
X0.122 Y1.83 Z0.3162
X0.1209 Y1.8265 Z0.3177
X0.1199 Y1.8233 Z0.3198
X0.1191 Y1.8205 Z0.3223
X0.1183 Y1.8181 Z0.3253
X0.1177 Y1.8161 Z0.3287
X0.1173 Y1.8147 Z0.3323
X0.117 Y1.8138 Z0.3361
X0.1169 Y1.8135 Z0.34
Z1.12
X0.3335 Y0.195
Z0.365
Z0.34
X0.3337 Y0.1953 Z0.3361
X0.3341 Y0.1961 Z0.3323
X0.3349 Y0.1974 Z0.3287
X0.336 Y0.1991 Z0.3253
X0.3373 Y0.2013 Z0.3223
X0.3388 Y0.2039 Z0.3198
X0.3405 Y0.2067 Z0.3177
X0.3423 Y0.2099 Z0.3162
X0.3443 Y0.2131 Z0.3153
X0.3463 Y0.2165 Z0.315
G3 X0.355 Y0.2462 I-0.0536 J0.0318
G1 Y1.7412
X0.3542 Y1.7575
X0.3528 Y1.7699
X0.3506 Y1.7822
X0.3479 Y1.7931
X0.3445 Y1.8036
X0.3432 Y1.8071
X0.3364 Y1.8205
X0.3271 Y1.8322
X0.3156 Y1.8419
X0.3025 Y1.8491
X0.2882 Y1.8535
X0.2733 Y1.855
G3 X0.2491 Y1.8292 Z0.323 I0.0009 J-0.025
G3 X0.253 Y1.8166 I0.025 J0.0009
G1 X0.3089 Y1.7287
G3 X0.3292 Y1.7171 I0.0211 J0.0134
G3 X0.355 Y1.7412 Z0.315 I0.0009 J0.025
G1 Y1.807
X0.3549 Y1.8111
X0.3542 Y1.8152
X0.3539 Y1.8162
X0.3525 Y1.8198
X0.3503 Y1.8234
X0.3483 Y1.8259
X0.3457 Y1.8284
X0.3244 Y1.848
X0.321 Y1.8508
X0.3189 Y1.852
X0.3169 Y1.853
X0.3128 Y1.8543
X0.3087 Y1.8549
X0.3046 Y1.855
X0.2159
G3 X0.1929 Y1.8374 I0.0009 J-0.025
G1 X0.1918 Y1.8336 Z0.3153
X0.1906 Y1.83 Z0.3162
X0.1896 Y1.8265 Z0.3177
X0.1886 Y1.8233 Z0.3198
X0.1877 Y1.8205 Z0.3223
X0.1869 Y1.8181 Z0.3253
X0.1863 Y1.8161 Z0.3287
X0.1859 Y1.8147 Z0.3323
X0.1856 Y1.8138 Z0.3361
X0.1855 Y1.8135 Z0.34
Z1.12
X2.6591 Y1.9281
Z0.365
Z0.34
X2.6588 Y1.928 Z0.3361
X2.6579 Y1.9277 Z0.3323
X2.6565 Y1.9273 Z0.3287
X2.6545 Y1.9267 Z0.3253
X2.6521 Y1.9259 Z0.3223
X2.6492 Y1.925 Z0.3198
X2.6461 Y1.924 Z0.3177
X2.6426 Y1.9229 Z0.3162
X2.639 Y1.9218 Z0.3153
X2.6352 Y1.9206 Z0.315
G3 X2.6089 Y1.9043 I0.0186 J-0.0595
G1 X2.6065 Y1.9016
X2.6023 Y1.8973
X2.5983 Y1.8934
X2.5934 Y1.8891
X2.5901 Y1.8864
X2.5818 Y1.8809
X2.5736 Y1.8758
X2.5687 Y1.8724
X2.5638 Y1.8685
X2.5583 Y1.8633
X2.5526 Y1.8573
X2.5468 Y1.8502
X2.5403 Y1.8411
X2.5337 Y1.8307
X2.5268 Y1.8181
X2.5197 Y1.8026
X2.5123 Y1.7834
X2.5048 Y1.7596
X2.497 Y1.7282
X2.4906 Y1.6926
X2.4861 Y1.6567
X2.4829 Y1.6206
X2.4806 Y1.5845
X2.4789 Y1.5484
X2.4778 Y1.5122
X2.4769 Y1.476
X2.4763 Y1.4399
X2.4759 Y1.4037
X2.4756 Y1.3675
X2.4754 Y1.3313
X2.4752 Y1.2951
X2.475 Y1.2228
X2.4748 Y1.1142
X2.4747 Y0.8248
X2.4746 Y0.2097
X2.4675 Y0.1742
X2.4507 Y0.1422
X2.4267 Y0.1151
X2.398 Y0.0931
X2.3662 Y0.0758
X2.3326 Y0.0624
X2.2978 Y0.0524
X2.2624 Y0.0448
X2.2268 Y0.0382
X2.2024 Y0.0326
X2.1944 Y0.0302
X2.1816 Y0.0251
X2.17 Y0.0177
X2.1599 Y0.0084
X2.1517 Y-0.0027
X2.1457 Y-0.0151
X2.142 Y-0.0283
G3 X2.1553 Y-0.0541 I0.0247 J-0.0036
G1 X2.1587 Y-0.0559 Z0.3153
X2.1621 Y-0.0577 Z0.3162
X2.1653 Y-0.0593 Z0.3177
X2.1683 Y-0.0609 Z0.3198
X2.171 Y-0.0622 Z0.3223
X2.1732 Y-0.0634 Z0.3253
X2.175 Y-0.0644 Z0.3287
X2.1764 Y-0.065 Z0.3323
X2.1772 Y-0.0655 Z0.3361
X2.1775 Y-0.0656 Z0.34
Z1.12
X2.6285 Y1.8842
Z0.365
Z0.34
X2.6282 Z0.3361
X2.6272 Z0.3323
X2.6257 Z0.3287
X2.6237 Y1.8841 Z0.3253
X2.6211 Z0.3223
X2.6182 Z0.3198
X2.6148 Y1.884 Z0.3177
X2.6112 Z0.3162
X2.6074 Y1.8839 Z0.3153
X2.6035 Z0.315
G3 X2.5736 Y1.8758 I0.0008 J-0.0623
G1 X2.5644 Y1.8702
X2.5407 Y1.8609
X2.5397 Y1.8605
X2.5387 Y1.8603
X2.5329 Y1.8588
X2.5274 Y1.8564
X2.5221 Y1.8536
X2.5163 Y1.85
X2.5106 Y1.846
X2.5041 Y1.8407
X2.4975 Y1.8345
X2.4905 Y1.8271
X2.4827 Y1.8177
X2.4754 Y1.8076
X2.4672 Y1.7948
X2.4591 Y1.78
X2.4506 Y1.7618
X2.4422 Y1.7405
X2.4336 Y1.7134
X2.4249 Y1.6787
X2.4183 Y1.6431
X2.4135 Y1.6073
X2.4099 Y1.5712
X2.4073 Y1.5352
X2.4053 Y1.499
X2.4038 Y1.4629
X2.4028 Y1.4267
X2.402 Y1.3905
X2.4014 Y1.3544
X2.401 Y1.3182
X2.4006 Y1.282
X2.4004 Y1.2458
X2.4002 Y1.2096
X2.4 Y1.1373
X2.3998 Y1.0287
X2.3997 Y0.8116
X2.3996 Y0.3051
X2.3938 Y0.2694
X2.3792 Y0.2363
X2.3575 Y0.2073
X2.3307 Y0.1831
X2.3005 Y0.1632
X2.2683 Y0.1465
X2.2354 Y0.1315
X2.2061 Y0.1177
X2.1868 Y0.1071
X2.1797 Y0.1025
X2.1679 Y0.0932
X2.1582 Y0.0818
X2.151 Y0.0686
X2.1465 Y0.0542
X2.145 Y0.0393
Y0.0079
X2.1447 Y-0.0003
X2.1439 Y-0.0167
X2.1426 Y-0.0249
X2.142 Y-0.0283
G3 X2.1553 Y-0.0541 I0.0247 J-0.0036
G1 X2.1587 Y-0.0559 Z0.3153
X2.1621 Y-0.0577 Z0.3162
X2.1653 Y-0.0593 Z0.3177
X2.1683 Y-0.0609 Z0.3198
X2.171 Y-0.0622 Z0.3223
X2.1732 Y-0.0634 Z0.3253
X2.175 Y-0.0644 Z0.3287
X2.1764 Y-0.065 Z0.3323
X2.1772 Y-0.0655 Z0.3361
X2.1775 Y-0.0656 Z0.34
Z1.12
X2.593 Y1.8492
Z0.365
Z0.34
X2.5927 Y1.8493 Z0.3361
X2.5919 Y1.8496 Z0.3323
X2.5905 Y1.8501 Z0.3287
X2.5885 Y1.8508 Z0.3253
X2.5861 Y1.8516 Z0.3223
X2.5833 Y1.8526 Z0.3198
X2.5802 Y1.8538 Z0.3177
X2.5768 Y1.855 Z0.3162
X2.5732 Y1.8562 Z0.3153
X2.5695 Y1.8575 Z0.315
G3 X2.5387 Y1.8603 I-0.0208 J-0.0587
G1 X2.5182 Y1.8562
X2.5161 Y1.8561
X2.5033 Y1.8555
X2.4974 Y1.8549
X2.4915 Y1.8538
X2.4857 Y1.8522
X2.48 Y1.8502
X2.4739 Y1.8475
X2.4677 Y1.8443
X2.4608 Y1.8402
X2.4536 Y1.8352
X2.446 Y1.8292
X2.438 Y1.822
X2.4297 Y1.8136
X2.4209 Y1.8033
X2.4121 Y1.7917
X2.4024 Y1.777
X2.3934 Y1.7612
X2.3837 Y1.7414
X2.374 Y1.718
X2.3645 Y1.6899
X2.3551 Y1.6549
X2.3478 Y1.6195
X2.3423 Y1.5837
X2.3381 Y1.5478
X2.3349 Y1.5118
X2.3324 Y1.4757
X2.3305 Y1.4395
X2.3291 Y1.4034
X2.328 Y1.3672
X2.3272 Y1.331
X2.3266 Y1.2949
X2.3261 Y1.2587
X2.3258 Y1.2225
X2.3255 Y1.1863
X2.3253 Y1.1501
X2.3251 Y1.0778
X2.3249 Y0.9692
X2.3247 Y0.7883
X2.3246 Y0.4265
X2.3244 Y0.3903
X2.3188 Y0.3546
X2.3052 Y0.321
X2.2853 Y0.2908
X2.261 Y0.264
X2.234 Y0.24
X2.2056 Y0.2176
X2.1771 Y0.1953
X2.1703 Y0.1893
X2.1615 Y0.1801
X2.1545 Y0.1696
X2.1493 Y0.158
X2.1461 Y0.1457
X2.145 Y0.1331
Y0.0393
G3 X2.1626 Y0.0163 I0.025 J0.0009
G1 X2.1664 Y0.0151 Z0.3153
X2.17 Y0.014 Z0.3162
X2.1735 Y0.0129 Z0.3177
X2.1767 Y0.012 Z0.3198
X2.1795 Y0.0111 Z0.3223
X2.1819 Y0.0103 Z0.3253
X2.1839 Y0.0097 Z0.3287
X2.1853 Y0.0093 Z0.3323
X2.1862 Y0.009 Z0.3361
X2.1865 Y0.0089 Z0.34
Z1.12
X2.5554 Y1.8364
Z0.365
Z0.34
X2.5552 Y1.8366 Z0.3361
X2.5544 Y1.837 Z0.3323
X2.553 Y1.8377 Z0.3287
X2.5512 Y1.8387 Z0.3253
X2.549 Y1.8399 Z0.3223
X2.5463 Y1.8413 Z0.3198
X2.5434 Y1.8429 Z0.3177
X2.5402 Y1.8446 Z0.3162
X2.5368 Y1.8463 Z0.3153
X2.5334 Y1.8482 Z0.315
G3 X2.5033 Y1.8555 I-0.0293 J-0.055
G1 X2.4996 Y1.8553
X2.4914 Y1.855
X2.4585
X2.4512 Y1.8546
X2.4452 Y1.8539
X2.4393 Y1.8528
X2.4332 Y1.8512
X2.427 Y1.8491
X2.4198 Y1.8462
X2.4127 Y1.8427
X2.4047 Y1.8381
X2.3966 Y1.8328
X2.3877 Y1.8261
X2.3789 Y1.8185
X2.3692 Y1.809
X2.3596 Y1.7984
X2.3493 Y1.7854
X2.3391 Y1.7706
X2.3284 Y1.7528
X2.3177 Y1.7321
X2.3072 Y1.7082
X2.2965 Y1.6788
X2.2864 Y1.6441
X2.2783 Y1.6088
X2.272 Y1.5732
X2.267 Y1.5374
X2.2632 Y1.5014
X2.2601 Y1.4653
X2.2577 Y1.4292
X2.2559 Y1.3931
X2.2545 Y1.3569
X2.2534 Y1.3208
X2.2525 Y1.2846
X2.2518 Y1.2484
X2.2513 Y1.2123
X2.251 Y1.1761
X2.2507 Y1.1399
X2.2504 Y1.1037
X2.2503 Y1.0675
X2.25 Y0.9952
X2.2498 Y0.8866
X2.2497 Y0.6695
X2.2496 Y0.4886
X2.2474 Y0.4525
X2.2391 Y0.4173
X2.2249 Y0.384
X2.2062 Y0.353
X2.1845 Y0.3241
X2.1624 Y0.2976
X2.1549 Y0.2869
X2.1495 Y0.2751
X2.1461 Y0.2626
X2.145 Y0.2496
Y0.1331
G3 X2.1626 Y0.1101 I0.025 J0.0009
G1 X2.1664 Y0.1089 Z0.3153
X2.17 Y0.1078 Z0.3162
X2.1735 Y0.1068 Z0.3177
X2.1767 Y0.1058 Z0.3198
X2.1795 Y0.1049 Z0.3223
X2.1819 Y0.1041 Z0.3253
X2.1839 Y0.1035 Z0.3287
X2.1853 Y0.1031 Z0.3323
X2.1862 Y0.1028 Z0.3361
X2.1865 Y0.1027 Z0.34
Z1.12
X2.5097 Y1.8335
Z0.365
Z0.34
X2.5094 Y1.8337 Z0.3361
X2.5086 Y1.8341 Z0.3323
X2.5073 Y1.8349 Z0.3287
X2.5056 Y1.836 Z0.3253
X2.5034 Y1.8373 Z0.3223
X2.5008 Y1.8388 Z0.3198
X2.4979 Y1.8405 Z0.3177
X2.4948 Y1.8423 Z0.3162
X2.4915 Y1.8443 Z0.3153
X2.4882 Y1.8463 Z0.315
G3 X2.4585 Y1.855 I-0.0318 J-0.0536
G1 X2.401
X2.3946 Y1.8547
X2.3886 Y1.854
X2.3827 Y1.8529
X2.3762 Y1.8512
X2.3693 Y1.849
X2.3617 Y1.846
X2.3538 Y1.8423
X2.3452 Y1.8375
X2.3363 Y1.8319
X2.3267 Y1.8248
X2.317 Y1.8167
X2.3063 Y1.8065
X2.2961 Y1.7954
X2.2846 Y1.7813
X2.2738 Y1.7661
X2.2619 Y1.7469
X2.2505 Y1.7255
X2.239 Y1.7002
X2.2274 Y1.6695
X2.2168 Y1.635
X2.2083 Y1.5998
X2.2014 Y1.5643
X2.1958 Y1.5285
X2.1914 Y1.4926
X2.1878 Y1.4566
X2.185 Y1.4205
X2.1828 Y1.3844
X2.181 Y1.3483
X2.1796 Y1.3121
X2.1785 Y1.276
X2.1777 Y1.2398
X2.177 Y1.2036
X2.1765 Y1.1674
X2.1761 Y1.1313
X2.1758 Y1.0951
X2.1755 Y1.0589
X2.1753 Y1.0227
X2.1751 Y0.9504
X2.1749 Y0.8418
X2.1747 Y0.6609
Y0.5885
X2.1743 Y0.5524
X2.171 Y0.5163
X2.163 Y0.481
X2.1507 Y0.447
X2.1475 Y0.4389
X2.1456 Y0.4303
X2.145 Y0.4216
Y0.2496
G3 X2.1626 Y0.2266 I0.025 J0.0009
G1 X2.1664 Y0.2254 Z0.3153
X2.17 Y0.2243 Z0.3162
X2.1735 Y0.2232 Z0.3177
X2.1767 Y0.2222 Z0.3198
X2.1795 Y0.2214 Z0.3223
X2.1819 Y0.2206 Z0.3253
X2.1839 Y0.22 Z0.3287
X2.1853 Y0.2196 Z0.3323
X2.1862 Y0.2193 Z0.3361
X2.1865 Y0.2192 Z0.34
Z1.12
X2.4521 Y1.8335
Z0.365
Z0.34
X2.4519 Y1.8337 Z0.3361
X2.4511 Y1.8341 Z0.3323
X2.4498 Y1.8349 Z0.3287
X2.448 Y1.836 Z0.3253
X2.4458 Y1.8373 Z0.3223
X2.4433 Y1.8388 Z0.3198
X2.4404 Y1.8405 Z0.3177
X2.4373 Y1.8423 Z0.3162
X2.434 Y1.8443 Z0.3153
X2.4306 Y1.8463 Z0.315
G3 X2.401 Y1.855 I-0.0318 J-0.0536
G1 X2.3389
X2.3329 Y1.8547
X2.327 Y1.8539
X2.3206 Y1.8527
X2.3137 Y1.8509
X2.3062 Y1.8484
X2.2981 Y1.8451
X2.2896 Y1.841
X2.2804 Y1.8358
X2.2708 Y1.8296
X2.2605 Y1.8219
X2.2501 Y1.813
X2.2387 Y1.8019
X2.2277 Y1.7898
X2.2154 Y1.7743
X2.2038 Y1.7577
X2.1913 Y1.7371
X2.1787 Y1.713
X2.1666 Y1.6856
X2.1542 Y1.6521
X2.1481 Y1.6315
X2.1464 Y1.6245
X2.1453 Y1.6173
X2.145 Y1.6101
G3 X2.1708 Y1.586 Z0.323 I0.025 J0.0009
G3 X2.1898 Y1.5958 I-0.0009 J0.025
G1 X2.3579 Y1.8148
G3 X2.363 Y1.8292 I-0.0198 J0.0152
G3 X2.3389 Y1.855 Z0.315 I-0.025 J0.0009
G1 X2.2777
X2.2708 Y1.8547
X2.2649 Y1.854
X2.2582 Y1.8528
X2.2513 Y1.8511
X2.2436 Y1.8486
X2.2354 Y1.8454
X2.2265 Y1.8412
X2.2172 Y1.8362
X2.2071 Y1.8298
X2.1968 Y1.8223
X2.1855 Y1.8129
X2.1743 Y1.8024
X2.1652 Y1.7926
X2.1566 Y1.7815
X2.1502 Y1.7689
X2.1463 Y1.7554
X2.145 Y1.7414
G3 X2.1708 Y1.7173 Z0.323 I0.025 J0.0009
G3 X2.1859 Y1.723 I-0.0009 J0.025
G1 X2.2926 Y1.8107
G3 X2.3018 Y1.8292 I-0.0159 J0.0193
G3 X2.2777 Y1.855 Z0.315 I-0.025 J0.0009
G1 X2.2119
X2.2059 Y1.8547
X2.1999 Y1.854
X2.1992 Y1.8539
X2.1856 Y1.85
X2.1729 Y1.8437
X2.1617 Y1.8351
G3 X2.1615 Y1.7998 Z0.323 I0.0176 J-0.0178
G3 X2.1885 Y1.7942 I0.0178 J0.0176
G1 X2.2202 Y1.8068
G3 X2.236 Y1.8292 I-0.0092 J0.0232
G3 X2.2119 Y1.855 Z0.315 I-0.025 J0.0009
G1 X2.1954
X2.1913 Y1.8549
X2.1872 Y1.8543
X2.1831 Y1.853
X2.1811 Y1.852
X2.179 Y1.8508
X2.1756 Y1.848
X2.1543 Y1.8284
X2.1517 Y1.8259
X2.1497 Y1.8234
X2.1475 Y1.8198
X2.1461 Y1.8162
X2.1458 Y1.8152
X2.1451 Y1.8111
X2.145 Y1.807
Y0.4216
X2.1453 Y0.4187
X2.1459 Y0.4158
X2.1472 Y0.4131 Z0.3152
X2.1485 Y0.4104 Z0.3157
X2.1497 Y0.4079 Z0.3166
X2.152 Y0.4056 Z0.3181
X2.1541 Y0.4036 Z0.32
X2.156 Y0.4017 Z0.3223
X2.1583 Y0.4006 Z0.3253
X2.1602 Y0.3998 Z0.3286
X2.1615 Y0.3991 Z0.3323
X2.1623 Y0.3987 Z0.3361
X2.1626 Y0.3986 Z0.34
Z1.12
X1.2933 Y0.79
Z1.04
G3 X1.3016 Y0.9458 Z1.0335 I-0.0433 J0.0805 F13.3333
G3 X1.1595 Y0.8819 Z1.0269 I-0.0516 J-0.0753
G3 X1.2814 Y0.7851 Z1.0204 I0.0904 J-0.0113
G3 X1.3114 Y0.9376 Z1.0139 I-0.0314 J0.0854
G3 X1.1623 Y0.8943 Z1.0073 I-0.0614 J-0.067
G3 X1.2691 Y0.7819 Z1.0008 I0.0876 J-0.0237
G3 X1.32 Y0.9281 Z0.9943 I-0.0191 J0.0886
G3 X1.1669 Y0.9063 Z0.9877 I-0.0699 J-0.0576
G3 X1.2564 Y0.7804 Z0.9812 I0.0831 J-0.0357
G3 X1.3271 Y0.9176 Z0.9747 I-0.0064 J0.0901
G3 X1.173 Y0.9174 Z0.9682 I-0.077 J-0.047
G3 X1.2437 Y0.7807 Z0.9616 I0.077 J-0.0468
G3 X1.3326 Y0.9061 Z0.9551 I0.0062 J0.0898
G3 X1.1806 Y0.9275 Z0.9486 I-0.0825 J-0.0356
G3 X1.2313 Y0.7828 Z0.942 I0.0694 J-0.0569
G3 X1.3364 Y0.8941 Z0.9355 I0.0187 J0.0877
G3 X1.1895 Y0.9364 Z0.929 I-0.0864 J-0.0236
G3 X1.2193 Y0.7866 Z0.9224 I0.0605 J-0.0658
G3 X1.3385 Y0.8817 Z0.9159 I0.0307 J0.0839
G3 X1.1995 Y0.944 Z0.9094 I-0.0885 J-0.0112
G3 X1.208 Y0.7921 Z0.9028 I0.0505 J-0.0734
G3 X1.3389 Y0.8692 Z0.8963 I0.042 J0.0784
G3 X1.2105 Y0.95 Z0.8898 I-0.0888 J0.0013
G3 X1.1976 Y0.799 Z0.8832 I0.0395 J-0.0794
G3 X1.3375 Y0.8568 Z0.8767 I0.0524 J0.0715
G3 X1.2221 Y0.9545 Z0.8702 I-0.0874 J0.0137
G3 X1.1883 Y0.8073 Z0.8636 I0.0279 J-0.0839
G3 X1.3344 Y0.8448 Z0.8571 I0.0616 J0.0632
G3 X1.2342 Y0.9572 Z0.8506 I-0.0843 J0.0257
G3 X1.1803 Y0.8168 Z0.8441 I0.0158 J-0.0866
G3 X1.3296 Y0.8333 Z0.8375 I0.0696 J0.0537
G3 X1.2465 Y0.9582 Z0.831 I-0.0796 J0.0372
G3 X1.1738 Y0.8273 Z0.8245 I0.0035 J-0.0876
G3 X1.3233 Y0.8227 Z0.8179 I0.0762 J0.0433
G3 X1.2588 Y0.9575 Z0.8114 I-0.0733 J0.0478
G3 X1.1688 Y0.8385 Z0.8049 I-0.0088 J-0.0869
G3 X1.3156 Y0.8131 Z0.7983 I0.0812 J0.032
G3 X1.2709 Y0.9551 Z0.7918 I-0.0656 J0.0573
G3 X1.1654 Y0.8503 Z0.7853 I-0.0208 J-0.0845
G3 X1.3067 Y0.8048 Z0.7787 I0.0845 J0.0202
G3 X1.2824 Y0.951 Z0.7722 I-0.0567 J0.0657
G3 X1.1638 Y0.8624 Z0.7657 I-0.0323 J-0.0804
G3 X1.2967 Y0.7978 Z0.7591 I0.0862 J0.0082
G3 X1.2932 Y0.9454 Z0.7526 I-0.0467 J0.0727
G3 X1.1638 Y0.8746 Z0.7461 I-0.0431 J-0.0748
G3 X1.2859 Y0.7922 Z0.7395 I0.0861 J-0.004
G3 X1.303 Y0.9383 Z0.733 I-0.0359 J0.0783
G3 X1.1656 Y0.8866 Z0.7265 I-0.053 J-0.0677
G3 X1.2745 Y0.7883 Z0.72 I0.0844 J-0.016
G3 X1.3118 Y0.93 Z0.7134 I-0.0245 J0.0822
G3 X1.169 Y0.8981 Z0.7069 I-0.0617 J-0.0594
G3 X1.2627 Y0.786 Z0.7004 I0.081 J-0.0275
G3 X1.3192 Y0.9205 Z0.6938 I-0.0127 J0.0845
G3 X1.1739 Y0.9091 Z0.6873 I-0.0691 J-0.05
G3 X1.2507 Y0.7854 Z0.6808 I0.076 J-0.0385
G3 X1.3252 Y0.9102 Z0.6742 I-0.0007 J0.0851
G3 X1.1804 Y0.9192 Z0.6677 I-0.0752 J-0.0396
G3 X1.2388 Y0.7865 Z0.6612 I0.0696 J-0.0485
G3 X1.3297 Y0.8991 Z0.6546 I0.0112 J0.084
G3 X1.1881 Y0.9282 Z0.6481 I-0.0797 J-0.0286
G3 X1.2272 Y0.7892 Z0.6416 I0.0619 J-0.0576
G3 X1.3326 Y0.8876 Z0.635 I0.0228 J0.0813
G3 X1.197 Y0.936 Z0.6285 I-0.0825 J-0.017
G3 X1.2162 Y0.7935 Z0.622 I0.0529 J-0.0654
G3 X1.3338 Y0.8758 Z0.6155 I0.0338 J0.077
G3 X1.2069 Y0.9425 Z0.6089 I-0.0838 J-0.0053
G3 X1.2059 Y0.7993 Z0.6024 I0.0431 J-0.0719
G3 X1.3334 Y0.864 Z0.5959 I0.0441 J0.0712
G3 X1.2176 Y0.9475 Z0.5893 I-0.0833 J0.0065
G3 X1.1965 Y0.8065 Z0.5828 I0.0324 J-0.0769
G3 X1.3313 Y0.8525 Z0.5763 I0.0534 J0.064
G3 X1.2288 Y0.951 Z0.5697 I-0.0813 J0.018
G3 X1.1883 Y0.8149 Z0.5632 I0.0212 J-0.0804
G3 X1.3277 Y0.8414 Z0.5567 I0.0616 J0.0557
G3 X1.2403 Y0.9528 Z0.5501 I-0.0776 J0.0291
G3 X1.1814 Y0.8242 Z0.5436 I0.0097 J-0.0822
G3 X1.3225 Y0.8309 Z0.5371 I0.0685 J0.0463
G3 X1.2519 Y0.953 Z0.5305 I-0.0725 J0.0396
G3 X1.1759 Y0.8345 Z0.524 I-0.0019 J-0.0824
G3 X1.316 Y0.8213 Z0.5175 I0.074 J0.0361
G3 X1.2634 Y0.9516 Z0.5109 I-0.0659 J0.0491
G3 X1.1719 Y0.8453 Z0.5044 I-0.0134 J-0.081
G3 X1.3082 Y0.8128 Z0.4979 I0.078 J0.0252
G3 X1.2746 Y0.9486 Z0.4914 I-0.0581 J0.0577
G3 X1.1695 Y0.8566 Z0.4848 I-0.0245 J-0.078
G3 X1.2993 Y0.8055 Z0.4783 I0.0805 J0.014
G3 X1.2851 Y0.9441 Z0.4718 I-0.0493 J0.065
G3 X1.1687 Y0.868 Z0.4652 I-0.0351 J-0.0735
G3 X1.2895 Y0.7995 Z0.4587 I0.0813 J0.0026
G3 X1.2949 Y0.9381 Z0.4522 I-0.0395 J0.0709
G3 X1.1695 Y0.8794 Z0.4456 I-0.0448 J-0.0676
G3 X1.279 Y0.795 Z0.4391 I0.0805 J-0.0088
G3 X1.3037 Y0.9309 Z0.4326 I-0.0291 J0.0755
G3 X1.1718 Y0.8905 Z0.426 I-0.0536 J-0.0604
G3 X1.2681 Y0.792 Z0.4195 I0.0781 J-0.0199
G3 X1.3114 Y0.9226 Z0.413 I-0.0181 J0.0785
G3 X1.1757 Y0.9012 Z0.4064 I-0.0613 J-0.052
G3 X1.2569 Y0.7906 Z0.3999 I0.0742 J-0.0306
G3 X1.3178 Y0.9133 Z0.3934 I-0.0069 J0.0799
G3 X1.181 Y0.9111 Z0.3868 I-0.0677 J-0.0427
G3 X1.2456 Y0.7908 Z0.3803 I0.0689 J-0.0405
G3 X1.3228 Y0.9032 Z0.3738 I0.0044 J0.0797
G3 X1.1877 Y0.9202 Z0.3673 I-0.0727 J-0.0327
G3 X1.2345 Y0.7925 Z0.3607 I0.0623 J-0.0496
G3 X1.3263 Y0.8926 Z0.3542 I0.0154 J0.078
G3 X1.1955 Y0.9282 Z0.3477 I-0.0763 J-0.022
G3 X1.2239 Y0.7958 Z0.3411 I0.0545 J-0.0576
G3 X1.3283 Y0.8816 Z0.3346 I0.0261 J0.0747
G3 X1.2043 Y0.935 Z0.3281 I-0.0783 J-0.0111
G3 X1.2138 Y0.8005 Z0.3215 I0.0457 J-0.0644
G3 X1.3288 Y0.8705 Z0.315 I0.0362 J0.07
G3 X1.1711 I-0.0788 J0.
G3 X1.3288 I0.0788 J0.
G1 X1.3296 Y0.9067 F20.
X1.3303 Y0.9112
X1.3305 Y0.9172
X1.3299 Y0.9231
X1.3286 Y0.929
X1.3267 Y0.9347
X1.3242 Y0.9402
X1.3213 Y0.9454
X1.318 Y0.9504
X1.3142 Y0.9551
X1.3101 Y0.9595
X1.3096 Y0.96
X1.2985 Y0.9685
X1.286 Y0.9748
X1.2725 Y0.9787
X1.2586 Y0.98
X1.2336
X1.227 Y0.9797
X1.221 Y0.979
X1.2149 Y0.9779
X1.2088 Y0.9764
X1.2027 Y0.9744
X1.1966 Y0.9721
X1.1906 Y0.9693
X1.1848 Y0.9661
X1.179 Y0.9625
X1.1735 Y0.9585
X1.1722 Y0.9575
X1.1629 Y0.9482
X1.1552 Y0.9374
X1.1496 Y0.9255
X1.1462 Y0.9128
X1.145 Y0.8996
G3 X1.1708 Y0.8755 Z0.323 I0.025 J0.0009
G3 X1.1864 Y0.8816 I-0.0009 J0.025
G1 X1.2491 Y0.9361
G3 X1.2577 Y0.9542 I-0.0164 J0.0189
G3 X1.2336 Y0.98 Z0.315 I-0.025 J0.0009
G1 X1.1842
X1.1801
X1.176 Y0.9794
X1.1732 Y0.9785
X1.1703 Y0.9773
X1.1678 Y0.9758
X1.1644 Y0.9731
X1.1625 Y0.9711
X1.161 Y0.9691
X1.1596 Y0.9667
X1.1513 Y0.9524
X1.147 Y0.9444
X1.1456 Y0.9403
X1.145 Y0.9362
Y0.928
Y0.8495
X1.1453 Y0.8431
X1.146 Y0.8371
X1.1471 Y0.8313
X1.1486 Y0.8254
X1.1505 Y0.8197
X1.1527 Y0.8141
X1.1554 Y0.8085
X1.1585 Y0.8029
X1.162 Y0.7975
X1.1659 Y0.7923
X1.1701 Y0.7872
X1.1748 Y0.7824
X1.1798 Y0.7778
X1.1851 Y0.7735
X1.1908 Y0.7695
X1.1968 Y0.7659
X1.203 Y0.7626
X1.2095 Y0.7597
X1.2162 Y0.7572
X1.2231 Y0.7551
X1.2302 Y0.7534
X1.2374 Y0.7522
X1.2447 Y0.7515
X1.2521 Y0.7512
X1.2595 Y0.7514
X1.2669 Y0.7521
X1.2743 Y0.7533
X1.2816 Y0.7549
X1.2888 Y0.757
X1.2959 Y0.7596
X1.3028 Y0.7626
X1.3095 Y0.766
X1.316 Y0.7699
X1.3223 Y0.7742
X1.3283 Y0.779
X1.3301 Y0.7806
X1.3387 Y0.7897
X1.3457 Y0.8002
X1.3508 Y0.8117
X1.3539 Y0.8239
X1.355 Y0.8364
Y0.928
Y0.9362
X1.3544 Y0.9403
X1.353 Y0.9444
X1.3485 Y0.9526
X1.3404 Y0.9667
X1.339 Y0.9691
X1.3375 Y0.9711
X1.3356 Y0.9731
X1.3322 Y0.9758
X1.3297 Y0.9773
X1.3268 Y0.9785
X1.324 Y0.9794
X1.3199 Y0.98
X1.3158
X1.2586
G3 X1.2403 Y0.9711 Z0.3193 I0.0009 J-0.025
G1 X1.2343 Y0.9639 Z0.3212
X1.2285 Y0.9571 Z0.323
X1.1654 Y0.8821
X1.1597 Y0.8752 Z0.3212
X1.1509 Y0.8648 Z0.3184
G3 X1.145 Y0.8495 Z0.315 I0.0191 J-0.0161
G1 Y0.8002
X1.1453 Y0.7942
X1.146 Y0.7882
X1.1473 Y0.7823
X1.149 Y0.7766
X1.1513 Y0.771
X1.1539 Y0.7657
X1.157 Y0.7605
X1.1604 Y0.7554
X1.1642 Y0.7505
X1.1685 Y0.7456
X1.1734 Y0.7408
X1.1788 Y0.7361
X1.1846 Y0.7316
X1.1909 Y0.7274
X1.1976 Y0.7235
X1.2047 Y0.7199
X1.2123 Y0.7167
X1.2203 Y0.7139
X1.2286 Y0.7116
X1.2373 Y0.7098
X1.2462 Y0.7085
X1.2552 Y0.7078
X1.2645 Y0.7077
X1.2739 Y0.7081
X1.2833 Y0.7092
X1.2928 Y0.7109
X1.3014 Y0.713
X1.3025 Y0.7134
X1.315 Y0.7186
X1.3264 Y0.726
X1.3362 Y0.7353
X1.3442 Y0.7462
X1.3502 Y0.7584
X1.3538 Y0.7714
X1.355 Y0.7849
Y0.8364
G3 X1.3292 Y0.8605 Z0.323 I-0.025 J-0.0009
G1 X1.3268 Y0.8603
X1.3245 Y0.8599
X1.1707 Y0.8252
X1.1645 Y0.8238 Z0.3217
G3 X1.145 Y0.8002 Z0.315 I0.0055 J-0.0244
G1 Y0.7555
X1.1453 Y0.7495
X1.1462 Y0.7436
X1.1478 Y0.7378
X1.1498 Y0.7321
X1.1522 Y0.7266
X1.1551 Y0.7213
X1.1583 Y0.7162
X1.162 Y0.711
X1.1663 Y0.7059
X1.1711 Y0.7007
X1.1766 Y0.6956
X1.1826 Y0.6907
X1.1891 Y0.686
X1.1963 Y0.6815
X1.2041 Y0.6772
X1.2124 Y0.6734
X1.2212 Y0.67
X1.2304 Y0.6671
X1.24 Y0.6648
X1.2488 Y0.6632
X1.2586 Y0.6621
X1.2673 Y0.6617
X1.2762 Y0.6618
X1.2853 Y0.6625
X1.2933 Y0.6637
X1.2955 Y0.6642
X1.3094 Y0.6685
X1.3222 Y0.6755
X1.3334 Y0.6849
X1.3426 Y0.6962
X1.3494 Y0.7091
X1.3536 Y0.723
X1.355 Y0.7375
Y0.7849
G3 X1.3292 Y0.809 Z0.323 I-0.025 J-0.0009
G1 X1.3255 Y0.8086
X1.1708 Y0.7802
X1.1655 Y0.7792 Z0.3219
G3 X1.145 Y0.7555 Z0.315 I0.0045 J-0.0246
G1 Y0.7144
X1.1453 Y0.7084
X1.1461 Y0.7025
X1.1475 Y0.6966
X1.1528 Y0.6843
X1.1602 Y0.6731
X1.1695 Y0.6634
X1.1803 Y0.6556
X1.1924 Y0.6498
X1.2053 Y0.6462
X1.2187 Y0.645
G3 X1.2428 Y0.6708 Z0.323 I-0.0009 J0.025
G3 X1.2346 Y0.6885 I-0.025 J-0.0009
G1 X1.1868 Y0.732
G3 X1.1708 Y0.7385 I-0.0168 J-0.0185
G3 X1.145 Y0.7144 Z0.315 I-0.0009 J-0.025
G1 Y0.6898
X1.1452 Y0.6857
X1.1461 Y0.6815
X1.1468 Y0.6795
X1.1478 Y0.6774
X1.1502 Y0.6733
X1.1604 Y0.6569
X1.1617 Y0.655
X1.1633 Y0.6531
X1.1655 Y0.6509
X1.1678 Y0.6492
X1.1686 Y0.6487
X1.1723 Y0.6468
X1.176 Y0.6456
X1.1801 Y0.645
X1.1842
X1.3075
X1.3135 Y0.6453
X1.3229 Y0.6475
X1.3315 Y0.6518
X1.3389 Y0.6578
X1.3449 Y0.6653
G3 X1.3356 Y0.6995 Z0.323 I-0.0217 J0.0124
G3 X1.3115 Y0.6999 I-0.0124 J-0.0217
G1 X1.2968 Y0.6921
G3 X1.2834 Y0.6708 I0.0117 J-0.0221
G3 X1.3075 Y0.645 Z0.315 I0.025 J-0.0009
G1 X1.3158
X1.3199
X1.324 Y0.6456
X1.3277 Y0.6468
X1.3314 Y0.6487
X1.3322 Y0.6492
X1.3345 Y0.6509
X1.3367 Y0.6531
X1.3383 Y0.655
X1.3396 Y0.6569
X1.3498 Y0.6733
X1.3522 Y0.6774
X1.3532 Y0.6795
X1.3539 Y0.6815
X1.3548 Y0.6857
X1.355 Y0.6898
Y0.7375
X1.3547 Y0.7405
X1.3541 Y0.7434
X1.3528 Y0.7461 Z0.3152
X1.3515 Y0.7487 Z0.3157
X1.3503 Y0.7513 Z0.3166
X1.348 Y0.7535 Z0.3181
X1.3459 Y0.7556 Z0.32
X1.344 Y0.7574 Z0.3223
X1.3417 Y0.7585 Z0.3253
X1.3398 Y0.7594 Z0.3286
X1.3385 Y0.76 Z0.3323
X1.3377 Y0.7604 Z0.3361
X1.3374 Y0.7606 Z0.34
Z1.12
X2.7376 Y2.0461
Z0.05
Z0.025
X2.7374 Y2.0459 Z0.0211
X2.7367 Y2.0453 Z0.0173
X2.7355 Y2.0443 Z0.0137
X2.734 Y2.043 Z0.0103
X2.7321 Y2.0413 Z0.0073
X2.7298 Y2.0393 Z0.0048
X2.7273 Y2.0371 Z0.0027
X2.7246 Y2.0347 Z0.0012
X2.7217 Y2.0322 Z0.0003
X2.7188 Y2.0296 Z0.
G3 X2.6257 Y1.9284 I0.4206 J-0.48
G1 X2.6147 Y1.9123
X2.61 Y1.9055
X2.6089 Y1.9043
X2.6052 Y1.8997
X2.6006 Y1.8929
X2.5957 Y1.8843
X2.5903 Y1.8736
X2.5846 Y1.8599
X2.5786 Y1.8424
X2.5722 Y1.8192
X2.5655 Y1.787
X2.5604 Y1.7512
X2.557 Y1.7151
X2.5547 Y1.679
X2.5532 Y1.6429
X2.5521 Y1.6067
X2.5514 Y1.5705
X2.5509 Y1.5344
X2.5506 Y1.4982
X2.5504 Y1.462
X2.5502 Y1.4258
X2.55 Y1.3535
X2.5499 Y1.2449
X2.5497 Y0.8831
X2.5495 Y0.1052
X2.5465 Y0.0874
X2.5328 Y0.0539
X2.5091 Y0.0265
X2.4797 Y0.0053
X2.4472 Y-0.0105
X2.413 Y-0.0222
X2.3778 Y-0.0305
X2.3421 Y-0.0365
X2.3061 Y-0.0406
X2.2701 Y-0.0435
X2.2339 Y-0.0456
X2.1978 Y-0.0469
X2.1814 Y-0.0474
X2.1666 Y-0.0492
X2.1525 Y-0.0539
X2.1396 Y-0.0611
X2.1283 Y-0.0708
X2.119 Y-0.0824
G3 X2.1213 Y-0.1113 I0.0215 J-0.0128
G1 X2.1238 Y-0.1143 Z0.0003
X2.1263 Y-0.1172 Z0.0012
X2.1286 Y-0.12 Z0.0027
X2.1308 Y-0.1226 Z0.0048
X2.1327 Y-0.1249 Z0.0073
X2.1343 Y-0.1268 Z0.0103
X2.1356 Y-0.1284 Z0.0137
X2.1366 Y-0.1295 Z0.0173
X2.1372 Y-0.1302 Z0.0211
X2.1374 Y-0.1305 Z0.025
Z1.12
X0.5442 Y-0.2372
Z0.05
Z0.025
X0.544 Y-0.237 Z0.0211
X0.5434 Y-0.2363 Z0.0173
X0.5425 Y-0.2352 Z0.0137
X0.5411 Y-0.2336 Z0.0103
X0.5394 Y-0.2317 Z0.0073
X0.5375 Y-0.2295 Z0.0048
X0.5353 Y-0.2269 Z0.0027
X0.5329 Y-0.2242 Z0.0012
X0.5304 Y-0.2213 Z0.0003
X0.5278 Y-0.2184 Z0.
G3 X0.427 Y-0.1249 I-0.4816 J-0.4188
G1 X0.4063 Y-0.1107
X0.4053 Y-0.1096
X0.4009 Y-0.1054
X0.3943 Y-0.1009
X0.3859 Y-0.096
X0.3753 Y-0.0906
X0.3619 Y-0.0849
X0.3447 Y-0.0789
X0.322 Y-0.0725
X0.2906 Y-0.0658
X0.2548 Y-0.0606
X0.2188 Y-0.057
X0.1827 Y-0.0547
X0.1466 Y-0.053
X0.1104 Y-0.0519
X0.1014 Y-0.0511
X0.0837 Y-0.0472
X0.0509 Y-0.0319
X0.0244 Y-0.0073
X0.004 Y0.0226
X-0.0113 Y0.0554
X-0.0224 Y0.0898
X-0.0304 Y0.1251
X-0.0361 Y0.1609
X-0.0401 Y0.1968
X-0.0429 Y0.2329
X-0.0448 Y0.269
X-0.0462 Y0.3052
X-0.0471 Y0.3413
X-0.0478 Y0.3775
X-0.0482 Y0.4137
X-0.0485 Y0.4499
X-0.0487 Y0.4861
X-0.0489 Y0.5222
X-0.0491 Y0.5946
X-0.0493 Y0.7393
X-0.0498 Y1.5715
X-0.0499 Y1.8195
X-0.0514 Y1.8341
X-0.0556 Y1.8482
X-0.0625 Y1.8611
X-0.0719 Y1.8725
X-0.0832 Y1.8818
G3 X-0.1121 Y1.8799 I-0.0132 J-0.0213
G1 X-0.1152 Y1.8775 Z0.0003
X-0.1181 Y1.8751 Z0.0012
X-0.121 Y1.8728 Z0.0027
X-0.1235 Y1.8707 Z0.0048
X-0.1259 Y1.8688 Z0.0073
X-0.1278 Y1.8672 Z0.0103
X-0.1294 Y1.8659 Z0.0137
X-0.1306 Y1.8649 Z0.0173
X-0.1313 Y1.8644 Z0.0211
X-0.1315 Y1.8642 Z0.025
Z1.12
X0.4248 Y-0.1615
Z0.05
Z0.025
X0.4247 Y-0.1612 Z0.0211
X0.4245 Y-0.1603 Z0.0173
X0.4242 Y-0.1589 Z0.0137
X0.4237 Y-0.1569 Z0.0103
X0.4232 Y-0.1544 Z0.0073
X0.4225 Y-0.1515 Z0.0048
X0.4218 Y-0.1482 Z0.0027
X0.421 Y-0.1447 Z0.0012
X0.4202 Y-0.1409 Z0.0003
X0.4193 Y-0.1371 Z0.
G3 X0.4053 Y-0.1096 I-0.0608 J-0.0136
G1 X0.3868 Y-0.09
X0.3834 Y-0.0862
X0.381 Y-0.0824
X0.376 Y-0.0742
X0.3727 Y-0.0692
X0.3689 Y-0.0644
X0.3638 Y-0.059
X0.3582 Y-0.0535
X0.3514 Y-0.0477
X0.3427 Y-0.0413
X0.3328 Y-0.0348
X0.3206 Y-0.028
X0.3058 Y-0.0209
X0.2875 Y-0.0136
X0.2648 Y-0.0061
X0.2352 Y0.0016
X0.1997 Y0.0085
X0.1656 Y0.0207
X0.1354 Y0.0406
X0.1101 Y0.0665
X0.0896 Y0.0963
X0.0735 Y0.1287
X0.0611 Y0.1627
X0.0517 Y0.1976
X0.0447 Y0.2331
X0.0395 Y0.2689
X0.0357 Y0.3049
X0.0329 Y0.341
X0.0309 Y0.3771
X0.0294 Y0.4133
X0.0284 Y0.4494
X0.0276 Y0.4856
X0.0271 Y0.5218
X0.0267 Y0.558
X0.0264 Y0.5941
X0.0262 Y0.6303
X0.0259 Y0.7027
X0.0257 Y0.8112
X0.0255 Y1.0283
X0.0251 Y1.7158
X0.025 Y1.752
X0.0236 Y1.7767
X0.0215 Y1.7942
X0.0204 Y1.8005
X0.0162 Y1.8147
X0.0094 Y1.8279
X0. Y1.8395
X-0.0114 Y1.8489
X-0.0245 Y1.856
X-0.0387 Y1.8603
G3 X-0.0651 Y1.8484 I-0.0049 J-0.0245
G1 X-0.0671 Y1.845 Z0.0003
X-0.069 Y1.8418 Z0.0012
X-0.0708 Y1.8386 Z0.0027
X-0.0725 Y1.8357 Z0.0048
X-0.074 Y1.8332 Z0.0073
X-0.0753 Y1.831 Z0.0103
X-0.0764 Y1.8292 Z0.0137
X-0.0771 Y1.8279 Z0.0173
X-0.0776 Y1.8271 Z0.0211
X-0.0777 Y1.8268 Z0.025
Z1.12
X0.384 Y-0.1291
Z0.05
Z0.025
Y-0.1288 Z0.0211
Y-0.1279 Z0.0173
Y-0.1264 Z0.0137
Y-0.1243 Z0.0103
Y-0.1218 Z0.0073
Y-0.1188 Z0.0048
X0.3839 Y-0.1155 Z0.0027
Y-0.1118 Z0.0012
Y-0.108 Z0.0003
Y-0.1041 Z0.
G3 X0.376 Y-0.0742 I-0.0623 J-0.0004
G1 X0.3711 Y-0.066
X0.3703 Y-0.0647
X0.3611 Y-0.0413
X0.3604 Y-0.0389
X0.3586 Y-0.0332
X0.3562 Y-0.0276
X0.3534 Y-0.0223
X0.3501 Y-0.0168
X0.346 Y-0.0111
X0.3408 Y-0.0045
X0.335 Y0.0018
X0.3276 Y0.0089
X0.3187 Y0.0164
X0.3087 Y0.0239
X0.2783 Y0.0435
X0.2475 Y0.0625
X0.2195 Y0.0855
X0.1952 Y0.1122
X0.1748 Y0.1421
X0.158 Y0.1742
X0.1446 Y0.2078
X0.134 Y0.2424
X0.1258 Y0.2776
X0.1195 Y0.3133
X0.1147 Y0.3491
X0.1111 Y0.3851
X0.1084 Y0.4212
X0.1064 Y0.4573
X0.1049 Y0.4935
X0.1037 Y0.5296
X0.1029 Y0.5658
X0.1023 Y0.602
X0.1019 Y0.6382
X0.1015 Y0.6743
X0.1013 Y0.7105
X0.1011 Y0.7467
X0.1009 Y0.8191
X0.1007 Y0.9276
X0.1005 Y1.1447
X0.1002 Y1.6513
X0.0999 Y1.6874
X0.0988 Y1.7236
X0.0965 Y1.7488
X0.0937 Y1.7673
X0.0904 Y1.7825
X0.0863 Y1.7964
X0.082 Y1.8086
X0.0773 Y1.8194
X0.0718 Y1.8301
X0.0666 Y1.8388
X0.0603 Y1.848
X0.0563 Y1.8518
X0.0513 Y1.8542
X0.0459 Y1.855
X0.0086
X0.0004 Y1.8553
X-0.0041 Y1.8555
G3 X-0.028 Y1.839 I-0.0003 J-0.025
G1 X-0.0293 Y1.8353 Z0.0003
X-0.0306 Y1.8317 Z0.0012
X-0.0318 Y1.8283 Z0.0027
X-0.033 Y1.8252 Z0.0048
X-0.034 Y1.8224 Z0.0073
X-0.0348 Y1.82 Z0.0103
X-0.0355 Y1.8181 Z0.0137
X-0.036 Y1.8166 Z0.0173
X-0.0363 Y1.8158 Z0.0211
X-0.0365 Y1.8155 Z0.025
Z1.12
X0.3532 Y-0.0939
Z0.05
Z0.025
Y-0.0936 Z0.0211
X0.3535 Y-0.0927 Z0.0173
X0.3539 Y-0.0912 Z0.0137
X0.3544 Y-0.0893 Z0.0103
X0.3551 Y-0.0868 Z0.0073
X0.3559 Y-0.0839 Z0.0048
X0.3568 Y-0.0807 Z0.0027
X0.3578 Y-0.0772 Z0.0012
X0.3588 Y-0.0735 Z0.0003
X0.3598 Y-0.0698 Z0.
G3 X0.3604 Y-0.0389 I-0.0601 J0.0166
G1 X0.3589 Y-0.0331
X0.3574 Y-0.0249
X0.3561 Y-0.0167
X0.3555 Y-0.004
X0.3549 Y0.002
X0.3539 Y0.0079
X0.3523 Y0.0137
X0.3502 Y0.0199
X0.3471 Y0.0271
X0.3431 Y0.0351
X0.3365 Y0.0465
X0.3163 Y0.0766
X0.2947 Y0.1055
X0.2742 Y0.1354
X0.2559 Y0.1666
X0.2401 Y0.1992
X0.2268 Y0.2328
X0.2159 Y0.2673
X0.207 Y0.3024
X0.1999 Y0.3378
X0.1943 Y0.3736
X0.1899 Y0.4095
X0.1865 Y0.4455
X0.1838 Y0.4816
X0.1818 Y0.5177
X0.1803 Y0.5539
X0.1791 Y0.59
X0.1782 Y0.6262
X0.1776 Y0.6624
X0.1771 Y0.6986
X0.1767 Y0.7347
X0.1764 Y0.7709
X0.1762 Y0.8071
X0.1759 Y0.8795
X0.1757 Y0.988
X0.1755 Y1.1689
X0.1752 Y1.5669
X0.1751 Y1.6031
X0.1748 Y1.6393
X0.1737 Y1.6754
X0.1713 Y1.7115
X0.1676 Y1.7406
X0.1628 Y1.7654
X0.1572 Y1.7866
X0.151 Y1.8053
X0.1499 Y1.8081
X0.143 Y1.8212
X0.1337 Y1.8327
X0.1223 Y1.8422
X0.1092 Y1.8492
X0.0951 Y1.8535
X0.0803 Y1.855
X0.0459
G3 X0.0229 Y1.8374 I0.0009 J-0.025
G1 X0.0217 Y1.8336 Z0.0003
X0.0206 Y1.83 Z0.0012
X0.0195 Y1.8265 Z0.0027
X0.0185 Y1.8233 Z0.0048
X0.0177 Y1.8205 Z0.0073
X0.0169 Y1.8181 Z0.0103
X0.0163 Y1.8161 Z0.0137
X0.0159 Y1.8147 Z0.0173
X0.0156 Y1.8138 Z0.0211
X0.0155 Y1.8135 Z0.025
Z1.12
X0.3366 Y-0.0561
Z0.05
Z0.025
X0.3367 Y-0.0558 Z0.0211
X0.3371 Y-0.055 Z0.0173
X0.3379 Y-0.0537 Z0.0137
X0.3388 Y-0.0519 Z0.0103
X0.34 Y-0.0496 Z0.0073
X0.3414 Y-0.047 Z0.0048
X0.343 Y-0.0441 Z0.0027
X0.3447 Y-0.0409 Z0.0012
X0.3464 Y-0.0375 Z0.0003
X0.3483 Y-0.034 Z0.
G3 X0.3555 Y-0.004 I-0.0551 J0.0292
G1 X0.3553 Y-0.0003
X0.355 Y0.0079
Y0.0572
X0.3545 Y0.0663
X0.3533 Y0.0773
X0.3504 Y0.0934
X0.3436 Y0.1208
X0.3327 Y0.1553
X0.321 Y0.1896
X0.3098 Y0.2239
X0.2996 Y0.2586
X0.2905 Y0.2937
X0.2828 Y0.329
X0.2764 Y0.3646
X0.271 Y0.4004
X0.2667 Y0.4363
X0.2632 Y0.4724
X0.2604 Y0.5084
X0.2582 Y0.5445
X0.2564 Y0.5807
X0.2551 Y0.6168
X0.254 Y0.653
X0.2532 Y0.6892
X0.2526 Y0.7254
X0.2521 Y0.7615
X0.2517 Y0.7977
X0.2514 Y0.8339
X0.2512 Y0.8701
X0.2509 Y0.9424
X0.2507 Y1.051
X0.2504 Y1.2319
X0.2502 Y1.5213
X0.2501 Y1.5575
X0.2497 Y1.5937
X0.2488 Y1.6299
X0.2469 Y1.666
X0.2437 Y1.702
X0.2388 Y1.7361
X0.2339 Y1.7595
X0.229 Y1.777
X0.2236 Y1.7929
X0.2183 Y1.8054
X0.2122 Y1.8177
X0.2046 Y1.8283
X0.1954 Y1.8375
X0.1847 Y1.845
X0.1729 Y1.8505
X0.1603 Y1.8539
X0.1473 Y1.855
X0.0803
G3 X0.0573 Y1.8374 I0.0009 J-0.025
G1 X0.0562 Y1.8336 Z0.0003
X0.0551 Y1.83 Z0.0012
X0.054 Y1.8265 Z0.0027
X0.053 Y1.8233 Z0.0048
X0.0521 Y1.8205 Z0.0073
X0.0514 Y1.8181 Z0.0103
X0.0508 Y1.8161 Z0.0137
X0.0503 Y1.8147 Z0.0173
X0.0501 Y1.8138 Z0.0211
X0.05 Y1.8135 Z0.025
Z1.12
X0.3335 Y0.0061
Z0.05
Z0.025
X0.3337 Y0.0063 Z0.0211
X0.3341 Y0.0071 Z0.0173
X0.3349 Y0.0084 Z0.0137
X0.336 Y0.0102 Z0.0103
X0.3373 Y0.0124 Z0.0073
X0.3388 Y0.0149 Z0.0048
X0.3405 Y0.0178 Z0.0027
X0.3423 Y0.0209 Z0.0012
X0.3443 Y0.0242 Z0.0003
X0.3463 Y0.0276 Z0.
G3 X0.355 Y0.0572 I-0.0536 J0.0318
G1 Y0.2462
X0.3532 Y0.2823
X0.3514 Y0.3184
X0.3487 Y0.3545
X0.3425 Y0.4266
X0.3397 Y0.4627
X0.3372 Y0.4988
X0.335 Y0.5349
X0.3332 Y0.571
X0.3316 Y0.6072
X0.3304 Y0.6433
X0.3294 Y0.6795
X0.3285 Y0.7157
X0.3279 Y0.7519
X0.3274 Y0.788
X0.327 Y0.8242
X0.3266 Y0.8604
X0.3264 Y0.8966
X0.3262 Y0.9328
X0.3259 Y1.0051
X0.3256 Y1.1137
X0.3254 Y1.2946
X0.3253 Y1.4393
X0.3252 Y1.4755
X0.3251 Y1.5117
X0.3247 Y1.5479
X0.3239 Y1.584
X0.3225 Y1.6202
X0.3201 Y1.6563
X0.3165 Y1.6923
X0.3114 Y1.7255
X0.3053 Y1.7536
X0.2996 Y1.7736
X0.2936 Y1.7905
X0.2875 Y1.8046
X0.2814 Y1.8166
X0.2805 Y1.8182
X0.2729 Y1.8287
X0.2637 Y1.8378
X0.2531 Y1.8452
X0.2413 Y1.8506
X0.2288 Y1.8539
X0.2159 Y1.855
X0.1473
G3 X0.1243 Y1.8374 I0.0009 J-0.025
G1 X0.1231 Y1.8336 Z0.0003
X0.122 Y1.83 Z0.0012
X0.1209 Y1.8265 Z0.0027
X0.1199 Y1.8233 Z0.0048
X0.1191 Y1.8205 Z0.0073
X0.1183 Y1.8181 Z0.0103
X0.1177 Y1.8161 Z0.0137
X0.1173 Y1.8147 Z0.0173
X0.117 Y1.8138 Z0.0211
X0.1169 Y1.8135 Z0.025
Z1.12
X0.3335 Y0.195
Z0.05
Z0.025
X0.3337 Y0.1953 Z0.0211
X0.3341 Y0.1961 Z0.0173
X0.3349 Y0.1974 Z0.0137
X0.336 Y0.1991 Z0.0103
X0.3373 Y0.2013 Z0.0073
X0.3388 Y0.2039 Z0.0048
X0.3405 Y0.2067 Z0.0027
X0.3423 Y0.2099 Z0.0012
X0.3443 Y0.2131 Z0.0003
X0.3463 Y0.2165 Z0.
G3 X0.355 Y0.2462 I-0.0536 J0.0318
G1 Y1.7412
X0.3542 Y1.7575
X0.3528 Y1.7699
X0.3506 Y1.7822
X0.3479 Y1.7931
X0.3445 Y1.8036
X0.3432 Y1.8071
X0.3364 Y1.8205
X0.3271 Y1.8322
X0.3156 Y1.8419
X0.3025 Y1.8491
X0.2882 Y1.8535
X0.2733 Y1.855
G3 X0.2491 Y1.8292 Z0.008 I0.0009 J-0.025
G3 X0.253 Y1.8166 I0.025 J0.0009
G1 X0.3089 Y1.7287
G3 X0.3292 Y1.7171 I0.0211 J0.0134
G3 X0.355 Y1.7412 Z0. I0.0009 J0.025
G1 Y1.807
X0.3549 Y1.8111
X0.3542 Y1.8152
X0.3539 Y1.8162
X0.3525 Y1.8198
X0.3503 Y1.8234
X0.3483 Y1.8259
X0.3457 Y1.8284
X0.3244 Y1.848
X0.321 Y1.8508
X0.3189 Y1.852
X0.3169 Y1.853
X0.3128 Y1.8543
X0.3087 Y1.8549
X0.3046 Y1.855
X0.2159
G3 X0.1929 Y1.8374 I0.0009 J-0.025
G1 X0.1918 Y1.8336 Z0.0003
X0.1906 Y1.83 Z0.0012
X0.1896 Y1.8265 Z0.0027
X0.1886 Y1.8233 Z0.0048
X0.1877 Y1.8205 Z0.0073
X0.1869 Y1.8181 Z0.0103
X0.1863 Y1.8161 Z0.0137
X0.1859 Y1.8147 Z0.0173
X0.1856 Y1.8138 Z0.0211
X0.1855 Y1.8135 Z0.025
Z1.12
X2.6591 Y1.9281
Z0.05
Z0.025
X2.6588 Y1.928 Z0.0211
X2.6579 Y1.9277 Z0.0173
X2.6565 Y1.9273 Z0.0137
X2.6545 Y1.9267 Z0.0103
X2.6521 Y1.9259 Z0.0073
X2.6492 Y1.925 Z0.0048
X2.6461 Y1.924 Z0.0027
X2.6426 Y1.9229 Z0.0012
X2.639 Y1.9218 Z0.0003
X2.6352 Y1.9206 Z0.
G3 X2.6089 Y1.9043 I0.0186 J-0.0595
G1 X2.6065 Y1.9016
X2.6023 Y1.8973
X2.5983 Y1.8934
X2.5934 Y1.8891
X2.5901 Y1.8864
X2.5818 Y1.8809
X2.5736 Y1.8758
X2.5687 Y1.8724
X2.5638 Y1.8685
X2.5583 Y1.8633
X2.5526 Y1.8573
X2.5468 Y1.8502
X2.5403 Y1.8411
X2.5337 Y1.8307
X2.5268 Y1.8181
X2.5197 Y1.8026
X2.5123 Y1.7834
X2.5048 Y1.7596
X2.497 Y1.7282
X2.4906 Y1.6926
X2.4861 Y1.6567
X2.4829 Y1.6206
X2.4806 Y1.5845
X2.4789 Y1.5484
X2.4778 Y1.5122
X2.4769 Y1.476
X2.4763 Y1.4399
X2.4759 Y1.4037
X2.4756 Y1.3675
X2.4754 Y1.3313
X2.4752 Y1.2951
X2.475 Y1.2228
X2.4748 Y1.1142
X2.4747 Y0.8248
X2.4746 Y0.2097
X2.4675 Y0.1742
X2.4507 Y0.1422
X2.4267 Y0.1151
X2.398 Y0.0931
X2.3662 Y0.0758
X2.3326 Y0.0624
X2.2978 Y0.0524
X2.2624 Y0.0448
X2.2268 Y0.0382
X2.2024 Y0.0326
X2.1944 Y0.0302
X2.1816 Y0.0251
X2.17 Y0.0177
X2.1599 Y0.0084
X2.1517 Y-0.0027
X2.1457 Y-0.0151
X2.142 Y-0.0283
G3 X2.1553 Y-0.0541 I0.0247 J-0.0036
G1 X2.1587 Y-0.0559 Z0.0003
X2.1621 Y-0.0577 Z0.0012
X2.1653 Y-0.0593 Z0.0027
X2.1683 Y-0.0609 Z0.0048
X2.171 Y-0.0622 Z0.0073
X2.1732 Y-0.0634 Z0.0103
X2.175 Y-0.0644 Z0.0137
X2.1764 Y-0.065 Z0.0173
X2.1772 Y-0.0655 Z0.0211
X2.1775 Y-0.0656 Z0.025
Z1.12
X2.6285 Y1.8842
Z0.05
Z0.025
X2.6282 Z0.0211
X2.6272 Z0.0173
X2.6257 Z0.0137
X2.6237 Y1.8841 Z0.0103
X2.6211 Z0.0073
X2.6182 Z0.0048
X2.6148 Y1.884 Z0.0027
X2.6112 Z0.0012
X2.6074 Y1.8839 Z0.0003
X2.6035 Z0.
G3 X2.5736 Y1.8758 I0.0008 J-0.0623
G1 X2.5644 Y1.8702
X2.5407 Y1.8609
X2.5397 Y1.8605
X2.5387 Y1.8603
X2.5329 Y1.8588
X2.5274 Y1.8564
X2.5221 Y1.8536
X2.5163 Y1.85
X2.5106 Y1.846
X2.5041 Y1.8407
X2.4975 Y1.8345
X2.4905 Y1.8271
X2.4827 Y1.8177
X2.4754 Y1.8076
X2.4672 Y1.7948
X2.4591 Y1.78
X2.4506 Y1.7618
X2.4422 Y1.7405
X2.4336 Y1.7134
X2.4249 Y1.6787
X2.4183 Y1.6431
X2.4135 Y1.6073
X2.4099 Y1.5712
X2.4073 Y1.5352
X2.4053 Y1.499
X2.4038 Y1.4629
X2.4028 Y1.4267
X2.402 Y1.3905
X2.4014 Y1.3544
X2.401 Y1.3182
X2.4006 Y1.282
X2.4004 Y1.2458
X2.4002 Y1.2096
X2.4 Y1.1373
X2.3998 Y1.0287
X2.3997 Y0.8116
X2.3996 Y0.3051
X2.3938 Y0.2694
X2.3792 Y0.2363
X2.3575 Y0.2073
X2.3307 Y0.1831
X2.3005 Y0.1632
X2.2683 Y0.1465
X2.2354 Y0.1315
X2.2061 Y0.1177
X2.1868 Y0.1071
X2.1797 Y0.1025
X2.1679 Y0.0932
X2.1582 Y0.0818
X2.151 Y0.0686
X2.1465 Y0.0542
X2.145 Y0.0393
Y0.0079
X2.1447 Y-0.0003
X2.1439 Y-0.0167
X2.1426 Y-0.0249
X2.142 Y-0.0283
G3 X2.1553 Y-0.0541 I0.0247 J-0.0036
G1 X2.1587 Y-0.0559 Z0.0003
X2.1621 Y-0.0577 Z0.0012
X2.1653 Y-0.0593 Z0.0027
X2.1683 Y-0.0609 Z0.0048
X2.171 Y-0.0622 Z0.0073
X2.1732 Y-0.0634 Z0.0103
X2.175 Y-0.0644 Z0.0137
X2.1764 Y-0.065 Z0.0173
X2.1772 Y-0.0655 Z0.0211
X2.1775 Y-0.0656 Z0.025
Z1.12
X2.593 Y1.8492
Z0.05
Z0.025
X2.5927 Y1.8493 Z0.0211
X2.5919 Y1.8496 Z0.0173
X2.5905 Y1.8501 Z0.0137
X2.5885 Y1.8508 Z0.0103
X2.5861 Y1.8516 Z0.0073
X2.5833 Y1.8526 Z0.0048
X2.5802 Y1.8538 Z0.0027
X2.5768 Y1.855 Z0.0012
X2.5732 Y1.8562 Z0.0003
X2.5695 Y1.8575 Z0.
G3 X2.5387 Y1.8603 I-0.0208 J-0.0587
G1 X2.5182 Y1.8562
X2.5161 Y1.8561
X2.5033 Y1.8555
X2.4974 Y1.8549
X2.4915 Y1.8538
X2.4857 Y1.8522
X2.48 Y1.8502
X2.4739 Y1.8475
X2.4677 Y1.8443
X2.4608 Y1.8402
X2.4536 Y1.8352
X2.446 Y1.8292
X2.438 Y1.822
X2.4297 Y1.8136
X2.4209 Y1.8033
X2.4121 Y1.7917
X2.4024 Y1.777
X2.3934 Y1.7612
X2.3837 Y1.7414
X2.374 Y1.718
X2.3645 Y1.6899
X2.3551 Y1.6549
X2.3478 Y1.6195
X2.3423 Y1.5837
X2.3381 Y1.5478
X2.3349 Y1.5118
X2.3324 Y1.4757
X2.3305 Y1.4395
X2.3291 Y1.4034
X2.328 Y1.3672
X2.3272 Y1.331
X2.3266 Y1.2949
X2.3261 Y1.2587
X2.3258 Y1.2225
X2.3255 Y1.1863
X2.3253 Y1.1501
X2.3251 Y1.0778
X2.3249 Y0.9692
X2.3247 Y0.7883
X2.3246 Y0.4265
X2.3244 Y0.3903
X2.3188 Y0.3546
X2.3052 Y0.321
X2.2853 Y0.2908
X2.261 Y0.264
X2.234 Y0.24
X2.2056 Y0.2176
X2.1771 Y0.1953
X2.1703 Y0.1893
X2.1615 Y0.1801
X2.1545 Y0.1696
X2.1493 Y0.158
X2.1461 Y0.1457
X2.145 Y0.1331
Y0.0393
G3 X2.1626 Y0.0163 I0.025 J0.0009
G1 X2.1664 Y0.0151 Z0.0003
X2.17 Y0.014 Z0.0012
X2.1735 Y0.0129 Z0.0027
X2.1767 Y0.012 Z0.0048
X2.1795 Y0.0111 Z0.0073
X2.1819 Y0.0103 Z0.0103
X2.1839 Y0.0097 Z0.0137
X2.1853 Y0.0093 Z0.0173
X2.1862 Y0.009 Z0.0211
X2.1865 Y0.0089 Z0.025
Z1.12
X2.5554 Y1.8364
Z0.05
Z0.025
X2.5552 Y1.8366 Z0.0211
X2.5544 Y1.837 Z0.0173
X2.553 Y1.8377 Z0.0137
X2.5512 Y1.8387 Z0.0103
X2.549 Y1.8399 Z0.0073
X2.5463 Y1.8413 Z0.0048
X2.5434 Y1.8429 Z0.0027
X2.5402 Y1.8446 Z0.0012
X2.5368 Y1.8463 Z0.0003
X2.5334 Y1.8482 Z0.
G3 X2.5033 Y1.8555 I-0.0293 J-0.055
G1 X2.4996 Y1.8553
X2.4914 Y1.855
X2.4585
X2.4512 Y1.8546
X2.4452 Y1.8539
X2.4393 Y1.8528
X2.4332 Y1.8512
X2.427 Y1.8491
X2.4198 Y1.8462
X2.4127 Y1.8427
X2.4047 Y1.8381
X2.3966 Y1.8328
X2.3877 Y1.8261
X2.3789 Y1.8185
X2.3692 Y1.809
X2.3596 Y1.7984
X2.3493 Y1.7854
X2.3391 Y1.7706
X2.3284 Y1.7528
X2.3177 Y1.7321
X2.3072 Y1.7082
X2.2965 Y1.6788
X2.2864 Y1.6441
X2.2783 Y1.6088
X2.272 Y1.5732
X2.267 Y1.5374
X2.2632 Y1.5014
X2.2601 Y1.4653
X2.2577 Y1.4292
X2.2559 Y1.3931
X2.2545 Y1.3569
X2.2534 Y1.3208
X2.2525 Y1.2846
X2.2518 Y1.2484
X2.2513 Y1.2123
X2.251 Y1.1761
X2.2507 Y1.1399
X2.2504 Y1.1037
X2.2503 Y1.0675
X2.25 Y0.9952
X2.2498 Y0.8866
X2.2497 Y0.6695
X2.2496 Y0.4886
X2.2474 Y0.4525
X2.2391 Y0.4173
X2.2249 Y0.384
X2.2062 Y0.353
X2.1845 Y0.3241
X2.1624 Y0.2976
X2.1549 Y0.2869
X2.1495 Y0.2751
X2.1461 Y0.2626
X2.145 Y0.2496
Y0.1331
G3 X2.1626 Y0.1101 I0.025 J0.0009
G1 X2.1664 Y0.1089 Z0.0003
X2.17 Y0.1078 Z0.0012
X2.1735 Y0.1068 Z0.0027
X2.1767 Y0.1058 Z0.0048
X2.1795 Y0.1049 Z0.0073
X2.1819 Y0.1041 Z0.0103
X2.1839 Y0.1035 Z0.0137
X2.1853 Y0.1031 Z0.0173
X2.1862 Y0.1028 Z0.0211
X2.1865 Y0.1027 Z0.025
Z1.12
X2.5097 Y1.8335
Z0.05
Z0.025
X2.5094 Y1.8337 Z0.0211
X2.5086 Y1.8341 Z0.0173
X2.5073 Y1.8349 Z0.0137
X2.5056 Y1.836 Z0.0103
X2.5034 Y1.8373 Z0.0073
X2.5008 Y1.8388 Z0.0048
X2.4979 Y1.8405 Z0.0027
X2.4948 Y1.8423 Z0.0012
X2.4915 Y1.8443 Z0.0003
X2.4882 Y1.8463 Z0.
G3 X2.4585 Y1.855 I-0.0318 J-0.0536
G1 X2.401
X2.3946 Y1.8547
X2.3886 Y1.854
X2.3827 Y1.8529
X2.3762 Y1.8512
X2.3693 Y1.849
X2.3617 Y1.846
X2.3538 Y1.8423
X2.3452 Y1.8375
X2.3363 Y1.8319
X2.3267 Y1.8248
X2.317 Y1.8167
X2.3063 Y1.8065
X2.2961 Y1.7954
X2.2846 Y1.7813
X2.2738 Y1.7661
X2.2619 Y1.7469
X2.2505 Y1.7255
X2.239 Y1.7002
X2.2274 Y1.6695
X2.2168 Y1.635
X2.2083 Y1.5998
X2.2014 Y1.5643
X2.1958 Y1.5285
X2.1914 Y1.4926
X2.1878 Y1.4566
X2.185 Y1.4205
X2.1828 Y1.3844
X2.181 Y1.3483
X2.1796 Y1.3121
X2.1785 Y1.276
X2.1777 Y1.2398
X2.177 Y1.2036
X2.1765 Y1.1674
X2.1761 Y1.1313
X2.1758 Y1.0951
X2.1755 Y1.0589
X2.1753 Y1.0227
X2.1751 Y0.9504
X2.1749 Y0.8418
X2.1747 Y0.6609
Y0.5885
X2.1743 Y0.5524
X2.171 Y0.5163
X2.163 Y0.481
X2.1507 Y0.447
X2.1475 Y0.4389
X2.1456 Y0.4303
X2.145 Y0.4216
Y0.2496
G3 X2.1626 Y0.2266 I0.025 J0.0009
G1 X2.1664 Y0.2254 Z0.0003
X2.17 Y0.2243 Z0.0012
X2.1735 Y0.2232 Z0.0027
X2.1767 Y0.2222 Z0.0048
X2.1795 Y0.2214 Z0.0073
X2.1819 Y0.2206 Z0.0103
X2.1839 Y0.22 Z0.0137
X2.1853 Y0.2196 Z0.0173
X2.1862 Y0.2193 Z0.0211
X2.1865 Y0.2192 Z0.025
Z1.12
X2.4521 Y1.8335
Z0.05
Z0.025
X2.4519 Y1.8337 Z0.0211
X2.4511 Y1.8341 Z0.0173
X2.4498 Y1.8349 Z0.0137
X2.448 Y1.836 Z0.0103
X2.4458 Y1.8373 Z0.0073
X2.4433 Y1.8388 Z0.0048
X2.4404 Y1.8405 Z0.0027
X2.4373 Y1.8423 Z0.0012
X2.434 Y1.8443 Z0.0003
X2.4306 Y1.8463 Z0.
G3 X2.401 Y1.855 I-0.0318 J-0.0536
G1 X2.3389
X2.3329 Y1.8547
X2.327 Y1.8539
X2.3206 Y1.8527
X2.3137 Y1.8509
X2.3062 Y1.8484
X2.2981 Y1.8451
X2.2896 Y1.841
X2.2804 Y1.8358
X2.2708 Y1.8296
X2.2605 Y1.8219
X2.2501 Y1.813
X2.2387 Y1.8019
X2.2277 Y1.7898
X2.2154 Y1.7743
X2.2038 Y1.7577
X2.1913 Y1.7371
X2.1787 Y1.713
X2.1666 Y1.6856
X2.1542 Y1.6521
X2.1481 Y1.6315
X2.1464 Y1.6245
X2.1453 Y1.6173
X2.145 Y1.6101
G3 X2.1708 Y1.586 Z0.008 I0.025 J0.0009
G3 X2.1898 Y1.5958 I-0.0009 J0.025
G1 X2.3579 Y1.8148
G3 X2.363 Y1.8292 I-0.0198 J0.0152
G3 X2.3389 Y1.855 Z0. I-0.025 J0.0009
G1 X2.2777
X2.2708 Y1.8547
X2.2649 Y1.854
X2.2582 Y1.8528
X2.2513 Y1.8511
X2.2436 Y1.8486
X2.2354 Y1.8454
X2.2265 Y1.8412
X2.2172 Y1.8362
X2.2071 Y1.8298
X2.1968 Y1.8223
X2.1855 Y1.8129
X2.1743 Y1.8024
X2.1652 Y1.7926
X2.1566 Y1.7815
X2.1502 Y1.7689
X2.1463 Y1.7554
X2.145 Y1.7414
G3 X2.1708 Y1.7173 Z0.008 I0.025 J0.0009
G3 X2.1859 Y1.723 I-0.0009 J0.025
G1 X2.2926 Y1.8107
G3 X2.3018 Y1.8292 I-0.0159 J0.0193
G3 X2.2777 Y1.855 Z0. I-0.025 J0.0009
G1 X2.2119
X2.2059 Y1.8547
X2.1999 Y1.854
X2.1992 Y1.8539
X2.1856 Y1.85
X2.1729 Y1.8437
X2.1617 Y1.8351
G3 X2.1615 Y1.7998 Z0.008 I0.0176 J-0.0178
G3 X2.1885 Y1.7942 I0.0178 J0.0176
G1 X2.2202 Y1.8068
G3 X2.236 Y1.8292 I-0.0092 J0.0232
G3 X2.2119 Y1.855 Z0. I-0.025 J0.0009
G1 X2.1954
X2.1913 Y1.8549
X2.1872 Y1.8543
X2.1831 Y1.853
X2.1811 Y1.852
X2.179 Y1.8508
X2.1756 Y1.848
X2.1543 Y1.8284
X2.1517 Y1.8259
X2.1497 Y1.8234
X2.1475 Y1.8198
X2.1461 Y1.8162
X2.1458 Y1.8152
X2.1451 Y1.8111
X2.145 Y1.807
Y0.4216
X2.1453 Y0.4187
X2.1459 Y0.4158
X2.1472 Y0.4131 Z0.0002
X2.1485 Y0.4104 Z0.0007
X2.1497 Y0.4079 Z0.0016
X2.152 Y0.4056 Z0.0031
X2.1541 Y0.4036 Z0.005
X2.156 Y0.4017 Z0.0073
X2.1583 Y0.4006 Z0.0103
X2.1602 Y0.3998 Z0.0136
X2.1615 Y0.3991 Z0.0173
X2.1623 Y0.3987 Z0.0211
X2.1626 Y0.3986 Z0.025
Z1.12
X1.2245 Y0.9582
Z0.415
G3 X1.1809 Y0.8107 Z0.4086 I0.0255 J-0.0877 F13.3333
G3 X1.333 Y0.8326 Z0.4022 I0.069 J0.0597
G3 X1.2497 Y0.9615 Z0.3958 I-0.0829 J0.0377
G3 X1.1675 Y0.8322 Z0.3895 I0.0003 J-0.091
G3 X1.3191 Y0.8115 Z0.3831 I0.0825 J0.0383
G3 X1.2747 Y0.9577 Z0.3767 I-0.0691 J0.0589
G3 X1.1604 Y0.8564 Z0.3703 I-0.0246 J-0.0873
G3 X1.3 Y0.795 Z0.3639 I0.0895 J0.014
G3 X1.2976 Y0.9473 Z0.3575 I-0.05 J0.0754
G3 X1.1604 Y0.8816 Z0.3512 I-0.0475 J-0.0768
G3 X1.2772 Y0.7845 Z0.3448 I0.0895 J-0.0111
G3 X1.3166 Y0.931 Z0.3384 I-0.0273 J0.0859
G3 X1.1672 Y0.9057 Z0.332 I-0.0666 J-0.0606
G3 X1.2525 Y0.7806 Z0.3256 I0.0827 J-0.0352
G3 X1.3304 Y0.9101 Z0.3192 I-0.0025 J0.0898
G3 X1.1804 Y0.9269 Z0.3128 I-0.0804 J-0.0397
G3 X1.2278 Y0.7837 Z0.3065 I0.0696 J-0.0564
G3 X1.3379 Y0.8864 Z0.3001 I0.0222 J0.0867
G3 X1.1988 Y0.9436 Z0.2937 I-0.0879 J-0.016
G3 X1.2049 Y0.7935 Z0.2873 I0.0512 J-0.0731
G3 X1.3386 Y0.8616 Z0.2809 I0.045 J0.0769
G3 X1.221 Y0.9545 Z0.2745 I-0.0886 J0.0088
G3 X1.1857 Y0.8091 Z0.2682 I0.029 J-0.084
G3 X1.3324 Y0.8377 Z0.2618 I0.0642 J0.0613
G3 X1.2453 Y0.9589 Z0.2554 I-0.0824 J0.0327
G3 X1.1716 Y0.8293 Z0.249 I0.0047 J-0.0884
G3 X1.32 Y0.8164 Z0.2426 I0.0783 J0.0411
G3 X1.2698 Y0.9565 Z0.2362 I-0.07 J0.0539
G3 X1.1636 Y0.8525 Z0.2298 I-0.0198 J-0.086
G3 X1.3022 Y0.7995 Z0.2235 I0.0863 J0.0179
G3 X1.2925 Y0.9474 Z0.2171 I-0.0522 J0.0708
G3 X1.1624 Y0.877 Z0.2107 I-0.0425 J-0.0769
G3 X1.2806 Y0.7882 Z0.2043 I0.0875 J-0.0065
G3 X1.3118 Y0.9325 Z0.1979 I-0.0306 J0.0822
G3 X1.1679 Y0.9007 Z0.1915 I-0.0618 J-0.062
G3 X1.2567 Y0.7833 Z0.1852 I0.0821 J-0.0302
G3 X1.3262 Y0.9129 Z0.1788 I-0.0068 J0.0871
G3 X1.1797 Y0.9219 Z0.1724 I-0.0762 J-0.0425
G3 X1.2326 Y0.7851 Z0.166 I0.0703 J-0.0515
G3 X1.3347 Y0.8902 Z0.1596 I0.0174 J0.0853
G3 X1.1968 Y0.939 Z0.1532 I-0.0846 J-0.0198
G3 X1.2099 Y0.7935 Z0.1468 I0.0532 J-0.0685
G3 X1.3365 Y0.8661 Z0.1405 I0.04 J0.0769
G3 X1.2178 Y0.9507 Z0.1341 I-0.0865 J0.0043
G3 X1.1905 Y0.8078 Z0.1277 I0.0322 J-0.0802
G3 X1.3316 Y0.8426 Z0.1213 I0.0594 J0.0626
G3 X1.2412 Y0.9561 Z0.1149 I-0.0816 J0.0278
G3 X1.1758 Y0.8267 Z0.1085 I0.0088 J-0.0857
G3 X1.3205 Y0.8214 Z0.1022 I0.0741 J0.0437
G3 X1.2651 Y0.9549 Z0.0958 I-0.0705 J0.049
G3 X1.167 Y0.8489 Z0.0894 I-0.0151 J-0.0844
G3 X1.3041 Y0.8041 Z0.083 I0.0829 J0.0215
G3 X1.2876 Y0.9472 Z0.0766 I-0.0541 J0.0663
G3 X1.1646 Y0.8726 Z0.0702 I-0.0376 J-0.0767
G3 X1.2836 Y0.7921 Z0.0638 I0.0853 J-0.0021
G3 X1.3071 Y0.9336 Z0.0575 I-0.0337 J0.0783
G3 X1.1688 Y0.8959 Z0.0511 I-0.057 J-0.0632
G3 X1.2607 Y0.7862 Z0.0447 I0.0811 J-0.0254
G3 X1.322 Y0.9153 Z0.0383 I-0.0108 J0.0842
G3 X1.1792 Y0.9171 Z0.0319 I-0.0719 J-0.0449
G3 X1.2372 Y0.7868 Z0.0255 I0.0707 J-0.0466
G3 X1.3312 Y0.8936 Z0.0192 I0.0128 J0.0836
G3 X1.195 Y0.9345 Z0.0128 I-0.0812 J-0.0232
G3 X1.2148 Y0.7939 Z0.0064 I0.0549 J-0.064
G3 X1.3341 Y0.8704 Z0. I0.0352 J0.0765
G3 X1.1657 I-0.0842 J0.
G3 X1.3341 I0.0842 J0.
G1 X1.3351 Y0.9066 F20.
X1.336 Y0.911
X1.3365 Y0.917
X1.3362 Y0.923
X1.3351 Y0.9289
X1.3335 Y0.9347
X1.3314 Y0.9403
X1.3246 Y0.9515
X1.3158 Y0.9613
X1.3054 Y0.9692
X1.2936 Y0.9752
X1.281 Y0.9788
X1.2679 Y0.98
X1.2253
X1.2193 Y0.9797
X1.2134 Y0.979
X1.2075 Y0.9779
X1.2017 Y0.9764
X1.1958 Y0.9745
X1.19 Y0.9722
X1.1842 Y0.9694
X1.1836 Y0.9691
X1.1726 Y0.9617
X1.1631 Y0.9524
X1.1554 Y0.9416
X1.1497 Y0.9296
X1.1462 Y0.9168
X1.145 Y0.9035
G3 X1.1708 Y0.8794 Z0.008 I0.025 J0.0009
G3 X1.187 Y0.8861 I-0.0009 J0.025
G1 X1.2415 Y0.9367
G3 X1.2494 Y0.9542 I-0.017 J0.0183
G3 X1.2253 Y0.98 Z0. I-0.025 J0.0009
G1 X1.1842
X1.1801
X1.176 Y0.9794
X1.1732 Y0.9785
X1.1703 Y0.9773
X1.1678 Y0.9758
X1.1644 Y0.9731
X1.1625 Y0.9711
X1.161 Y0.9691
X1.1596 Y0.9667
X1.1513 Y0.9524
X1.147 Y0.9444
X1.1456 Y0.9403
X1.145 Y0.9362
Y0.928
Y0.8413
X1.1453 Y0.8353
X1.146 Y0.8294
X1.1471 Y0.8235
X1.1487 Y0.8177
X1.1507 Y0.812
X1.153 Y0.8065
X1.1557 Y0.8011
X1.1589 Y0.7957
X1.1624 Y0.7904
X1.1664 Y0.7853
X1.1707 Y0.7803
X1.1755 Y0.7755
X1.1806 Y0.771
X1.1861 Y0.7668
X1.192 Y0.7628
X1.1981 Y0.7592
X1.2045 Y0.756
X1.2113 Y0.7531
X1.2182 Y0.7507
X1.2254 Y0.7487
X1.2327 Y0.7471
X1.2402 Y0.746
X1.2477 Y0.7454
X1.2554 Y0.7452
X1.2631 Y0.7456
X1.2708 Y0.7464
X1.2784 Y0.7478
X1.286 Y0.7496
X1.2935 Y0.752
X1.3009 Y0.7548
X1.308 Y0.7581
X1.315 Y0.7618
X1.3218 Y0.766
X1.3237 Y0.7675
X1.3344 Y0.7768
X1.3432 Y0.788
X1.3497 Y0.8006
X1.3537 Y0.8143
X1.355 Y0.8284
Y0.928
Y0.9362
X1.3544 Y0.9403
X1.353 Y0.9444
X1.3485 Y0.9526
X1.3404 Y0.9667
X1.339 Y0.9691
X1.3375 Y0.9711
X1.3356 Y0.9731
X1.3322 Y0.9758
X1.3297 Y0.9773
X1.3268 Y0.9785
X1.324 Y0.9794
X1.3199 Y0.98
X1.3158
X1.2679
G3 X1.2499 Y0.9713 Z0.0042 I0.0009 J-0.025
G1 X1.2435 Y0.964 Z0.0062
X1.2377 Y0.9572 Z0.008
X1.1656 Y0.8737
X1.1598 Y0.8669 Z0.0062
X1.1511 Y0.8568 Z0.0034
G3 X1.145 Y0.8413 Z0. I0.0189 J-0.0163
G1 Y0.792
X1.1453 Y0.786
X1.1462 Y0.7801
X1.1477 Y0.7743
X1.1496 Y0.7686
X1.152 Y0.7631
X1.1548 Y0.7578
X1.158 Y0.7527
X1.1616 Y0.7477
X1.1657 Y0.7427
X1.1702 Y0.7378
X1.1753 Y0.733
X1.1809 Y0.7283
X1.187 Y0.7239
X1.1936 Y0.7197
X1.2005 Y0.7159
X1.208 Y0.7124
X1.2159 Y0.7093
X1.2242 Y0.7067
X1.2329 Y0.7045
X1.2418 Y0.7028
X1.251 Y0.7018
X1.2604 Y0.7012
X1.27 Y0.7013
X1.2795 Y0.7021
X1.2883 Y0.7033
X1.2979 Y0.7052
X1.2997 Y0.7058
X1.3128 Y0.7107
X1.3247 Y0.7179
X1.3351 Y0.7272
X1.3436 Y0.7383
X1.3499 Y0.7508
X1.3537 Y0.7642
X1.355 Y0.7781
Y0.8284
G3 X1.3292 Y0.8525 Z0.008 I-0.025 J-0.0009
G1 X1.3268 Y0.8523
X1.3245 Y0.8519
X1.1707 Y0.817
X1.1644 Y0.8155 Z0.0067
G3 X1.145 Y0.792 Z0. I0.0055 J-0.0244
G1 Y0.751
X1.1453 Y0.745
X1.1461 Y0.739
X1.1475 Y0.7332
X1.1493 Y0.7275
X1.1517 Y0.722
X1.1544 Y0.7166
X1.1575 Y0.7115
X1.1612 Y0.7063
X1.1654 Y0.701
X1.17 Y0.6959
X1.1753 Y0.6907
X1.1813 Y0.6856
X1.1878 Y0.6808
X1.1948 Y0.6762
X1.2025 Y0.6719
X1.2108 Y0.6679
X1.2196 Y0.6643
X1.2288 Y0.6612
X1.238 Y0.6588
X1.2469 Y0.657
X1.2567 Y0.6558
X1.2652 Y0.6552
X1.2744
X1.2832 Y0.6558
X1.2912 Y0.6568
X1.2943 Y0.6574
X1.3085 Y0.6616
X1.3215 Y0.6684
X1.3329 Y0.6778
X1.3423 Y0.6891
X1.3493 Y0.7021
X1.3535 Y0.7162
X1.355 Y0.7308
Y0.7781
G3 X1.3292 Y0.8022 Z0.008 I-0.025 J-0.0009
G1 X1.3258 Y0.8019
X1.1708 Y0.7756
X1.1658 Y0.7747 Z0.007
G3 X1.145 Y0.751 Z0. I0.0042 J-0.0246
G1 Y0.7062
X1.1453 Y0.7002
X1.1463 Y0.6943
X1.1507 Y0.6826
X1.1571 Y0.672
X1.1654 Y0.6627
X1.1752 Y0.6552
X1.1863 Y0.6496
X1.1983 Y0.6462
X1.2106 Y0.645
G3 X1.2347 Y0.6708 Z0.008 I-0.0009 J0.025
G3 X1.2264 Y0.6887 I-0.025 J-0.0009
G1 X1.1866 Y0.724
G3 X1.1708 Y0.7303 I-0.0166 J-0.0187
G3 X1.145 Y0.7062 Z0. I-0.0009 J-0.025
G1 Y0.6898
X1.1452 Y0.6857
X1.1461 Y0.6815
X1.1468 Y0.6795
X1.1478 Y0.6774
X1.1502 Y0.6733
X1.1604 Y0.6569
X1.1617 Y0.655
X1.1633 Y0.6531
X1.1655 Y0.6509
X1.1678 Y0.6492
X1.1686 Y0.6487
X1.1723 Y0.6468
X1.176 Y0.6456
X1.1801 Y0.645
X1.1842
X1.3121
X1.3158
X1.3199
X1.324 Y0.6456
X1.3277 Y0.6468
X1.3314 Y0.6487
X1.3322 Y0.6492
X1.3345 Y0.6509
X1.3367 Y0.6531
X1.3383 Y0.655
X1.3396 Y0.6569
X1.3498 Y0.6733
X1.3522 Y0.6774
X1.3532 Y0.6795
X1.3539 Y0.6815
X1.3548 Y0.6857
X1.355 Y0.6898
Y0.7308
G3 X1.3374 Y0.7539 I-0.025 J-0.0009
G1 X1.3336 Y0.755 Z0.0003
X1.33 Y0.7561 Z0.0012
X1.3265 Y0.7572 Z0.0027
X1.3233 Y0.7582 Z0.0048
X1.3205 Y0.7591 Z0.0073
X1.3181 Y0.7598 Z0.0103
X1.3161 Y0.7604 Z0.0137
X1.3147 Y0.7609 Z0.0173
X1.3138 Y0.7611 Z0.0211
X1.3135 Y0.7612 Z0.025
Z2.12
G53 Z
M5
G53 P10
