[test_tenon_t4]
[Machine]
[  vendor: Nova Labs]
[  model: ShopSaber]
[  description: Generic 3-axis]
[T4 D=0.125 CR=0. - ZMIN=0. - flat end mill]
G90
G20
[When using Fusion for Personal Use, the feedrate of rapid]
[moves is reduced to match the feedrate of cutting moves,]
[which can increase machining time. Unrestricted rapid moves]
[are available with a Fusion Subscription.]
G53 Z
[Finishing]
M0
[MANUAL TOOL CHANGE TO T4]
S16000
M3
G4 X4.
G90
G0 X2.5001 Y1.8764
Z1.52
G1 Z0.9718 F15.
Z0.9356 F10.
Z0.8925 F15.
Y1.8767 Z0.8897 F15.
Y1.8776 Z0.8871
Y1.8791 Z0.8847
Y1.8811 Z0.8827
Y1.8835 Z0.8812
Y1.8861 Z0.8803
Y1.8889 Z0.88
Y1.925
G3 X2.4876 Y1.9375 I-0.0125 J0.
G1 X2.0626
X2.0625 Y1.9374
Y0.0123
G3 X2.075 Y-0.0002 I0.0125 J0.
G1 X2.0778 Z0.8803
X2.0804 Z0.8812
X2.0828 Z0.8827
X2.0848 Z0.8847
X2.0863 Z0.8871
X2.0872 Z0.8897
X2.0875 Z0.8925
Z1.12
X0.3764
Z0.9718
Z0.9356 F10.
Z0.8925 F15.
X0.3767 Z0.8897
X0.3776 Z0.8871
X0.3791 Z0.8847
X0.3811 Z0.8827
X0.3835 Z0.8812
X0.3861 Z0.8803
X0.3889 Z0.88
X0.425
G3 X0.4375 Y0.0123 I0. J0.0125
G1 Y1.9374
X0.4374 Y1.9375
X0.0124
G3 X-0.0001 Y1.925 I0. J-0.0125
G1 Y1.9222 Z0.8803
Y1.9196 Z0.8812
Y1.9172 Z0.8827
Y1.9152 Z0.8847
Y1.9137 Z0.8871
Y1.9128 Z0.8897
Y1.9125 Z0.8925
Z1.12
X0.3579 Y-0.0002
Z0.9313
Z0.8956 F10.
Z0.8525 F15.
X0.3582 Z0.8497
X0.3592 Z0.8471
X0.3607 Z0.8447
X0.3626 Z0.8427
X0.365 Z0.8412
X0.3677 Z0.8403
X0.3704 Z0.84
X0.425
G3 X0.4375 Y0.0123 I0. J0.0125
G1 Y1.9374
X0.4374 Y1.9375
X0.0124
G3 X-0.0001 Y1.925 I0. J-0.0125
G1 Y1.9222 Z0.8403
Y1.9196 Z0.8412
Y1.9172 Z0.8427
Y1.9152 Z0.8447
Y1.9137 Z0.8471
Y1.9128 Z0.8497
Y1.9125 Z0.8525
Z1.12
X0.3571 Y-0.0002
Z0.8125
X0.3574 Z0.8097
X0.3583 Z0.8071
X0.3598 Z0.8047
X0.3618 Z0.8027
X0.3642 Z0.8012
X0.3668 Z0.8003
X0.3696 Z0.8
X0.425
G3 X0.4375 Y0.0123 I0. J0.0125
G1 Y1.9374
X0.4374 Y1.9375
X0.0124
G3 X-0.0001 Y1.925 I0. J-0.0125
G1 Y1.9222 Z0.8003
Y1.9196 Z0.8012
Y1.9172 Z0.8027
Y1.9152 Z0.8047
Y1.9137 Z0.8071
Y1.9128 Z0.8097
Y1.9125 Z0.8125
Z1.12
X0.3571 Y-0.0002
Z0.7725
X0.3574 Z0.7697
X0.3583 Z0.7671
X0.3598 Z0.7647
X0.3618 Z0.7627
X0.3642 Z0.7612
X0.3668 Z0.7603
X0.3696 Z0.76
X0.425
G3 X0.4375 Y0.0123 I0. J0.0125
G1 Y1.9374
X0.4374 Y1.9375
X0.0124
G3 X-0.0001 Y1.925 I0. J-0.0125
G1 Y1.9222 Z0.7603
Y1.9196 Z0.7612
Y1.9172 Z0.7627
Y1.9152 Z0.7647
Y1.9137 Z0.7671
Y1.9128 Z0.7697
Y1.9125 Z0.7725
Z1.12
X0.3571 Y-0.0002
Z0.7325
X0.3574 Z0.7297
X0.3583 Z0.7271
X0.3598 Z0.7247
X0.3618 Z0.7227
X0.3642 Z0.7212
X0.3668 Z0.7203
X0.3696 Z0.72
X0.425
G3 X0.4375 Y0.0123 I0. J0.0125
G1 Y1.9374
X0.4374 Y1.9375
X0.0124
G3 X-0.0001 Y1.925 I0. J-0.0125
G1 Y1.9222 Z0.7203
Y1.9196 Z0.7212
Y1.9172 Z0.7227
Y1.9152 Z0.7247
Y1.9137 Z0.7271
Y1.9128 Z0.7297
Y1.9125 Z0.7325
Z1.12
X0.3571 Y-0.0002
Z0.6925
X0.3574 Z0.6897
X0.3583 Z0.6871
X0.3598 Z0.6847
X0.3618 Z0.6827
X0.3642 Z0.6812
X0.3668 Z0.6803
X0.3696 Z0.68
X0.425
G3 X0.4375 Y0.0123 I0. J0.0125
G1 Y1.9374
X0.4374 Y1.9375
X0.0124
G3 X-0.0001 Y1.925 I0. J-0.0125
G1 Y1.9222 Z0.6803
Y1.9196 Z0.6812
Y1.9172 Z0.6827
Y1.9152 Z0.6847
Y1.9137 Z0.6871
Y1.9128 Z0.6897
Y1.9125 Z0.6925
Z1.12
X0.3571 Y-0.0002
Z0.6525
X0.3574 Z0.6497
X0.3583 Z0.6471
X0.3598 Z0.6447
X0.3618 Z0.6427
X0.3642 Z0.6412
X0.3668 Z0.6403
X0.3696 Z0.64
X0.425
G3 X0.4375 Y0.0123 I0. J0.0125
G1 Y1.9374
X0.4374 Y1.9375
X0.0124
G3 X-0.0001 Y1.925 I0. J-0.0125
G1 Y1.9222 Z0.6403
Y1.9196 Z0.6412
Y1.9172 Z0.6427
Y1.9152 Z0.6447
Y1.9137 Z0.6471
Y1.9128 Z0.6497
Y1.9125 Z0.6525
Z1.12
X0.3571 Y-0.0002
Z0.6125
X0.3574 Z0.6097
X0.3583 Z0.6071
X0.3598 Z0.6047
X0.3618 Z0.6027
X0.3642 Z0.6012
X0.3668 Z0.6003
X0.3696 Z0.6
X0.425
G3 X0.4375 Y0.0123 I0. J0.0125
G1 Y1.9374
X0.4374 Y1.9375
X0.0124
G3 X-0.0001 Y1.925 I0. J-0.0125
G1 Y1.9222 Z0.6003
Y1.9196 Z0.6012
Y1.9172 Z0.6027
Y1.9152 Z0.6047
Y1.9137 Z0.6071
Y1.9128 Z0.6097
Y1.9125 Z0.6125
Z1.12
X0.3571 Y-0.0002
Z0.5725
X0.3574 Z0.5697
X0.3583 Z0.5671
X0.3598 Z0.5647
X0.3618 Z0.5627
X0.3642 Z0.5612
X0.3668 Z0.5603
X0.3696 Z0.56
X0.425
G3 X0.4375 Y0.0123 I0. J0.0125
G1 Y1.9374
X0.4374 Y1.9375
X0.0124
G3 X-0.0001 Y1.925 I0. J-0.0125
G1 Y1.9222 Z0.5603
Y1.9196 Z0.5612
Y1.9172 Z0.5627
Y1.9152 Z0.5647
Y1.9137 Z0.5671
Y1.9128 Z0.5697
Y1.9125 Z0.5725
Z1.12
X0.3571 Y-0.0002
Z0.5325
X0.3574 Z0.5297
X0.3583 Z0.5271
X0.3598 Z0.5247
X0.3618 Z0.5227
X0.3642 Z0.5212
X0.3668 Z0.5203
X0.3696 Z0.52
X0.425
G3 X0.4375 Y0.0123 I0. J0.0125
G1 Y1.9374
X0.4374 Y1.9375
X0.0124
G3 X-0.0001 Y1.925 I0. J-0.0125
G1 Y1.9222 Z0.5203
Y1.9196 Z0.5212
Y1.9172 Z0.5227
Y1.9152 Z0.5247
Y1.9137 Z0.5271
Y1.9128 Z0.5297
Y1.9125 Z0.5325
Z1.12
X0.3571 Y-0.0002
Z0.4925
X0.3574 Z0.4897
X0.3583 Z0.4871
X0.3598 Z0.4847
X0.3618 Z0.4827
X0.3642 Z0.4812
X0.3668 Z0.4803
X0.3696 Z0.48
X0.425
G3 X0.4375 Y0.0123 I0. J0.0125
G1 Y1.9374
X0.4374 Y1.9375
X0.0124
G3 X-0.0001 Y1.925 I0. J-0.0125
G1 Y1.9222 Z0.4803
Y1.9196 Z0.4812
Y1.9172 Z0.4827
Y1.9152 Z0.4847
Y1.9137 Z0.4871
Y1.9128 Z0.4897
Y1.9125 Z0.4925
Z1.12
X0.3571 Y-0.0002
Z0.4525
X0.3574 Z0.4497
X0.3583 Z0.4471
X0.3598 Z0.4447
X0.3618 Z0.4427
X0.3642 Z0.4412
X0.3668 Z0.4403
X0.3696 Z0.44
X0.425
G3 X0.4375 Y0.0123 I0. J0.0125
G1 Y1.9374
X0.4374 Y1.9375
X0.0124
G3 X-0.0001 Y1.925 I0. J-0.0125
G1 Y1.9222 Z0.4403
Y1.9196 Z0.4412
Y1.9172 Z0.4427
Y1.9152 Z0.4447
Y1.9137 Z0.4471
Y1.9128 Z0.4497
Y1.9125 Z0.4525
Z1.12
X0.3571 Y-0.0002
Z0.4125
X0.3574 Z0.4097
X0.3583 Z0.4071
X0.3598 Z0.4047
X0.3618 Z0.4027
X0.3642 Z0.4012
X0.3668 Z0.4003
X0.3696 Z0.4
X0.425
G3 X0.4375 Y0.0123 I0. J0.0125
G1 Y1.9374
X0.4374 Y1.9375
X0.0124
G3 X-0.0001 Y1.925 I0. J-0.0125
G1 Y1.9222 Z0.4003
Y1.9196 Z0.4012
Y1.9172 Z0.4027
Y1.9152 Z0.4047
Y1.9137 Z0.4071
Y1.9128 Z0.4097
Y1.9125 Z0.4125
Z1.12
X0.3571 Y-0.0002
Z0.3725
X0.3574 Z0.3697
X0.3583 Z0.3671
X0.3598 Z0.3647
X0.3618 Z0.3627
X0.3642 Z0.3612
X0.3668 Z0.3603
X0.3696 Z0.36
X0.425
G3 X0.4375 Y0.0123 I0. J0.0125
G1 Y1.9374
X0.4374 Y1.9375
X0.0124
G3 X-0.0001 Y1.925 I0. J-0.0125
G1 Y1.9222 Z0.3603
Y1.9196 Z0.3612
Y1.9172 Z0.3627
Y1.9152 Z0.3647
Y1.9137 Z0.3671
Y1.9128 Z0.3697
Y1.9125 Z0.3725
Z1.12
X0.3571 Y-0.0002
Z0.3325
X0.3574 Z0.3297
X0.3583 Z0.3271
X0.3598 Z0.3247
X0.3618 Z0.3227
X0.3642 Z0.3212
X0.3668 Z0.3203
X0.3696 Z0.32
X0.425
G3 X0.4375 Y0.0123 I0. J0.0125
G1 Y1.9374
X0.4374 Y1.9375
X0.0124
G3 X-0.0001 Y1.925 I0. J-0.0125
G1 Y1.9222 Z0.3203
Y1.9196 Z0.3212
Y1.9172 Z0.3227
Y1.9152 Z0.3247
Y1.9137 Z0.3271
Y1.9128 Z0.3297
Y1.9125 Z0.3325
Z1.12
X0.3571 Y-0.0002
Z0.2925
X0.3574 Z0.2897
X0.3583 Z0.2871
X0.3598 Z0.2847
X0.3618 Z0.2827
X0.3642 Z0.2812
X0.3668 Z0.2803
X0.3696 Z0.28
X0.425
G3 X0.4375 Y0.0123 I0. J0.0125
G1 Y1.9374
X0.4374 Y1.9375
X0.0124
G3 X-0.0001 Y1.925 I0. J-0.0125
G1 Y1.9222 Z0.2803
Y1.9196 Z0.2812
Y1.9172 Z0.2827
Y1.9152 Z0.2847
Y1.9137 Z0.2871
Y1.9128 Z0.2897
Y1.9125 Z0.2925
Z1.12
X0.3571 Y-0.0002
Z0.2525
X0.3574 Z0.2497
X0.3583 Z0.2471
X0.3598 Z0.2447
X0.3618 Z0.2427
X0.3642 Z0.2412
X0.3668 Z0.2403
X0.3696 Z0.24
X0.425
G3 X0.4375 Y0.0123 I0. J0.0125
G1 Y1.9374
X0.4374 Y1.9375
X0.0124
G3 X-0.0001 Y1.925 I0. J-0.0125
G1 Y1.9222 Z0.2403
Y1.9196 Z0.2412
Y1.9172 Z0.2427
Y1.9152 Z0.2447
Y1.9137 Z0.2471
Y1.9128 Z0.2497
Y1.9125 Z0.2525
Z1.12
X0.3571 Y-0.0002
Z0.2125
X0.3574 Z0.2097
X0.3583 Z0.2071
X0.3598 Z0.2047
X0.3618 Z0.2027
X0.3642 Z0.2012
X0.3668 Z0.2003
X0.3696 Z0.2
X0.425
G3 X0.4375 Y0.0123 I0. J0.0125
G1 Y1.9374
X0.4374 Y1.9375
X0.0124
G3 X-0.0001 Y1.925 I0. J-0.0125
G1 Y1.9222 Z0.2003
Y1.9196 Z0.2012
Y1.9172 Z0.2027
Y1.9152 Z0.2047
Y1.9137 Z0.2071
Y1.9128 Z0.2097
Y1.9125 Z0.2125
Z1.12
X0.3571 Y-0.0002
Z0.1725
X0.3574 Z0.1697
X0.3583 Z0.1671
X0.3598 Z0.1647
X0.3618 Z0.1627
X0.3642 Z0.1612
X0.3668 Z0.1603
X0.3696 Z0.16
X0.425
G3 X0.4375 Y0.0123 I0. J0.0125
G1 Y1.9374
X0.4374 Y1.9375
X0.0124
G3 X-0.0001 Y1.925 I0. J-0.0125
G1 Y1.9222 Z0.1603
Y1.9196 Z0.1612
Y1.9172 Z0.1627
Y1.9152 Z0.1647
Y1.9137 Z0.1671
Y1.9128 Z0.1697
Y1.9125 Z0.1725
Z1.12
X0.3571 Y-0.0002
Z0.1325
X0.3574 Z0.1297
X0.3583 Z0.1271
X0.3598 Z0.1247
X0.3618 Z0.1227
X0.3642 Z0.1212
X0.3668 Z0.1203
X0.3696 Z0.12
X0.425
G3 X0.4375 Y0.0123 I0. J0.0125
G1 Y1.9374
X0.4374 Y1.9375
X0.0124
G3 X-0.0001 Y1.925 I0. J-0.0125
G1 Y1.9222 Z0.1203
Y1.9196 Z0.1212
Y1.9172 Z0.1227
Y1.9152 Z0.1247
Y1.9137 Z0.1271
Y1.9128 Z0.1297
Y1.9125 Z0.1325
Z1.12
X0.3571 Y-0.0002
Z0.0925
X0.3574 Z0.0897
X0.3583 Z0.0871
X0.3598 Z0.0847
X0.3618 Z0.0827
X0.3642 Z0.0812
X0.3668 Z0.0803
X0.3696 Z0.08
X0.425
G3 X0.4375 Y0.0123 I0. J0.0125
G1 Y1.9374
X0.4374 Y1.9375
X0.0124
G3 X-0.0001 Y1.925 I0. J-0.0125
G1 Y1.9222 Z0.0803
Y1.9196 Z0.0812
Y1.9172 Z0.0827
Y1.9152 Z0.0847
Y1.9137 Z0.0871
Y1.9128 Z0.0897
Y1.9125 Z0.0925
Z1.12
X0.3571 Y-0.0002
Z0.0525
X0.3574 Z0.0497
X0.3583 Z0.0471
X0.3598 Z0.0447
X0.3618 Z0.0427
X0.3642 Z0.0412
X0.3668 Z0.0403
X0.3696 Z0.04
X0.425
G3 X0.4375 Y0.0123 I0. J0.0125
G1 Y1.9374
X0.4374 Y1.9375
X0.0124
G3 X-0.0001 Y1.925 I0. J-0.0125
G1 Y1.9222 Z0.0403
Y1.9196 Z0.0412
Y1.9172 Z0.0427
Y1.9152 Z0.0447
Y1.9137 Z0.0471
Y1.9128 Z0.0497
Y1.9125 Z0.0525
Z1.12
X0.3571 Y-0.0002
Z0.0125
X0.3574 Z0.0097
X0.3583 Z0.0071
X0.3598 Z0.0047
X0.3618 Z0.0027
X0.3642 Z0.0012
X0.3668 Z0.0003
X0.3696 Z0.
X0.425
G3 X0.4375 Y0.0123 I0. J0.0125
G1 Y1.9374
X0.4374 Y1.9375
X0.0124
G3 X-0.0001 Y1.925 I0. J-0.0125
G1 Y1.9222 Z0.0003
Y1.9196 Z0.0012
Y1.9172 Z0.0027
Y1.9152 Z0.0047
Y1.9137 Z0.0071
Y1.9128 Z0.0097
Y1.9125 Z0.0125
Z1.12
X1.1872 Y0.886
Z0.9345
Z0.9331
Y0.8863 Z0.9318
X1.1873 Y0.8866 Z0.9305
Y0.8872 Z0.9292
Y0.8878 Z0.928
X1.1874 Y0.8886 Z0.9268
Y0.8895 Z0.9258
Y0.8905 Z0.9249
Y0.8916 Z0.9241
Y0.8928 Z0.9234
X1.1873 Y0.894 Z0.9228
X1.1872 Y0.8953 Z0.9224
X1.1871 Y0.8967 Z0.9221
X1.1869 Y0.898 Z0.922
G3 X1.0693 Y0.8833 Z0.9155 I-0.0588 J-0.0074
G3 X1.1869 Y0.898 Z0.909 I0.0588 J0.0074
G3 X1.0693 Y0.8833 Z0.9025 I-0.0588 J-0.0074
G3 X1.1869 Y0.898 Z0.896 I0.0588 J0.0074
G3 X1.0693 Y0.8833 Z0.8895 I-0.0588 J-0.0074
G3 X1.1869 Y0.898 Z0.883 I0.0588 J0.0074
G3 X1.1286 Y0.9499 Z0.88 I-0.0588 J-0.0074
G1 X1.1281
X1.075
G3 X1.0625 Y0.9374 I0. J-0.0125
G1 Y0.5626
X1.0626 Y0.5625
X1.4374
X1.4375 Y0.5626
Y1.0624
X1.4374 Y1.0625
X1.0626
X1.0625 Y1.0624
Y0.9374
Y0.9274 F48.
Y0.9175
Y0.9075 Z0.8799 F48.
Y0.8975
Y0.8876 Z0.8798
Y0.8776
Y0.8676 Z0.8797
Y0.8576 Z0.8796
Y0.8477 Z0.8795
Y0.8377 Z0.8794
Y0.8277 Z0.8793
Y0.8178 Z0.8792
Y0.8078 Z0.879
Y0.7978 Z0.8789
Y0.7878 Z0.8787
Y0.7779 Z0.8785
Y0.7679 Z0.8784
Y0.7579 Z0.8782
Y0.748 Z0.878
Y0.743 Z0.8779
Y0.738 Z0.8778
Y0.733 Z0.8776
Y0.728 Z0.8775
Y0.723 Z0.8774
Y0.718 Z0.8773
Y0.7131 Z0.8772
Y0.7081 Z0.8771
Y0.7031 Z0.877
Y0.6981 Z0.8768
Y0.6931 Z0.8767
Y0.6881 Z0.8766
Y0.6831 Z0.8765
Y0.6782 Z0.8763
Y0.6732 Z0.8762
Y0.6682 Z0.8761
Y0.6632 Z0.8759
Y0.6582 Z0.8758
Y0.6532 Z0.8756
Y0.6482 Z0.8755
Y0.6433 Z0.8754
Y0.6383 Z0.8752
Y0.6333 Z0.8751
Y0.6283 Z0.8749
Y0.6233 Z0.8748
Y0.6183 Z0.8746
Y0.6133 Z0.8745
Y0.6084 Z0.8743
Y0.6034 Z0.8741
Y0.5984 Z0.874
Y0.5934 Z0.8738
Y0.5884 Z0.8737
Y0.5834 Z0.8735
Y0.5784 Z0.8733
Y0.5735 Z0.8732
Y0.5685 Z0.873
Y0.5641 Z0.8729
Y0.5626
X1.0626 Y0.5625 Z0.8728
X1.0642
X1.0665
X1.0715 Z0.8726
X1.0815 Z0.8722
X1.0865 Z0.8721
X1.0915 Z0.8719
X1.0965 Z0.8717
X1.1014 Z0.8715
X1.1064 Z0.8714
X1.1114 Z0.8712
X1.1164 Z0.871
X1.1214 Z0.8708
X1.1264 Z0.8707
X1.1314 Z0.8705
X1.1363 Z0.8703
X1.1413 Z0.8701
X1.1463 Z0.87
X1.1513 Z0.8698
X1.1563 Z0.8696
X1.1613 Z0.8695
X1.1663 Z0.8693
X1.1712 Z0.8691
X1.1762 Z0.8689
X1.1812 Z0.8688
X1.1862 Z0.8686
X1.1912 Z0.8684
X1.1962 Z0.8682
X1.2012 Z0.8681
X1.2061 Z0.8679
X1.2111 Z0.8677
X1.2211 Z0.8674
X1.2361 Z0.8668
X1.251 Z0.8663
X1.266 Z0.8658
X1.2809 Z0.8653
X1.2959 Z0.8647
X1.3108 Z0.8642
X1.3308 Z0.8635
X1.3557 Z0.8627
X1.3906 Z0.8614
X1.4355 Z0.8599
X1.4369 Z0.8598
X1.4375
Y0.5626
Y0.563
Y0.5638
Y0.5662 Z0.8597
Y0.5705 Z0.8596
Y0.6353 Z0.8573
Y0.6602 Z0.8565
Y0.6852 Z0.8556
Y0.7001 Z0.8551
Y0.7151 Z0.8545
Y0.73 Z0.854
Y0.745 Z0.8535
Y0.76 Z0.853
Y0.7749 Z0.8525
Y0.7799 Z0.8523
Y0.7849 Z0.8521
Y0.7899 Z0.8519
Y0.7949 Z0.8518
Y0.7998 Z0.8516
Y0.8048 Z0.8514
Y0.8098 Z0.8512
Y0.8148 Z0.8511
Y0.8198 Z0.8509
Y0.8248 Z0.8507
Y0.8298 Z0.8505
Y0.8347 Z0.8504
Y0.8397 Z0.8502
Y0.8447 Z0.85
Y0.8497 Z0.8498
Y0.8547 Z0.8497
Y0.8597 Z0.8495
Y0.8647 Z0.8493
Y0.8696 Z0.8491
Y0.8746 Z0.849
Y0.8796 Z0.8488
Y0.8846 Z0.8486
Y0.8896 Z0.8484
Y0.8946 Z0.8483
Y0.8996 Z0.8481
Y0.9045 Z0.8479
Y0.9095 Z0.8478
Y0.9145 Z0.8476
Y0.9195 Z0.8474
Y0.9245 Z0.8472
Y0.9295 Z0.8471
Y0.9345 Z0.8469
Y0.9394 Z0.8467
Y0.9444 Z0.8466
Y0.9494 Z0.8464
Y0.9544 Z0.8462
Y0.9594 Z0.8461
Y0.9644 Z0.8459
Y0.9693 Z0.8458
Y0.9743 Z0.8456
Y0.9793 Z0.8454
Y0.9843 Z0.8453
Y0.9893 Z0.8451
Y0.9943 Z0.845
Y0.9993 Z0.8448
Y1.0042 Z0.8447
Y1.0092 Z0.8446
Y1.0142 Z0.8444
Y1.0192 Z0.8443
Y1.0242 Z0.8441
Y1.0292 Z0.844
Y1.0342 Z0.8439
Y1.0391 Z0.8437
Y1.0441 Z0.8436
Y1.0491 Z0.8435
Y1.0541 Z0.8433
Y1.0591 Z0.8432
Y1.0617
Y1.0624 Z0.8431
Y1.0625
X1.4373
X1.4364
X1.4351
X1.4309 Z0.843
X1.4259 Z0.8429
X1.4209 Z0.8427
X1.4159 Z0.8426
X1.4109 Z0.8425
X1.406 Z0.8424
X1.401 Z0.8423
X1.396 Z0.8422
X1.391 Z0.8421
X1.386 Z0.842
X1.381 Z0.8419
X1.3711 Z0.8417
X1.3611 Z0.8415
X1.3511 Z0.8413
X1.3411 Z0.8412
X1.3312 Z0.841
X1.3212 Z0.8409
X1.3112 Z0.8407
X1.3013 Z0.8406
X1.2913 Z0.8405
X1.2813 Z0.8404
X1.2713 Z0.8403
X1.2614 Z0.8402
X1.2514
X1.2414 Z0.8401
X1.2315
X1.2215 Z0.84
X1.2115
X1.2016
X1.1995
X1.0626 F15.
X1.0625 Y1.0624
Y0.5626
X1.0626 Y0.5625
X1.4374
X1.4375 Y0.5626
Y1.0624
X1.4374 Y1.0625
X1.1995
X1.1896 F48.
X1.1796
X1.1696 Z0.8399
X1.1596
X1.1497 Z0.8398
X1.1397
X1.1297 Z0.8397
X1.1198 Z0.8396
X1.1098 Z0.8395
X1.0998 Z0.8394
X1.0898 Z0.8393
X1.0799 Z0.8392
X1.0699 Z0.839
X1.0657 Z0.8389
X1.0631
X1.0626
X1.0625 Y1.0624
Y1.062
Y1.0612
Y1.0599
Y1.0499 Z0.8387
Y1.0399 Z0.8385
Y1.03 Z0.8384
Y1.02 Z0.8382
Y1.01 Z0.838
Y1.005 Z0.8379
Y1.0001 Z0.8378
Y0.9951 Z0.8376
Y0.9901 Z0.8375
Y0.9851 Z0.8374
Y0.9801 Z0.8373
Y0.9751 Z0.8372
Y0.9701 Z0.8371
Y0.9652 Z0.837
Y0.9602 Z0.8368
Y0.9552 Z0.8367
Y0.9502 Z0.8366
Y0.9452 Z0.8365
Y0.9402 Z0.8363
Y0.9352 Z0.8362
Y0.9303 Z0.8361
Y0.9253 Z0.8359
Y0.9203 Z0.8358
Y0.9153 Z0.8356
Y0.9103 Z0.8355
Y0.9053 Z0.8354
Y0.9003 Z0.8352
Y0.8954 Z0.8351
Y0.8904 Z0.8349
Y0.8854 Z0.8348
Y0.8804 Z0.8346
Y0.8754 Z0.8345
Y0.8704 Z0.8343
Y0.8654 Z0.8341
Y0.8605 Z0.834
Y0.8555 Z0.8338
Y0.8505 Z0.8337
Y0.8455 Z0.8335
Y0.8405 Z0.8333
Y0.8355 Z0.8332
Y0.8305 Z0.833
Y0.8256 Z0.8328
Y0.8206 Z0.8327
Y0.8156 Z0.8325
Y0.8056 Z0.8321
Y0.8006 Z0.832
Y0.7956 Z0.8318
Y0.7907 Z0.8316
Y0.7857 Z0.8315
Y0.7807 Z0.8313
Y0.7757 Z0.8311
Y0.7707 Z0.8309
Y0.7657 Z0.8308
Y0.7607 Z0.8306
Y0.7558 Z0.8304
Y0.7508 Z0.8302
Y0.7458 Z0.8301
Y0.7408 Z0.8299
Y0.7358 Z0.8297
Y0.7308 Z0.8295
Y0.7258 Z0.8294
Y0.7209 Z0.8292
Y0.7159 Z0.829
Y0.7109 Z0.8288
Y0.7059 Z0.8287
Y0.7009 Z0.8285
Y0.6959 Z0.8283
Y0.6909 Z0.8281
Y0.686 Z0.828
Y0.681 Z0.8278
Y0.676 Z0.8276
Y0.666 Z0.8273
Y0.6511 Z0.8267
Y0.6361 Z0.8262
Y0.6211 Z0.8257
Y0.6062 Z0.8252
Y0.5912 Z0.8247
Y0.5763 Z0.8241
Y0.5713 Z0.824
Y0.5668 Z0.8238
Y0.5645 Z0.8237
Y0.5631
Y0.5626
X1.0626 Y0.5625
X1.0627
X1.063
X1.0637
X1.0887 Z0.8228
X1.1186 Z0.8217
X1.1634 Z0.8202
X1.2382 Z0.8176
X1.2731 Z0.8163
X1.2981 Z0.8155
X1.313 Z0.8149
X1.328 Z0.8144
X1.3429 Z0.8139
X1.3579 Z0.8134
X1.3728 Z0.8129
X1.3878 Z0.8123
X1.3928 Z0.8122
X1.3978 Z0.812
X1.4027 Z0.8118
X1.4077 Z0.8116
X1.4127 Z0.8115
X1.4177 Z0.8113
X1.4227 Z0.8111
X1.4277 Z0.8109
X1.4327 Z0.8108
X1.4363 Z0.8107
X1.437
X1.4373
X1.4375
Y0.5626
Y0.5628 Z0.8106
Y0.5677 Z0.8105
Y0.5727 Z0.8104
Y0.5777 Z0.8102
Y0.5826 Z0.81
Y0.5876 Z0.8098
Y0.5926 Z0.8097
Y0.5976 Z0.8095
Y0.6026 Z0.8093
Y0.6076 Z0.8091
Y0.6126 Z0.809
Y0.6175 Z0.8088
Y0.6225 Z0.8086
Y0.6275 Z0.8084
Y0.6325 Z0.8083
Y0.6375 Z0.8081
Y0.6425 Z0.8079
Y0.6475 Z0.8077
Y0.6524 Z0.8076
Y0.6574 Z0.8074
Y0.6624 Z0.8072
Y0.6674 Z0.8071
Y0.6724 Z0.8069
Y0.6774 Z0.8067
Y0.6824 Z0.8066
Y0.6873 Z0.8064
Y0.6923 Z0.8062
Y0.6973 Z0.8061
Y0.7023 Z0.8059
Y0.7073 Z0.8057
Y0.7123 Z0.8056
Y0.7173 Z0.8054
Y0.7222 Z0.8053
Y0.7272 Z0.8051
Y0.7322 Z0.805
Y0.7372 Z0.8048
Y0.7422 Z0.8047
Y0.7472 Z0.8045
Y0.7522 Z0.8044
Y0.7571 Z0.8043
Y0.7621 Z0.8041
Y0.7671 Z0.804
Y0.7721 Z0.8039
Y0.7771 Z0.8037
Y0.7821 Z0.8036
Y0.787 Z0.8035
Y0.792 Z0.8033
Y0.797 Z0.8032
Y0.802 Z0.8031
Y0.807 Z0.803
Y0.812 Z0.8028
Y0.817 Z0.8027
Y0.8219 Z0.8026
Y0.8269 Z0.8025
Y0.8319 Z0.8024
Y0.8369 Z0.8023
Y0.8419 Z0.8022
Y0.8469 Z0.8021
Y0.8519 Z0.802
Y0.8568 Z0.8019
Y0.8668 Z0.8017
Y0.8768 Z0.8015
Y0.8868 Z0.8013
Y0.8967 Z0.8012
Y0.9067 Z0.801
Y0.9167 Z0.8009
Y0.9266 Z0.8007
Y0.9366 Z0.8006
Y0.9466 Z0.8005
Y0.9566 Z0.8004
Y0.9665 Z0.8003
Y0.9765 Z0.8002
Y0.9865
Y0.9964 Z0.8001
Y1.0064
Y1.0164 Z0.8
Y1.0264
Y1.0363
Y1.038
Y1.0624 F15.
X1.4374 Y1.0625
X1.1995
X1.0626
X1.0625 Y1.0624
Y0.5626
X1.0626 Y0.5625
X1.4374
X1.4375 Y0.5626
Y1.038
Y1.048 F48.
Y1.058
Y1.0624
Y1.0625
X1.4366
X1.432 Z0.7999
X1.422
X1.412 Z0.7998
X1.4021
X1.3921 Z0.7997
X1.3821 Z0.7996
X1.3722 Z0.7995
X1.3622 Z0.7994
X1.3522 Z0.7993
X1.3422 Z0.7992
X1.3323 Z0.799
X1.3223 Z0.7989
X1.3123 Z0.7987
X1.3024 Z0.7985
X1.2924 Z0.7984
X1.2824 Z0.7982
X1.2724 Z0.798
X1.2675 Z0.7979
X1.2625 Z0.7978
X1.2575 Z0.7976
X1.2525 Z0.7975
X1.2475 Z0.7974
X1.2425 Z0.7973
X1.2375 Z0.7972
X1.2326 Z0.7971
X1.2276 Z0.797
X1.2226 Z0.7968
X1.2176 Z0.7967
X1.2126 Z0.7966
X1.2076 Z0.7965
X1.2026 Z0.7963
X1.1977 Z0.7962
X1.1927 Z0.7961
X1.1877 Z0.7959
X1.1827 Z0.7958
X1.1777 Z0.7956
X1.1727 Z0.7955
X1.1677 Z0.7954
X1.1628 Z0.7952
X1.1578 Z0.7951
X1.1528 Z0.7949
X1.1478 Z0.7948
X1.1428 Z0.7946
X1.1378 Z0.7945
X1.1329 Z0.7943
X1.1279 Z0.7941
X1.1229 Z0.794
X1.1179 Z0.7938
X1.1129 Z0.7937
X1.1079 Z0.7935
X1.1029 Z0.7933
X1.098 Z0.7932
X1.093 Z0.793
X1.088 Z0.7928
X1.083 Z0.7927
X1.078 Z0.7925
X1.068 Z0.7921
X1.0631 Z0.792
X1.0626
X1.0625 Y1.0624
Y1.0623
Y1.0621
Y1.0614 Z0.7919
Y1.0602
Y1.0578 Z0.7918
Y1.053 Z0.7916
Y1.048 Z0.7915
Y1.0431 Z0.7913
Y1.0381 Z0.7911
Y1.0331 Z0.7909
Y1.0281 Z0.7908
Y1.0231 Z0.7906
Y1.0181 Z0.7904
Y1.0131 Z0.7902
Y1.0082 Z0.7901
Y1.0032 Z0.7899
Y0.9982 Z0.7897
Y0.9932 Z0.7896
Y0.9882 Z0.7894
Y0.9832 Z0.7892
Y0.9782 Z0.789
Y0.9733 Z0.7889
Y0.9683 Z0.7887
Y0.9633 Z0.7885
Y0.9583 Z0.7883
Y0.9533 Z0.7882
Y0.9483 Z0.788
Y0.9433 Z0.7878
Y0.9384 Z0.7876
Y0.9284 Z0.7873
Y0.9134 Z0.7868
Y0.8985 Z0.7862
Y0.8835 Z0.7857
Y0.8686 Z0.7852
Y0.8536 Z0.7847
Y0.8386 Z0.7842
Y0.8187 Z0.7835
Y0.7938 Z0.7826
Y0.7589 Z0.7814
Y0.709 Z0.7796
Y0.6342 Z0.777
Y0.6093 Z0.7761
Y0.5844 Z0.7753
Y0.5694 Z0.7748
Y0.5644 Z0.7746
Y0.563 Z0.7745
Y0.5626
X1.0626 Y0.5625
X1.0631
X1.0639
X1.0663 Z0.7744
X1.0706 Z0.7743
X1.0855 Z0.7738
X1.1005 Z0.7732
X1.1154 Z0.7727
X1.1304 Z0.7722
X1.1354 Z0.772
X1.1404 Z0.7719
X1.1454 Z0.7717
X1.1503 Z0.7715
X1.1553 Z0.7713
X1.1603 Z0.7712
X1.1653 Z0.771
X1.1703 Z0.7708
X1.1753 Z0.7706
X1.1803 Z0.7705
X1.1852 Z0.7703
X1.1902 Z0.7701
X1.1952 Z0.7699
X1.2002 Z0.7698
X1.2052 Z0.7696
X1.2102 Z0.7694
X1.2152 Z0.7692
X1.2201 Z0.7691
X1.2251 Z0.7689
X1.2301 Z0.7687
X1.2351 Z0.7685
X1.2401 Z0.7684
X1.2451 Z0.7682
X1.2501 Z0.768
X1.255 Z0.7678
X1.265 Z0.7675
X1.27 Z0.7673
X1.275 Z0.7672
X1.28 Z0.767
X1.285 Z0.7668
X1.2899 Z0.7667
X1.2949 Z0.7665
X1.2999 Z0.7663
X1.3049 Z0.7662
X1.3099 Z0.766
X1.3149 Z0.7658
X1.3199 Z0.7657
X1.3248 Z0.7655
X1.3298 Z0.7654
X1.3348 Z0.7652
X1.3398 Z0.7651
X1.3448 Z0.7649
X1.3498 Z0.7648
X1.3548 Z0.7646
X1.3597 Z0.7645
X1.3647 Z0.7644
X1.3697 Z0.7642
X1.3747 Z0.7641
X1.3797 Z0.7639
X1.3847 Z0.7638
X1.3897 Z0.7637
X1.3946 Z0.7635
X1.3996 Z0.7634
X1.4046 Z0.7633
X1.4096 Z0.7632
X1.4146 Z0.763
X1.4196 Z0.7629
X1.4246 Z0.7628
X1.4295 Z0.7627
X1.4338 Z0.7626
X1.4362 Z0.7625
X1.437
X1.4374
X1.4375 Y0.5626
Y0.5631
Y0.5646
Y0.5695 Z0.7624
Y0.5745 Z0.7622
Y0.5795 Z0.7621
Y0.5845 Z0.762
Y0.5945 Z0.7618
Y0.6044 Z0.7616
Y0.6144 Z0.7615
Y0.6244 Z0.7613
Y0.6344 Z0.7611
Y0.6443 Z0.761
Y0.6543 Z0.7608
Y0.6643 Z0.7607
Y0.6742 Z0.7606
Y0.6842 Z0.7605
Y0.6942 Z0.7604
Y0.7042 Z0.7603
Y0.7141 Z0.7602
Y0.7241
Y0.7341 Z0.7601
Y0.744
Y0.754 Z0.76
Y0.764
Y0.7738
Y1.038 F15.
Y1.0624
X1.4374 Y1.0625
X1.0626
X1.0625 Y1.0624
Y0.5626
X1.0626 Y0.5625
X1.4374
X1.4375 Y0.5626
Y0.7738
Y0.7838 F48.
Y0.7938
Y0.8038 Z0.7599
Y0.8137
Y0.8237 Z0.7598
Y0.8337
Y0.8436 Z0.7597
Y0.8536 Z0.7596
Y0.8636 Z0.7595
Y0.8736 Z0.7594
Y0.8835 Z0.7593
Y0.8935 Z0.7592
Y0.9035 Z0.759
Y0.9134 Z0.7589
Y0.9234 Z0.7587
Y0.9334 Z0.7585
Y0.9434 Z0.7584
Y0.9533 Z0.7582
Y0.9633 Z0.758
Y0.9683 Z0.7579
Y0.9733 Z0.7578
Y0.9783 Z0.7576
Y0.9832 Z0.7575
Y0.9882 Z0.7574
Y0.9932 Z0.7573
Y0.9982 Z0.7572
Y1.0032 Z0.7571
Y1.0082 Z0.757
Y1.0132 Z0.7568
Y1.0181 Z0.7567
Y1.0231 Z0.7566
Y1.0281 Z0.7565
Y1.0331 Z0.7563
Y1.0381 Z0.7562
Y1.0431 Z0.7561
Y1.0481 Z0.7559
Y1.053 Z0.7558
Y1.0614 Z0.7555
Y1.0621
Y1.0623
Y1.0625
X1.4374
X1.4369
X1.4319 Z0.7554
X1.427 Z0.7552
X1.422 Z0.7551
X1.417 Z0.7549
X1.412 Z0.7548
X1.407 Z0.7546
X1.402 Z0.7545
X1.3971 Z0.7543
X1.3921 Z0.7541
X1.3871 Z0.754
X1.3821 Z0.7538
X1.3771 Z0.7537
X1.3721 Z0.7535
X1.3671 Z0.7533
X1.3622 Z0.7532
X1.3572 Z0.753
X1.3522 Z0.7528
X1.3472 Z0.7527
X1.3422 Z0.7525
X1.3322 Z0.7521
X1.3273 Z0.752
X1.3223 Z0.7518
X1.3173 Z0.7516
X1.3123 Z0.7515
X1.3073 Z0.7513
X1.3023 Z0.7511
X1.2973 Z0.7509
X1.2924 Z0.7508
X1.2874 Z0.7506
X1.2824 Z0.7504
X1.2774 Z0.7502
X1.2724 Z0.7501
X1.2674 Z0.7499
X1.2624 Z0.7497
X1.2575 Z0.7495
X1.2525 Z0.7494
X1.2475 Z0.7492
X1.2425 Z0.749
X1.2375 Z0.7488
X1.2325 Z0.7487
X1.2275 Z0.7485
X1.2226 Z0.7483
X1.2176 Z0.7481
X1.2126 Z0.748
X1.2076 Z0.7478
X1.2026 Z0.7476
X1.1926 Z0.7473
X1.1777 Z0.7467
X1.1627 Z0.7462
X1.1478 Z0.7457
X1.1328 Z0.7452
X1.1179 Z0.7447
X1.1029 Z0.7441
X1.083 Z0.7434
X1.068 Z0.7429
X1.0634 Z0.7428
X1.0626
X1.0625
Y1.0616
Y1.0603 Z0.7427
Y1.058
Y1.0231 Z0.7415
Y0.9782 Z0.7399
Y0.9034 Z0.7373
Y0.8785 Z0.7364
Y0.8536 Z0.7355
Y0.8386 Z0.735
Y0.8237 Z0.7345
Y0.8087 Z0.734
Y0.7937 Z0.7334
Y0.7788 Z0.7329
Y0.7638 Z0.7324
Y0.7588 Z0.7322
Y0.7539 Z0.7321
Y0.7489 Z0.7319
Y0.7439 Z0.7317
Y0.7389 Z0.7315
Y0.7339 Z0.7314
Y0.7289 Z0.7312
Y0.7239 Z0.731
Y0.719 Z0.7308
Y0.714 Z0.7307
Y0.709 Z0.7305
Y0.704 Z0.7303
Y0.699 Z0.7301
Y0.694 Z0.73
Y0.689 Z0.7298
Y0.6841 Z0.7296
Y0.6791 Z0.7294
Y0.6741 Z0.7293
Y0.6691 Z0.7291
Y0.6641 Z0.7289
Y0.6591 Z0.7287
Y0.6541 Z0.7286
Y0.6492 Z0.7284
Y0.6442 Z0.7282
Y0.6392 Z0.728
Y0.6342 Z0.7279
Y0.6242 Z0.7275
Y0.6192 Z0.7274
Y0.6143 Z0.7272
Y0.6093 Z0.727
Y0.6043 Z0.7268
Y0.5993 Z0.7267
Y0.5943 Z0.7265
Y0.5893 Z0.7264
Y0.5843 Z0.7262
Y0.5794 Z0.726
Y0.5744 Z0.7259
Y0.5694 Z0.7257
Y0.5652 Z0.7256
Y0.5638 Z0.7255
Y0.5631
Y0.5627
Y0.5626
X1.0626 Y0.5625
X1.0629
X1.0656 Z0.7254
X1.0706 Z0.7253
X1.0756 Z0.7251
X1.0806 Z0.725
X1.0856 Z0.7248
X1.0906 Z0.7247
X1.0955 Z0.7246
X1.1005 Z0.7244
X1.1055 Z0.7243
X1.1105 Z0.7241
X1.1155 Z0.724
X1.1205 Z0.7239
X1.1255 Z0.7237
X1.1304 Z0.7236
X1.1354 Z0.7235
X1.1404 Z0.7233
X1.1454 Z0.7232
X1.1504 Z0.7231
X1.1554 Z0.723
X1.1604 Z0.7229
X1.1653 Z0.7227
X1.1703 Z0.7226
X1.1753 Z0.7225
X1.1803 Z0.7224
X1.1853 Z0.7223
X1.1903 Z0.7222
X1.1953 Z0.7221
X1.2002 Z0.722
X1.2052 Z0.7219
X1.2152 Z0.7217
X1.2252 Z0.7215
X1.2351 Z0.7213
X1.2451 Z0.7212
X1.2551 Z0.721
X1.2651 Z0.7209
X1.275 Z0.7207
X1.285 Z0.7206
X1.295 Z0.7205
X1.3049 Z0.7204
X1.3149 Z0.7203
X1.3249 Z0.7202
X1.3349
X1.3448 Z0.7201
X1.3548
X1.3648 Z0.72
X1.3747
X1.3847
X1.3868
X1.4374 F15.
X1.4375 Y0.5626
Y1.0624
X1.4374 Y1.0625
X1.0626
X1.0625 Y1.0624
Y0.5626
X1.0626 Y0.5625
X1.3868
X1.3967 F48.
X1.4067
X1.4167 Z0.7199
X1.4267
X1.4371 Z0.7198
X1.4374
X1.4375 Y0.5626
Y0.5634
Y0.5647
Y0.567
Y0.5717
Y0.5816 Z0.7197
Y0.5916 Z0.7196
Y0.6016 Z0.7195
Y0.6115 Z0.7194
Y0.6215 Z0.7193
Y0.6315 Z0.7192
Y0.6415 Z0.719
Y0.6514 Z0.7189
Y0.6614 Z0.7187
Y0.6714 Z0.7185
Y0.6813 Z0.7184
Y0.6913 Z0.7182
Y0.7013 Z0.718
Y0.7063 Z0.7179
Y0.7112 Z0.7178
Y0.7162 Z0.7176
Y0.7212 Z0.7175
Y0.7262 Z0.7174
Y0.7312 Z0.7173
Y0.7362 Z0.7172
Y0.7412 Z0.7171
Y0.7461 Z0.717
Y0.7511 Z0.7168
Y0.7561 Z0.7167
Y0.7611 Z0.7166
Y0.7661 Z0.7165
Y0.7711 Z0.7163
Y0.7761 Z0.7162
Y0.781 Z0.7161
Y0.786 Z0.7159
Y0.791 Z0.7158
Y0.796 Z0.7156
Y0.801 Z0.7155
Y0.806 Z0.7154
Y0.811 Z0.7152
Y0.8159 Z0.7151
Y0.8209 Z0.7149
Y0.8259 Z0.7148
Y0.8309 Z0.7146
Y0.8359 Z0.7145
Y0.8409 Z0.7143
Y0.8459 Z0.7141
Y0.8508 Z0.714
Y0.8558 Z0.7138
Y0.8608 Z0.7137
Y0.8658 Z0.7135
Y0.8708 Z0.7133
Y0.8758 Z0.7132
Y0.8808 Z0.713
Y0.8857 Z0.7128
Y0.8907 Z0.7127
Y0.8957 Z0.7125
Y0.9057 Z0.7121
Y0.9107 Z0.712
Y0.9157 Z0.7118
Y0.9206 Z0.7116
Y0.9256 Z0.7115
Y0.9306 Z0.7113
Y0.9356 Z0.7111
Y0.9406 Z0.7109
Y0.9456 Z0.7108
Y0.9506 Z0.7106
Y0.9555 Z0.7104
Y0.9605 Z0.7102
Y0.9655 Z0.7101
Y0.9705 Z0.7099
Y0.9755 Z0.7097
Y0.9805 Z0.7095
Y0.9855 Z0.7094
Y0.9904 Z0.7092
Y0.9954 Z0.709
Y1.0004 Z0.7088
Y1.0054 Z0.7087
Y1.0104 Z0.7085
Y1.0154 Z0.7083
Y1.0204 Z0.7081
Y1.0253 Z0.708
Y1.0303 Z0.7078
Y1.0353 Z0.7076
Y1.0453 Z0.7073
Y1.0602 Z0.7067
Y1.0616
Y1.0623
Y1.0625
X1.4373
X1.4364
X1.4339 Z0.7066
X1.4297 Z0.7065
X1.4148 Z0.7059
X1.3998 Z0.7054
X1.3849 Z0.7049
X1.3699 Z0.7044
X1.355 Z0.7039
X1.33 Z0.703
X1.3051 Z0.7021
X1.2702 Z0.7009
X1.2054 Z0.6986
X1.1605 Z0.6971
X1.1356 Z0.6962
X1.1107 Z0.6953
X1.0957 Z0.6948
X1.0807 Z0.6943
X1.0708 Z0.6939
X1.0665 Z0.6938
X1.0641 Z0.6937
X1.0629
X1.0627
X1.0625
Y1.0623
Y1.0608 Z0.6936
Y1.0458 Z0.6931
Y1.0308 Z0.6926
Y1.0259 Z0.6924
Y1.0209 Z0.6922
Y1.0159 Z0.6921
Y1.0109 Z0.6919
Y1.0059 Z0.6917
Y1.0009 Z0.6915
Y0.9959 Z0.6914
Y0.991 Z0.6912
Y0.986 Z0.691
Y0.981 Z0.6909
Y0.976 Z0.6907
Y0.971 Z0.6905
Y0.966 Z0.6903
Y0.961 Z0.6902
Y0.9561 Z0.69
Y0.9511 Z0.6898
Y0.9461 Z0.6896
Y0.9411 Z0.6895
Y0.9361 Z0.6893
Y0.9311 Z0.6891
Y0.9261 Z0.6889
Y0.9212 Z0.6888
Y0.9162 Z0.6886
Y0.9112 Z0.6884
Y0.9062 Z0.6882
Y0.9012 Z0.6881
Y0.8962 Z0.6879
Y0.8813 Z0.6874
Y0.8763 Z0.6872
Y0.8713 Z0.687
Y0.8663 Z0.6869
Y0.8613 Z0.6867
Y0.8563 Z0.6865
Y0.8514 Z0.6864
Y0.8464 Z0.6862
Y0.8414 Z0.686
Y0.8364 Z0.6859
Y0.8314 Z0.6857
Y0.8264 Z0.6856
Y0.8214 Z0.6854
Y0.8165 Z0.6853
Y0.8115 Z0.6851
Y0.8065 Z0.685
Y0.8015 Z0.6848
Y0.7965 Z0.6847
Y0.7915 Z0.6845
Y0.7865 Z0.6844
Y0.7816 Z0.6842
Y0.7766 Z0.6841
Y0.7716 Z0.684
Y0.7666 Z0.6838
Y0.7616 Z0.6837
Y0.7566 Z0.6836
Y0.7516 Z0.6834
Y0.7467 Z0.6833
Y0.7417 Z0.6832
Y0.7367 Z0.6831
Y0.7317 Z0.683
Y0.7267 Z0.6828
Y0.7217 Z0.6827
Y0.7167 Z0.6826
Y0.7118 Z0.6825
Y0.7068 Z0.6824
Y0.7018 Z0.6823
Y0.6968 Z0.6822
Y0.6918 Z0.6821
Y0.6868 Z0.682
Y0.6818 Z0.6819
Y0.6719 Z0.6817
Y0.6619 Z0.6815
Y0.6519 Z0.6813
Y0.642 Z0.6812
Y0.632 Z0.681
Y0.622 Z0.6809
Y0.612 Z0.6807
Y0.6021 Z0.6806
Y0.5921 Z0.6805
Y0.5821 Z0.6804
Y0.5722 Z0.6803
Y0.5673
Y0.5637 Z0.6802
Y0.5626
Y0.5625
X1.0629
X1.0728
X1.0828 Z0.6801
X1.0928
X1.1027 Z0.68
X1.1127
X1.1227
X1.1238
X1.3868 F15.
X1.4374
X1.4375 Y0.5626
Y1.0624
X1.4374 Y1.0625
X1.0626
X1.0625 Y1.0624
Y0.5626
X1.0626 Y0.5625
X1.1238
X1.1338 F48.
X1.1438
X1.1537 Z0.6799
X1.1637
X1.1737 Z0.6798
X1.1837
X1.1936 Z0.6797
X1.2036 Z0.6796
X1.2136 Z0.6795
X1.2235 Z0.6794
X1.2335 Z0.6793
X1.2435 Z0.6792
X1.2534 Z0.679
X1.2634 Z0.6789
X1.2734 Z0.6787
X1.2834 Z0.6785
X1.2933 Z0.6784
X1.3033 Z0.6782
X1.3133 Z0.678
X1.3183 Z0.6779
X1.3232 Z0.6778
X1.3282 Z0.6776
X1.3332 Z0.6775
X1.3382 Z0.6774
X1.3432 Z0.6773
X1.3482 Z0.6772
X1.3532 Z0.6771
X1.3581 Z0.677
X1.3631 Z0.6768
X1.3681 Z0.6767
X1.3731 Z0.6766
X1.3781 Z0.6765
X1.3831 Z0.6763
X1.3881 Z0.6762
X1.393 Z0.6761
X1.398 Z0.6759
X1.403 Z0.6758
X1.408 Z0.6756
X1.413 Z0.6755
X1.418 Z0.6754
X1.423 Z0.6752
X1.4279 Z0.6751
X1.4329 Z0.6749
X1.4353
X1.4365 Z0.6748
X1.4374
X1.4375
Y0.5627
Y0.5633
Y0.568 Z0.6747
Y0.5729 Z0.6745
Y0.5779 Z0.6744
Y0.5829 Z0.6742
Y0.5879 Z0.674
Y0.5929 Z0.6739
Y0.5979 Z0.6737
Y0.6029 Z0.6736
Y0.6078 Z0.6734
Y0.6128 Z0.6732
Y0.6178 Z0.6731
Y0.6228 Z0.6729
Y0.6278 Z0.6727
Y0.6328 Z0.6726
Y0.6427 Z0.6722
Y0.6477 Z0.672
Y0.6527 Z0.6719
Y0.6577 Z0.6717
Y0.6627 Z0.6715
Y0.6677 Z0.6713
Y0.6726 Z0.6712
Y0.6776 Z0.671
Y0.6826 Z0.6708
Y0.6876 Z0.6706
Y0.6926 Z0.6705
Y0.6976 Z0.6703
Y0.7026 Z0.6701
Y0.7075 Z0.6699
Y0.7125 Z0.6698
Y0.7175 Z0.6696
Y0.7225 Z0.6694
Y0.7275 Z0.6692
Y0.7325 Z0.6691
Y0.7375 Z0.6689
Y0.7424 Z0.6687
Y0.7474 Z0.6686
Y0.7524 Z0.6684
Y0.7574 Z0.6682
Y0.7624 Z0.668
Y0.7674 Z0.6679
Y0.7724 Z0.6677
Y0.7823 Z0.6673
Y0.7973 Z0.6668
Y0.8122 Z0.6663
Y0.8272 Z0.6658
Y0.8422 Z0.6652
Y0.8571 Z0.6647
Y0.8721 Z0.6642
Y0.892 Z0.6635
Y0.9169 Z0.6626
Y0.9518 Z0.6614
Y1.0017 Z0.6597
Y1.0565 Z0.6578
Y1.0609 Z0.6576
Y1.0623
Y1.0624
X1.4374 Y1.0625
X1.4358
X1.4334 Z0.6575
X1.4085 Z0.6566
X1.3836 Z0.6558
X1.3686 Z0.6552
X1.3537 Z0.6547
X1.3387 Z0.6542
X1.3238 Z0.6537
X1.3088 Z0.6532
X1.2938 Z0.6526
X1.2889 Z0.6525
X1.2839 Z0.6523
X1.2789 Z0.6521
X1.2739 Z0.6519
X1.2689 Z0.6518
X1.2639 Z0.6516
X1.2589 Z0.6514
X1.254 Z0.6512
X1.249 Z0.6511
X1.244 Z0.6509
X1.239 Z0.6507
X1.234 Z0.6505
X1.229 Z0.6504
X1.224 Z0.6502
X1.2191 Z0.65
X1.2141 Z0.6498
X1.2091 Z0.6497
X1.2041 Z0.6495
X1.1991 Z0.6493
X1.1941 Z0.6492
X1.1891 Z0.649
X1.1842 Z0.6488
X1.1792 Z0.6486
X1.1742 Z0.6485
X1.1692 Z0.6483
X1.1642 Z0.6481
X1.1592 Z0.6479
X1.1542 Z0.6478
X1.1493 Z0.6476
X1.1443 Z0.6474
X1.1393 Z0.6472
X1.1343 Z0.6471
X1.1293 Z0.6469
X1.1243 Z0.6467
X1.1193 Z0.6466
X1.1144 Z0.6464
X1.1094 Z0.6462
X1.1044 Z0.6461
X1.0994 Z0.6459
X1.0944 Z0.6458
X1.0894 Z0.6456
X1.0844 Z0.6455
X1.0795 Z0.6453
X1.0745 Z0.6451
X1.0695 Z0.645
X1.0645 Z0.6449
X1.0631 Z0.6448
X1.0626
X1.0625
Y1.0619
Y1.0612
Y1.0587 Z0.6447
Y1.0545 Z0.6446
Y1.0495 Z0.6444
Y1.0445 Z0.6443
Y1.0395 Z0.6441
Y1.0345 Z0.644
Y1.0296 Z0.6439
Y1.0246 Z0.6437
Y1.0196 Z0.6436
Y1.0146 Z0.6435
Y1.0096 Z0.6433
Y1.0046 Z0.6432
Y0.9996 Z0.6431
Y0.9947 Z0.643
Y0.9897 Z0.6429
Y0.9847 Z0.6427
Y0.9797 Z0.6426
Y0.9747 Z0.6425
Y0.9697 Z0.6424
Y0.9647 Z0.6423
Y0.9598 Z0.6422
Y0.9548 Z0.6421
Y0.9498 Z0.642
Y0.9448 Z0.6419
Y0.9348 Z0.6417
Y0.9249 Z0.6415
Y0.9149 Z0.6413
Y0.9049 Z0.6412
Y0.8949 Z0.641
Y0.885 Z0.6409
Y0.875 Z0.6407
Y0.865 Z0.6406
Y0.8551 Z0.6405
Y0.8451 Z0.6404
Y0.8351 Z0.6403
Y0.8251 Z0.6402
Y0.8152
Y0.8052 Z0.6401
Y0.7952
Y0.7853 Z0.64
Y0.7753
Y0.7653
Y0.763
Y0.5626 F15.
X1.0626 Y0.5625
X1.4374
X1.4375 Y0.5626
Y1.0624
X1.4374 Y1.0625
X1.0626
X1.0625 Y1.0624
Y0.763
Y0.753 F48.
Y0.7431
Y0.7331 Z0.6399
Y0.7231
Y0.7131 Z0.6398
Y0.7032
Y0.6932 Z0.6397
Y0.6832 Z0.6396
Y0.6733 Z0.6395
Y0.6633 Z0.6394
Y0.6533 Z0.6393
Y0.6433 Z0.6392
Y0.6334 Z0.639
Y0.6234 Z0.6389
Y0.6134 Z0.6387
Y0.6035 Z0.6385
Y0.5935 Z0.6384
Y0.5835 Z0.6382
Y0.5735 Z0.638
Y0.5686 Z0.6379
Y0.5636 Z0.6378
Y0.5628 Z0.6377
Y0.5626
X1.0626 Y0.5625
X1.0628
X1.0633
X1.0646
X1.0669 Z0.6376
X1.0715 Z0.6375
X1.0764 Z0.6374
X1.0814 Z0.6373
X1.0864 Z0.6372
X1.0914 Z0.6371
X1.0964 Z0.637
X1.1014 Z0.6368
X1.1063 Z0.6367
X1.1113 Z0.6366
X1.1163 Z0.6365
X1.1213 Z0.6363
X1.1263 Z0.6362
X1.1313 Z0.6361
X1.1363 Z0.6359
X1.1412 Z0.6358
X1.1462 Z0.6356
X1.1512 Z0.6355
X1.1562 Z0.6354
X1.1612 Z0.6352
X1.1662 Z0.6351
X1.1712 Z0.6349
X1.1761 Z0.6348
X1.1811 Z0.6346
X1.1861 Z0.6345
X1.1911 Z0.6343
X1.1961 Z0.6341
X1.2011 Z0.634
X1.2061 Z0.6338
X1.211 Z0.6337
X1.216 Z0.6335
X1.221 Z0.6333
X1.226 Z0.6332
X1.231 Z0.633
X1.236 Z0.6328
X1.241 Z0.6327
X1.2459 Z0.6325
X1.2559 Z0.6321
X1.2609 Z0.632
X1.2659 Z0.6318
X1.2709 Z0.6316
X1.2759 Z0.6315
X1.2808 Z0.6313
X1.2858 Z0.6311
X1.2908 Z0.6309
X1.2958 Z0.6308
X1.3008 Z0.6306
X1.3058 Z0.6304
X1.3108 Z0.6302
X1.3157 Z0.6301
X1.3207 Z0.6299
X1.3257 Z0.6297
X1.3307 Z0.6295
X1.3357 Z0.6294
X1.3407 Z0.6292
X1.3457 Z0.629
X1.3506 Z0.6288
X1.3556 Z0.6287
X1.3606 Z0.6285
X1.3656 Z0.6283
X1.3706 Z0.6281
X1.3756 Z0.628
X1.3806 Z0.6278
X1.3855 Z0.6276
X1.3955 Z0.6273
X1.4105 Z0.6267
X1.4254 Z0.6262
X1.4304 Z0.6261
X1.4346 Z0.6259
X1.4375
Y0.5627 Z0.6258
Y0.5654
Y0.5804 Z0.6253
Y0.5953 Z0.6247
Y0.6103 Z0.6242
Y0.6302 Z0.6235
Y0.6552 Z0.6227
Y0.6901 Z0.6214
Y0.7349 Z0.6199
Y0.8097 Z0.6173
Y0.8347 Z0.6164
Y0.8596 Z0.6155
Y0.8745 Z0.615
Y0.8895 Z0.6145
Y0.9045 Z0.6139
Y0.9194 Z0.6134
Y0.9344 Z0.6129
Y0.9493 Z0.6124
Y0.9543 Z0.6122
Y0.9593 Z0.612
Y0.9643 Z0.6119
Y0.9693 Z0.6117
Y0.9743 Z0.6115
Y0.9792 Z0.6113
Y0.9842 Z0.6112
Y0.9892 Z0.611
Y0.9942 Z0.6108
Y0.9992 Z0.6106
Y1.0042 Z0.6105
Y1.0092 Z0.6103
Y1.0141 Z0.6101
Y1.0191 Z0.6099
Y1.0241 Z0.6098
Y1.0291 Z0.6096
Y1.0341 Z0.6094
Y1.0391 Z0.6092
Y1.0441 Z0.6091
Y1.049 Z0.6089
Y1.054 Z0.6087
Y1.0584 Z0.6086
Y1.0607 Z0.6085
Y1.0623
Y1.0624
X1.4374 Y1.0625
X1.4371
X1.4367 Z0.6084
X1.436
X1.431 Z0.6083
X1.426 Z0.6081
X1.421 Z0.6079
X1.406 Z0.6074
X1.4011 Z0.6072
X1.3961 Z0.607
X1.3911 Z0.6069
X1.3861 Z0.6067
X1.3811 Z0.6065
X1.3761 Z0.6064
X1.3711 Z0.6062
X1.3662 Z0.6061
X1.3612 Z0.6059
X1.3562 Z0.6057
X1.3512 Z0.6056
X1.3462 Z0.6054
X1.3412 Z0.6053
X1.3362 Z0.6051
X1.3313 Z0.605
X1.3263 Z0.6048
X1.3213 Z0.6047
X1.3163 Z0.6045
X1.3113 Z0.6044
X1.3063 Z0.6043
X1.3013 Z0.6041
X1.2964 Z0.604
X1.2914 Z0.6038
X1.2864 Z0.6037
X1.2814 Z0.6036
X1.2764 Z0.6035
X1.2714 Z0.6033
X1.2664 Z0.6032
X1.2615 Z0.6031
X1.2565 Z0.603
X1.2515 Z0.6028
X1.2465 Z0.6027
X1.2415 Z0.6026
X1.2365 Z0.6025
X1.2315 Z0.6024
X1.2266 Z0.6023
X1.2216 Z0.6022
X1.2166 Z0.6021
X1.2116 Z0.602
X1.2066 Z0.6019
X1.1966 Z0.6017
X1.1867 Z0.6015
X1.1767 Z0.6013
X1.1667 Z0.6012
X1.1568 Z0.601
X1.1468 Z0.6009
X1.1368 Z0.6007
X1.1268 Z0.6006
X1.1169 Z0.6005
X1.1069 Z0.6004
X1.0969 Z0.6003
X1.087 Z0.6002
X1.077
X1.067 Z0.6001
X1.0647
X1.0634
X1.0625
Y1.0624
Y1.0616
Y1.057
Y1.047 Z0.6
Y1.0371
Y1.0271
Y1.0257
Y0.763 F15.
Y0.5626
X1.0626 Y0.5625
X1.4374
X1.4375 Y0.5626
Y1.0624
X1.4374 Y1.0625
X1.0626
X1.0625 Y1.0624
Y1.0257
Y1.0157 F48.
Y1.0058
Y0.9958 Z0.5999
Y0.9858
Y0.9758 Z0.5998
Y0.9659
Y0.9559 Z0.5997
Y0.9459 Z0.5996
Y0.936 Z0.5995
Y0.926 Z0.5994
Y0.916 Z0.5993
Y0.906 Z0.5992
Y0.8961 Z0.599
Y0.8861 Z0.5989
Y0.8761 Z0.5987
Y0.8662 Z0.5985
Y0.8562 Z0.5984
Y0.8462 Z0.5982
Y0.8362 Z0.598
Y0.8313 Z0.5979
Y0.8263 Z0.5978
Y0.8213 Z0.5976
Y0.8163 Z0.5975
Y0.8113 Z0.5974
Y0.8063 Z0.5973
Y0.8013 Z0.5972
Y0.7964 Z0.5971
Y0.7914 Z0.597
Y0.7864 Z0.5968
Y0.7814 Z0.5967
Y0.7764 Z0.5966
Y0.7714 Z0.5965
Y0.7664 Z0.5963
Y0.7615 Z0.5962
Y0.7565 Z0.5961
Y0.7515 Z0.5959
Y0.7465 Z0.5958
Y0.7415 Z0.5956
Y0.7365 Z0.5955
Y0.7315 Z0.5954
Y0.7266 Z0.5952
Y0.7216 Z0.5951
Y0.7166 Z0.5949
Y0.7116 Z0.5948
Y0.7066 Z0.5946
Y0.7016 Z0.5945
Y0.6966 Z0.5943
Y0.6917 Z0.5941
Y0.6867 Z0.594
Y0.6817 Z0.5938
Y0.6767 Z0.5937
Y0.6717 Z0.5935
Y0.6667 Z0.5933
Y0.6617 Z0.5932
Y0.6568 Z0.593
Y0.6518 Z0.5928
Y0.6468 Z0.5927
Y0.6418 Z0.5925
Y0.6318 Z0.5921
Y0.6268 Z0.592
Y0.6219 Z0.5918
Y0.6169 Z0.5916
Y0.6119 Z0.5915
Y0.6069 Z0.5913
Y0.6019 Z0.5911
Y0.5969 Z0.5909
Y0.5919 Z0.5908
Y0.587 Z0.5906
Y0.582 Z0.5904
Y0.577 Z0.5902
Y0.572 Z0.5901
Y0.567 Z0.5899
Y0.5647 Z0.5898
Y0.5634
Y0.5625
X1.0626
X1.0634
X1.068 Z0.5896
X1.073 Z0.5895
X1.078 Z0.5893
X1.083 Z0.5891
X1.0879 Z0.5889
X1.0929 Z0.5888
X1.0979 Z0.5886
X1.1029 Z0.5884
X1.1079 Z0.5882
X1.1129 Z0.5881
X1.1179 Z0.5879
X1.1228 Z0.5877
X1.1278 Z0.5875
X1.1378 Z0.5872
X1.1528 Z0.5867
X1.1677 Z0.5862
X1.1827 Z0.5856
X1.1976 Z0.5851
X1.2126 Z0.5846
X1.2275 Z0.5841
X1.2525 Z0.5832
X1.2774 Z0.5823
X1.3123 Z0.5811
X1.3671 Z0.5792
X1.422 Z0.5773
X1.4369 Z0.5768
X1.4374 Z0.5767
X1.4375
Y0.5627
Y0.5629
Y0.5636
Y0.5648
Y0.5672 Z0.5766
Y0.5769 Z0.5762
Y0.6019 Z0.5754
Y0.6168 Z0.5749
Y0.6318 Z0.5743
Y0.6467 Z0.5738
Y0.6617 Z0.5733
Y0.6767 Z0.5728
Y0.6916 Z0.5722
Y0.6966 Z0.5721
Y0.7016 Z0.5719
Y0.7066 Z0.5717
Y0.7116 Z0.5715
Y0.7165 Z0.5714
Y0.7215 Z0.5712
Y0.7265 Z0.571
Y0.7315 Z0.5709
Y0.7365 Z0.5707
Y0.7415 Z0.5705
Y0.7465 Z0.5703
Y0.7514 Z0.5702
Y0.7564 Z0.57
Y0.7614 Z0.5698
Y0.7664 Z0.5696
Y0.7714 Z0.5695
Y0.7764 Z0.5693
Y0.7814 Z0.5691
Y0.7863 Z0.5689
Y0.7913 Z0.5688
Y0.7963 Z0.5686
Y0.8013 Z0.5684
Y0.8063 Z0.5682
Y0.8113 Z0.5681
Y0.8162 Z0.5679
Y0.8312 Z0.5674
Y0.8362 Z0.5672
Y0.8412 Z0.567
Y0.8462 Z0.5669
Y0.8511 Z0.5667
Y0.8561 Z0.5665
Y0.8611 Z0.5664
Y0.8661 Z0.5662
Y0.8711 Z0.566
Y0.8761 Z0.5659
Y0.8811 Z0.5657
Y0.886 Z0.5656
Y0.891 Z0.5654
Y0.896 Z0.5653
Y0.901 Z0.5651
Y0.906 Z0.565
Y0.911 Z0.5648
Y0.916 Z0.5647
Y0.9209 Z0.5645
Y0.9259 Z0.5644
Y0.9309 Z0.5642
Y0.9359 Z0.5641
Y0.9409 Z0.564
Y0.9459 Z0.5638
Y0.9509 Z0.5637
Y0.9558 Z0.5636
Y0.9608 Z0.5634
Y0.9658 Z0.5633
Y0.9708 Z0.5632
Y0.9758 Z0.5631
Y0.9808 Z0.5629
Y0.9858 Z0.5628
Y0.9907 Z0.5627
Y0.9957 Z0.5626
Y1.0007 Z0.5625
Y1.0057 Z0.5624
Y1.0107 Z0.5623
Y1.0157 Z0.5622
Y1.0207 Z0.5621
Y1.0256 Z0.562
Y1.0306 Z0.5619
Y1.0406 Z0.5617
Y1.0506 Z0.5615
Y1.0605 Z0.5613
Y1.062
Y1.0624
X1.4374 Y1.0625
X1.4369
X1.4361
X1.4337 Z0.5612
X1.4294
X1.4195 Z0.561
X1.4095 Z0.5609
X1.3995 Z0.5607
X1.3895 Z0.5606
X1.3796 Z0.5605
X1.3696 Z0.5604
X1.3596 Z0.5603
X1.3497 Z0.5602
X1.3397
X1.3297 Z0.5601
X1.3198
X1.3098 Z0.56
X1.2998
X1.2898
X1.2887
X1.0626 F15.
X1.0625 Y1.0624
Y0.5626
X1.0626 Y0.5625
X1.4374
X1.4375 Y0.5626
Y1.0624
X1.4374 Y1.0625
X1.2887
X1.2788 F48.
X1.2688
X1.2588 Z0.5599
X1.2489
X1.2389 Z0.5598
X1.2289
X1.2189 Z0.5597
X1.209 Z0.5596
X1.199 Z0.5595
X1.189 Z0.5594
X1.1791 Z0.5593
X1.1691 Z0.5592
X1.1591 Z0.559
X1.1491 Z0.5589
X1.1392 Z0.5587
X1.1292 Z0.5585
X1.1192 Z0.5584
X1.1093 Z0.5582
X1.0993 Z0.558
X1.0943 Z0.5579
X1.0893 Z0.5578
X1.0843 Z0.5576
X1.0794 Z0.5575
X1.0744 Z0.5574
X1.0694 Z0.5573
X1.0652 Z0.5572
X1.0631
X1.0627 Z0.5571
X1.0625
Y1.0623
Y1.0621
Y1.0594
Y1.0544 Z0.557
Y1.0494 Z0.5568
Y1.0444 Z0.5567
Y1.0394 Z0.5566
Y1.0344 Z0.5565
Y1.0294 Z0.5563
Y1.0245 Z0.5562
Y1.0195 Z0.5561
Y1.0145 Z0.5559
Y1.0095 Z0.5558
Y1.0045 Z0.5556
Y0.9995 Z0.5555
Y0.9945 Z0.5554
Y0.9896 Z0.5552
Y0.9846 Z0.5551
Y0.9796 Z0.5549
Y0.9746 Z0.5548
Y0.9696 Z0.5546
Y0.9646 Z0.5545
Y0.9596 Z0.5543
Y0.9547 Z0.5541
Y0.9497 Z0.554
Y0.9447 Z0.5538
Y0.9397 Z0.5537
Y0.9347 Z0.5535
Y0.9297 Z0.5533
Y0.9247 Z0.5532
Y0.9198 Z0.553
Y0.9148 Z0.5528
Y0.9098 Z0.5527
Y0.9048 Z0.5525
Y0.8948 Z0.5521
Y0.8898 Z0.552
Y0.8849 Z0.5518
Y0.8799 Z0.5516
Y0.8749 Z0.5515
Y0.8699 Z0.5513
Y0.8649 Z0.5511
Y0.8599 Z0.5509
Y0.8549 Z0.5508
Y0.85 Z0.5506
Y0.845 Z0.5504
Y0.84 Z0.5502
Y0.835 Z0.5501
Y0.83 Z0.5499
Y0.825 Z0.5497
Y0.82 Z0.5495
Y0.8151 Z0.5494
Y0.8101 Z0.5492
Y0.8051 Z0.549
Y0.8001 Z0.5488
Y0.7951 Z0.5487
Y0.7901 Z0.5485
Y0.7852 Z0.5483
Y0.7802 Z0.5481
Y0.7752 Z0.548
Y0.7702 Z0.5478
Y0.7652 Z0.5476
Y0.7552 Z0.5473
Y0.7403 Z0.5467
Y0.7253 Z0.5462
Y0.7104 Z0.5457
Y0.6954 Z0.5452
Y0.6805 Z0.5447
Y0.6655 Z0.5441
Y0.6456 Z0.5434
Y0.6206 Z0.5426
Y0.5857 Z0.5414
Y0.5708 Z0.5408
Y0.5664 Z0.5407
Y0.5641 Z0.5406
Y0.5629
Y0.5627
Y0.5625
X1.0627
X1.0643 Z0.5405
X1.139 Z0.5379
X1.1739 Z0.5367
X1.1989 Z0.5358
X1.2138 Z0.5353
X1.2288 Z0.5348
X1.2437 Z0.5343
X1.2587 Z0.5337
X1.2736 Z0.5332
X1.2886 Z0.5327
X1.3036 Z0.5322
X1.3085 Z0.532
X1.3135 Z0.5318
X1.3185 Z0.5317
X1.3235 Z0.5315
X1.3285 Z0.5313
X1.3335 Z0.5311
X1.3385 Z0.531
X1.3434 Z0.5308
X1.3484 Z0.5306
X1.3534 Z0.5304
X1.3584 Z0.5303
X1.3634 Z0.5301
X1.3684 Z0.5299
X1.3734 Z0.5297
X1.3783 Z0.5296
X1.3833 Z0.5294
X1.3883 Z0.5292
X1.3933 Z0.529
X1.3983 Z0.5289
X1.4033 Z0.5287
X1.4083 Z0.5285
X1.4132 Z0.5284
X1.4182 Z0.5282
X1.4232 Z0.528
X1.4282 Z0.5278
X1.4332 Z0.5277
X1.4355 Z0.5276
X1.4369
X1.4374
X1.4375 Y0.5626
Y0.5627 Z0.5275
Y0.563
Y0.5637
Y0.5682 Z0.5274
Y0.5732 Z0.5272
Y0.5782 Z0.5271
Y0.5832 Z0.5269
Y0.5881 Z0.5267
Y0.5931 Z0.5266
Y0.5981 Z0.5264
Y0.6031 Z0.5262
Y0.6081 Z0.5261
Y0.6131 Z0.5259
Y0.6181 Z0.5258
Y0.623 Z0.5256
Y0.628 Z0.5254
Y0.633 Z0.5253
Y0.638 Z0.5251
Y0.643 Z0.525
Y0.648 Z0.5248
Y0.653 Z0.5247
Y0.6579 Z0.5246
Y0.6629 Z0.5244
Y0.6679 Z0.5243
Y0.6729 Z0.5241
Y0.6779 Z0.524
Y0.6829 Z0.5239
Y0.6879 Z0.5237
Y0.6928 Z0.5236
Y0.6978 Z0.5235
Y0.7028 Z0.5233
Y0.7078 Z0.5232
Y0.7128 Z0.5231
Y0.7178 Z0.523
Y0.7228 Z0.5229
Y0.7277 Z0.5227
Y0.7327 Z0.5226
Y0.7377 Z0.5225
Y0.7427 Z0.5224
Y0.7477 Z0.5223
Y0.7527 Z0.5222
Y0.7577 Z0.5221
Y0.7626 Z0.522
Y0.7676 Z0.5219
Y0.7776 Z0.5217
Y0.7876 Z0.5215
Y0.7975 Z0.5213
Y0.8075 Z0.5212
Y0.8175 Z0.521
Y0.8275 Z0.5209
Y0.8374 Z0.5207
Y0.8474 Z0.5206
Y0.8574 Z0.5205
Y0.8673 Z0.5204
Y0.8773 Z0.5203
Y0.8873 Z0.5202
Y0.8973
Y0.9072 Z0.5201
Y0.9172
Y0.9272 Z0.52
Y0.9371
Y0.9471
Y0.9492
Y1.0624 F15.
X1.4374 Y1.0625
X1.0626
X1.0625 Y1.0624
Y0.5626
X1.0626 Y0.5625
X1.4374
X1.4375 Y0.5626
Y0.9492
Y0.9591 F48.
Y0.9691
Y0.9791 Z0.5199
Y0.989
Y0.999 Z0.5198
Y1.009
Y1.019 Z0.5197
Y1.0289 Z0.5196
Y1.0389 Z0.5195
Y1.0489 Z0.5194
Y1.0588 Z0.5193
Y1.0613
Y1.0622 Z0.5192
Y1.0624
X1.4374 Y1.0625
X1.4373
X1.4368
X1.4354
X1.4311
X1.4212 Z0.519
X1.4112 Z0.5189
X1.4012 Z0.5187
X1.3913 Z0.5185
X1.3813 Z0.5184
X1.3713 Z0.5182
X1.3613 Z0.518
X1.3564 Z0.5179
X1.3514 Z0.5178
X1.3464 Z0.5176
X1.3414 Z0.5175
X1.3364 Z0.5174
X1.3314 Z0.5173
X1.3264 Z0.5172
X1.3215 Z0.5171
X1.3165 Z0.517
X1.3115 Z0.5168
X1.3065 Z0.5167
X1.3015 Z0.5166
X1.2965 Z0.5165
X1.2915 Z0.5163
X1.2866 Z0.5162
X1.2816 Z0.5161
X1.2766 Z0.5159
X1.2716 Z0.5158
X1.2666 Z0.5156
X1.2616 Z0.5155
X1.2566 Z0.5154
X1.2517 Z0.5152
X1.2467 Z0.5151
X1.2417 Z0.5149
X1.2367 Z0.5148
X1.2317 Z0.5146
X1.2267 Z0.5145
X1.2217 Z0.5143
X1.2168 Z0.5141
X1.2118 Z0.514
X1.2068 Z0.5138
X1.2018 Z0.5137
X1.1968 Z0.5135
X1.1918 Z0.5133
X1.1868 Z0.5132
X1.1819 Z0.513
X1.1769 Z0.5128
X1.1719 Z0.5127
X1.1669 Z0.5125
X1.1569 Z0.5121
X1.1519 Z0.512
X1.147 Z0.5118
X1.142 Z0.5116
X1.137 Z0.5115
X1.132 Z0.5113
X1.127 Z0.5111
X1.122 Z0.5109
X1.117 Z0.5108
X1.1121 Z0.5106
X1.1071 Z0.5104
X1.1021 Z0.5102
X1.0971 Z0.5101
X1.0921 Z0.5099
X1.0871 Z0.5097
X1.0822 Z0.5095
X1.0772 Z0.5094
X1.0722 Z0.5092
X1.0637 Z0.5089
X1.063
X1.0627
X1.0625
Y1.0624
Y1.0622 Z0.5088
Y1.0572 Z0.5087
Y1.0522 Z0.5085
Y1.0472 Z0.5083
Y1.0422 Z0.5082
Y1.0372 Z0.508
Y1.0322 Z0.5078
Y1.0273 Z0.5076
Y1.0173 Z0.5073
Y1.0023 Z0.5068
Y0.9874 Z0.5062
Y0.9724 Z0.5057
Y0.9575 Z0.5052
Y0.9425 Z0.5047
Y0.9275 Z0.5041
Y0.9076 Z0.5035
Y0.8827 Z0.5026
Y0.8478 Z0.5014
Y0.7979 Z0.4996
Y0.7231 Z0.497
Y0.6982 Z0.4961
Y0.6733 Z0.4953
Y0.6583 Z0.4947
Y0.6434 Z0.4942
Y0.6284 Z0.4937
Y0.6135 Z0.4932
Y0.5985 Z0.4927
Y0.5835 Z0.4921
Y0.5786 Z0.492
Y0.5736 Z0.4918
Y0.5686 Z0.4916
Y0.5636 Z0.4914
Y0.5628
Y0.5627
Y0.5625
X1.0628
X1.0632
X1.0646
X1.0669 Z0.4913
X1.0714 Z0.4911
X1.0764 Z0.491
X1.0814 Z0.4908
X1.0864 Z0.4906
X1.0914 Z0.4904
X1.0964 Z0.4903
X1.1013 Z0.4901
X1.1063 Z0.4899
X1.1113 Z0.4897
X1.1163 Z0.4896
X1.1213 Z0.4894
X1.1263 Z0.4892
X1.1313 Z0.489
X1.1362 Z0.4889
X1.1412 Z0.4887
X1.1462 Z0.4885
X1.1512 Z0.4883
X1.1562 Z0.4882
X1.1612 Z0.488
X1.1661 Z0.4878
X1.1761 Z0.4875
X1.1811 Z0.4873
X1.1861 Z0.4871
X1.1911 Z0.487
X1.1961 Z0.4868
X1.201 Z0.4866
X1.206 Z0.4865
X1.211 Z0.4863
X1.216 Z0.4861
X1.221 Z0.486
X1.226 Z0.4858
X1.231 Z0.4857
X1.2359 Z0.4855
X1.2409 Z0.4854
X1.2459 Z0.4852
X1.2509 Z0.4851
X1.2559 Z0.4849
X1.2609 Z0.4848
X1.2659 Z0.4846
X1.2708 Z0.4845
X1.2758 Z0.4843
X1.2808 Z0.4842
X1.2858 Z0.4841
X1.2908 Z0.4839
X1.2958 Z0.4838
X1.3008 Z0.4836
X1.3057 Z0.4835
X1.3107 Z0.4834
X1.3157 Z0.4833
X1.3207 Z0.4831
X1.3257 Z0.483
X1.3307 Z0.4829
X1.3357 Z0.4828
X1.3406 Z0.4827
X1.3456 Z0.4826
X1.3506 Z0.4824
X1.3556 Z0.4823
X1.3606 Z0.4822
X1.3656 Z0.4821
X1.3706 Z0.482
X1.3805 Z0.4818
X1.3905 Z0.4816
X1.4005 Z0.4815
X1.4104 Z0.4813
X1.4204 Z0.4811
X1.4304 Z0.481
X1.4345 Z0.4809
X1.4374
X1.4375 Y0.5627
Y0.5654 Z0.4808
Y0.5754 Z0.4807
Y0.5853 Z0.4806
Y0.5953 Z0.4805
Y0.6053 Z0.4804
Y0.6153 Z0.4803
Y0.6252 Z0.4802
Y0.6352 Z0.4801
Y0.6452
Y0.6551
Y0.6651 Z0.48
Y0.6751
Y0.6841
Y0.9492 F15.
Y1.0624
X1.4374 Y1.0625
X1.0626
X1.0625 Y1.0624
Y0.5626
X1.0626 Y0.5625
X1.4374
X1.4375 Y0.5626
Y0.6841
Y0.694 F48.
Y0.704
Y0.714 Z0.4799
Y0.724
Y0.7339 Z0.4798
Y0.7439
Y0.7539 Z0.4797
Y0.7638 Z0.4796
Y0.7738 Z0.4795
Y0.7838 Z0.4794
Y0.7938 Z0.4793
Y0.8037 Z0.4792
Y0.8137 Z0.479
Y0.8237 Z0.4789
Y0.8336 Z0.4787
Y0.8436 Z0.4785
Y0.8536 Z0.4784
Y0.8636 Z0.4782
Y0.8735 Z0.478
Y0.8785 Z0.4779
Y0.8835 Z0.4778
Y0.8885 Z0.4776
Y0.8935 Z0.4775
Y0.8985 Z0.4774
Y0.9034 Z0.4773
Y0.9084 Z0.4772
Y0.9134 Z0.4771
Y0.9184 Z0.477
Y0.9234 Z0.4768
Y0.9284 Z0.4767
Y0.9334 Z0.4766
Y0.9383 Z0.4765
Y0.9433 Z0.4763
Y0.9483 Z0.4762
Y0.9533 Z0.4761
Y0.9583 Z0.4759
Y0.9633 Z0.4758
Y0.9683 Z0.4756
Y0.9732 Z0.4755
Y0.9782 Z0.4754
Y0.9832 Z0.4752
Y0.9882 Z0.4751
Y0.9932 Z0.4749
Y0.9982 Z0.4748
Y1.0031 Z0.4746
Y1.0081 Z0.4745
Y1.0131 Z0.4743
Y1.0181 Z0.4741
Y1.0231 Z0.474
Y1.0281 Z0.4738
Y1.0331 Z0.4737
Y1.038 Z0.4735
Y1.043 Z0.4733
Y1.048 Z0.4732
Y1.053 Z0.473
Y1.0602 Z0.4728
Y1.0614 Z0.4727
Y1.0621
Y1.0624
X1.4374 Y1.0625
X1.437
X1.432 Z0.4725
X1.422 Z0.4722
X1.417 Z0.472
X1.412 Z0.4718
X1.4071 Z0.4716
X1.4021 Z0.4715
X1.3971 Z0.4713
X1.3921 Z0.4711
X1.3871 Z0.4709
X1.3821 Z0.4708
X1.3771 Z0.4706
X1.3722 Z0.4704
X1.3672 Z0.4702
X1.3622 Z0.4701
X1.3572 Z0.4699
X1.3522 Z0.4697
X1.3472 Z0.4695
X1.3422 Z0.4694
X1.3373 Z0.4692
X1.3323 Z0.469
X1.3273 Z0.4688
X1.3223 Z0.4687
X1.3173 Z0.4685
X1.3123 Z0.4683
X1.3073 Z0.4682
X1.3024 Z0.468
X1.2974 Z0.4678
X1.2924 Z0.4676
X1.2824 Z0.4673
X1.2675 Z0.4668
X1.2525 Z0.4662
X1.2375 Z0.4657
X1.2226 Z0.4652
X1.2076 Z0.4647
X1.1927 Z0.4641
X1.1727 Z0.4634
X1.1478 Z0.4626
X1.1129 Z0.4614
X1.068 Z0.4598
X1.0635 Z0.4597
X1.0626
X1.0625 Y1.0624
Y1.0621 Z0.4596
Y1.0616
Y1.0604
Y1.058 Z0.4595
Y0.9932 Z0.4573
Y0.9683 Z0.4564
Y0.9433 Z0.4555
Y0.9284 Z0.455
Y0.9134 Z0.4545
Y0.8985 Z0.454
Y0.8835 Z0.4535
Y0.8686 Z0.4529
Y0.8536 Z0.4524
Y0.8486 Z0.4522
Y0.8436 Z0.4521
Y0.8387 Z0.4519
Y0.8337 Z0.4517
Y0.8287 Z0.4515
Y0.8237 Z0.4514
Y0.8187 Z0.4512
Y0.8137 Z0.451
Y0.8087 Z0.4508
Y0.8038 Z0.4507
Y0.7988 Z0.4505
Y0.7938 Z0.4503
Y0.7888 Z0.4501
Y0.7838 Z0.45
Y0.7788 Z0.4498
Y0.7738 Z0.4496
Y0.7689 Z0.4494
Y0.7639 Z0.4493
Y0.7589 Z0.4491
Y0.7539 Z0.4489
Y0.7489 Z0.4488
Y0.7439 Z0.4486
Y0.7389 Z0.4484
Y0.734 Z0.4482
Y0.729 Z0.4481
Y0.724 Z0.4479
Y0.714 Z0.4475
Y0.709 Z0.4474
Y0.704 Z0.4472
Y0.6991 Z0.447
Y0.6941 Z0.4469
Y0.6891 Z0.4467
Y0.6841 Z0.4465
Y0.6791 Z0.4464
Y0.6741 Z0.4462
Y0.6691 Z0.446
Y0.6642 Z0.4459
Y0.6592 Z0.4457
Y0.6542 Z0.4456
Y0.6492 Z0.4454
Y0.6442 Z0.4453
Y0.6392 Z0.4451
Y0.6342 Z0.445
Y0.6293 Z0.4448
Y0.6243 Z0.4447
Y0.6193 Z0.4445
Y0.6143 Z0.4444
Y0.6093 Z0.4442
Y0.6043 Z0.4441
Y0.5993 Z0.444
Y0.5944 Z0.4438
Y0.5894 Z0.4437
Y0.5844 Z0.4436
Y0.5794 Z0.4434
Y0.5744 Z0.4433
Y0.5694 Z0.4432
Y0.5653 Z0.4431
Y0.5632 Z0.443
Y0.5628
Y0.5626
Y0.5625
X1.0628
X1.0656 Z0.4429
X1.0706 Z0.4428
X1.0756 Z0.4427
X1.0805 Z0.4426
X1.0855 Z0.4425
X1.0905 Z0.4424
X1.0955 Z0.4423
X1.1005 Z0.4422
X1.1055 Z0.4421
X1.1154 Z0.4419
X1.1254 Z0.4417
X1.1354 Z0.4415
X1.1454 Z0.4413
X1.1553 Z0.4411
X1.1653 Z0.441
X1.1753 Z0.4409
X1.1852 Z0.4407
X1.1952 Z0.4406
X1.2052 Z0.4405
X1.2152 Z0.4404
X1.2251 Z0.4403
X1.2351 Z0.4402
X1.2451
X1.255 Z0.4401
X1.265
X1.275 Z0.44
X1.285
X1.2958
X1.4374 F15.
X1.4375 Y0.5626
Y1.0624
X1.4374 Y1.0625
X1.0626
X1.0625 Y1.0624
Y0.5626
X1.0626 Y0.5625
X1.2958
X1.3057 F48.
X1.3157
X1.3257 Z0.4399
X1.3356
X1.3456 Z0.4398
X1.3556
X1.3656 Z0.4397
X1.3755 Z0.4396
X1.3855 Z0.4395
X1.3955 Z0.4394
X1.4054 Z0.4393
X1.4154 Z0.4392
X1.4254 Z0.439
X1.4353 Z0.4389
X1.4368 Z0.4388
X1.4374
X1.4375 Y0.5626
Y0.5629
Y0.5637
Y0.5661
Y0.5704 Z0.4387
Y0.5803 Z0.4385
Y0.5903 Z0.4384
Y0.6003 Z0.4382
Y0.6103 Z0.438
Y0.6152 Z0.4379
Y0.6202 Z0.4378
Y0.6252 Z0.4376
Y0.6302 Z0.4375
Y0.6352 Z0.4374
Y0.6402 Z0.4373
Y0.6452 Z0.4372
Y0.6501 Z0.4371
Y0.6551 Z0.437
Y0.6601 Z0.4368
Y0.6651 Z0.4367
Y0.6701 Z0.4366
Y0.6751 Z0.4365
Y0.6801 Z0.4363
Y0.685 Z0.4362
Y0.69 Z0.4361
Y0.695 Z0.4359
Y0.7 Z0.4358
Y0.705 Z0.4356
Y0.71 Z0.4355
Y0.715 Z0.4354
Y0.7199 Z0.4352
Y0.7249 Z0.4351
Y0.7299 Z0.4349
Y0.7349 Z0.4348
Y0.7399 Z0.4346
Y0.7449 Z0.4345
Y0.7499 Z0.4343
Y0.7548 Z0.4341
Y0.7598 Z0.434
Y0.7648 Z0.4338
Y0.7698 Z0.4337
Y0.7748 Z0.4335
Y0.7798 Z0.4333
Y0.7848 Z0.4332
Y0.7897 Z0.433
Y0.7947 Z0.4328
Y0.7997 Z0.4327
Y0.8047 Z0.4325
Y0.8147 Z0.4321
Y0.8196 Z0.432
Y0.8246 Z0.4318
Y0.8296 Z0.4316
Y0.8346 Z0.4315
Y0.8396 Z0.4313
Y0.8446 Z0.4311
Y0.8496 Z0.4309
Y0.8545 Z0.4308
Y0.8595 Z0.4306
Y0.8645 Z0.4304
Y0.8695 Z0.4302
Y0.8745 Z0.4301
Y0.8795 Z0.4299
Y0.8845 Z0.4297
Y0.8894 Z0.4295
Y0.8944 Z0.4294
Y0.8994 Z0.4292
Y0.9044 Z0.429
Y0.9094 Z0.4288
Y0.9144 Z0.4287
Y0.9194 Z0.4285
Y0.9243 Z0.4283
Y0.9293 Z0.4281
Y0.9343 Z0.428
Y0.9393 Z0.4278
Y0.9443 Z0.4276
Y0.9543 Z0.4273
Y0.9692 Z0.4267
Y0.9842 Z0.4262
Y0.9991 Z0.4257
Y1.0141 Z0.4252
Y1.029 Z0.4247
Y1.044 Z0.4241
Y1.059 Z0.4236
Y1.0615
Y1.0624 Z0.4235
X1.4374 Y1.0625
X1.4373
X1.4366
X1.4352
X1.431 Z0.4234
X1.4061 Z0.4225
X1.3712 Z0.4213
X1.3164 Z0.4194
X1.2515 Z0.4171
X1.2266 Z0.4162
X1.2017 Z0.4154
X1.1867 Z0.4148
X1.1718 Z0.4143
X1.1568 Z0.4138
X1.1419 Z0.4133
X1.1269 Z0.4127
X1.1119 Z0.4122
X1.107 Z0.412
X1.102 Z0.4119
X1.097 Z0.4117
X1.092 Z0.4115
X1.087 Z0.4113
X1.082 Z0.4112
X1.077 Z0.411
X1.0649 Z0.4106
X1.0636 Z0.4105
X1.063
X1.0625
Y1.0624
Y1.062
Y1.057 Z0.4103
Y1.0521 Z0.4101
Y1.0471 Z0.41
Y1.0421 Z0.4098
Y1.0371 Z0.4096
Y1.0321 Z0.4094
Y1.0271 Z0.4093
Y1.0222 Z0.4091
Y1.0172 Z0.4089
Y1.0122 Z0.4087
Y1.0072 Z0.4086
Y1.0022 Z0.4084
Y0.9972 Z0.4082
Y0.9922 Z0.4081
Y0.9873 Z0.4079
Y0.9773 Z0.4075
Y0.9723 Z0.4074
Y0.9673 Z0.4072
Y0.9623 Z0.407
Y0.9573 Z0.4069
Y0.9524 Z0.4067
Y0.9474 Z0.4065
Y0.9424 Z0.4064
Y0.9374 Z0.4062
Y0.9324 Z0.406
Y0.9274 Z0.4059
Y0.9224 Z0.4057
Y0.9175 Z0.4056
Y0.9125 Z0.4054
Y0.9075 Z0.4053
Y0.9025 Z0.4051
Y0.8975 Z0.405
Y0.8925 Z0.4048
Y0.8875 Z0.4047
Y0.8826 Z0.4045
Y0.8776 Z0.4044
Y0.8726 Z0.4042
Y0.8676 Z0.4041
Y0.8626 Z0.404
Y0.8576 Z0.4038
Y0.8526 Z0.4037
Y0.8477 Z0.4036
Y0.8427 Z0.4034
Y0.8377 Z0.4033
Y0.8327 Z0.4032
Y0.8277 Z0.4031
Y0.8227 Z0.4029
Y0.8177 Z0.4028
Y0.8128 Z0.4027
Y0.8078 Z0.4026
Y0.8028 Z0.4025
Y0.7978 Z0.4024
Y0.7928 Z0.4023
Y0.7878 Z0.4022
Y0.7828 Z0.4021
Y0.7729 Z0.4019
Y0.7629 Z0.4017
Y0.7529 Z0.4015
Y0.743 Z0.4013
Y0.733 Z0.4011
Y0.723 Z0.401
Y0.713 Z0.4009
Y0.7031 Z0.4007
Y0.6931 Z0.4006
Y0.6831 Z0.4005
Y0.6732 Z0.4004
Y0.6632 Z0.4003
Y0.6532 Z0.4002
Y0.6432
Y0.6333 Z0.4001
Y0.6233
Y0.6133 Z0.4
Y0.6034
Y0.5927
Y0.5626 F15.
X1.0626 Y0.5625
X1.4374
X1.4375 Y0.5626
Y1.0624
X1.4374 Y1.0625
X1.0626
X1.0625 Y1.0624
Y0.5927
Y0.5827 F48.
Y0.5727
Y0.5625 Z0.3999
X1.0626
X1.0631
X1.0649
X1.0674
X1.0723
X1.0822 Z0.3998
X1.0922
X1.1022 Z0.3997
X1.1122 Z0.3996
X1.1221 Z0.3995
X1.1321 Z0.3994
X1.1421 Z0.3993
X1.152 Z0.3992
X1.162 Z0.399
X1.172 Z0.3989
X1.182 Z0.3987
X1.1919 Z0.3985
X1.2019 Z0.3984
X1.2119 Z0.3982
X1.2218 Z0.398
X1.2268 Z0.3979
X1.2318 Z0.3978
X1.2368 Z0.3976
X1.2418 Z0.3975
X1.2468 Z0.3974
X1.2518 Z0.3973
X1.2567 Z0.3972
X1.2617 Z0.3971
X1.2667 Z0.397
X1.2717 Z0.3968
X1.2767 Z0.3967
X1.2817 Z0.3966
X1.2867 Z0.3965
X1.2916 Z0.3963
X1.2966 Z0.3962
X1.3016 Z0.3961
X1.3066 Z0.3959
X1.3116 Z0.3958
X1.3166 Z0.3956
X1.3216 Z0.3955
X1.3265 Z0.3954
X1.3315 Z0.3952
X1.3365 Z0.3951
X1.3415 Z0.3949
X1.3465 Z0.3948
X1.3515 Z0.3946
X1.3565 Z0.3945
X1.3614 Z0.3943
X1.3664 Z0.3941
X1.3714 Z0.394
X1.3764 Z0.3938
X1.3814 Z0.3937
X1.3864 Z0.3935
X1.3914 Z0.3933
X1.3963 Z0.3932
X1.4013 Z0.393
X1.4063 Z0.3928
X1.4113 Z0.3927
X1.4163 Z0.3925
X1.4263 Z0.3921
X1.4312 Z0.392
X1.4355 Z0.3918
X1.4369
X1.4374
X1.4375
Y0.5631
Y0.5638
Y0.5663 Z0.3917
Y0.5712 Z0.3915
Y0.5762 Z0.3914
Y0.5812 Z0.3912
Y0.5862 Z0.391
Y0.5912 Z0.3908
Y0.5962 Z0.3907
Y0.6012 Z0.3905
Y0.6061 Z0.3903
Y0.6111 Z0.3902
Y0.6161 Z0.39
Y0.6211 Z0.3898
Y0.6261 Z0.3896
Y0.6311 Z0.3895
Y0.6361 Z0.3893
Y0.641 Z0.3891
Y0.646 Z0.3889
Y0.651 Z0.3888
Y0.656 Z0.3886
Y0.661 Z0.3884
Y0.666 Z0.3882
Y0.671 Z0.3881
Y0.6759 Z0.3879
Y0.6809 Z0.3877
Y0.6909 Z0.3874
Y0.7059 Z0.3868
Y0.7208 Z0.3863
Y0.7358 Z0.3858
Y0.7507 Z0.3853
Y0.7657 Z0.3848
Y0.7806 Z0.3842
Y0.8006 Z0.3835
Y0.8255 Z0.3827
Y0.8604 Z0.3814
Y0.9053 Z0.3799
Y0.9801 Z0.3773
Y1.005 Z0.3764
Y1.0299 Z0.3755
Y1.0449 Z0.375
Y1.0548 Z0.3747
Y1.059 Z0.3745
Y1.0616 Z0.3744
Y1.0624
X1.4374 Y1.0625
X1.4365
X1.4351
X1.4202 Z0.3739
X1.4052 Z0.3733
X1.3903 Z0.3728
X1.3753 Z0.3723
X1.3703 Z0.3721
X1.3653 Z0.3719
X1.3603 Z0.3718
X1.3554 Z0.3716
X1.3504 Z0.3714
X1.3454 Z0.3712
X1.3404 Z0.3711
X1.3354 Z0.3709
X1.3304 Z0.3707
X1.3254 Z0.3705
X1.3205 Z0.3704
X1.3155 Z0.3702
X1.3105 Z0.37
X1.3055 Z0.3699
X1.3005 Z0.3697
X1.2955 Z0.3695
X1.2906 Z0.3693
X1.2856 Z0.3692
X1.2806 Z0.369
X1.2756 Z0.3688
X1.2706 Z0.3686
X1.2656 Z0.3685
X1.2606 Z0.3683
X1.2557 Z0.3681
X1.2507 Z0.3679
X1.2457 Z0.3678
X1.2407 Z0.3676
X1.2357 Z0.3674
X1.2307 Z0.3672
X1.2257 Z0.3671
X1.2208 Z0.3669
X1.2158 Z0.3667
X1.2108 Z0.3666
X1.2058 Z0.3664
X1.2008 Z0.3662
X1.1958 Z0.3661
X1.1908 Z0.3659
X1.1859 Z0.3658
X1.1809 Z0.3656
X1.1759 Z0.3655
X1.1709 Z0.3653
X1.1659 Z0.3652
X1.1609 Z0.365
X1.1559 Z0.3649
X1.151 Z0.3647
X1.146 Z0.3646
X1.141 Z0.3644
X1.136 Z0.3643
X1.131 Z0.3641
X1.126 Z0.364
X1.121 Z0.3639
X1.1161 Z0.3637
X1.1111 Z0.3636
X1.1061 Z0.3635
X1.1011 Z0.3633
X1.0961 Z0.3632
X1.0911 Z0.3631
X1.0861 Z0.363
X1.0812 Z0.3629
X1.0762 Z0.3627
X1.0712 Z0.3626
X1.0638 Z0.3625
X1.063 Z0.3624
X1.0625
Y1.0623
Y1.0618
Y1.0604
Y1.0562 Z0.3623
Y1.0512 Z0.3622
Y1.0462 Z0.3621
Y1.0412 Z0.362
Y1.0362 Z0.3619
Y1.0263 Z0.3617
Y1.0163 Z0.3615
Y1.0063 Z0.3613
Y0.9963 Z0.3612
Y0.9864 Z0.361
Y0.9764 Z0.3609
Y0.9664 Z0.3607
Y0.9565 Z0.3606
Y0.9465 Z0.3605
Y0.9365 Z0.3604
Y0.9266 Z0.3603
Y0.9166 Z0.3602
Y0.9066
Y0.8966 Z0.3601
Y0.8867
Y0.8767 Z0.36
Y0.8667
Y0.8568
Y0.8544
Y0.5927 F15.
Y0.5626
X1.0626 Y0.5625
X1.4374
X1.4375 Y0.5626
Y1.0624
X1.4374 Y1.0625
X1.0626
X1.0625 Y1.0624
Y0.8544
Y0.8444 F48.
Y0.8344
Y0.8245 Z0.3599
Y0.8145
Y0.8045 Z0.3598
Y0.7946
Y0.7846 Z0.3597
Y0.7746 Z0.3596
Y0.7646 Z0.3595
Y0.7547 Z0.3594
Y0.7447 Z0.3593
Y0.7347 Z0.3592
Y0.7248 Z0.359
Y0.7148 Z0.3589
Y0.7048 Z0.3587
Y0.6949 Z0.3585
Y0.6849 Z0.3584
Y0.6749 Z0.3582
Y0.6649 Z0.358
Y0.66 Z0.3579
Y0.655 Z0.3578
Y0.65 Z0.3576
Y0.645 Z0.3575
Y0.64 Z0.3574
Y0.635 Z0.3573
Y0.63 Z0.3572
Y0.6251 Z0.3571
Y0.6201 Z0.357
Y0.6151 Z0.3568
Y0.6101 Z0.3567
Y0.6051 Z0.3566
Y0.6001 Z0.3565
Y0.5951 Z0.3563
Y0.5902 Z0.3562
Y0.5852 Z0.3561
Y0.5802 Z0.3559
Y0.5752 Z0.3558
Y0.5702 Z0.3556
Y0.5652 Z0.3555
Y0.5638
Y0.5631
Y0.5627 Z0.3554
Y0.5625
X1.0627
X1.0629
X1.0656
X1.0698 Z0.3552
X1.0748 Z0.3551
X1.0798 Z0.3549
X1.0848 Z0.3548
X1.0897 Z0.3546
X1.0947 Z0.3545
X1.0997 Z0.3543
X1.1047 Z0.3542
X1.1097 Z0.354
X1.1147 Z0.3538
X1.1197 Z0.3537
X1.1246 Z0.3535
X1.1296 Z0.3534
X1.1346 Z0.3532
X1.1396 Z0.353
X1.1446 Z0.3529
X1.1496 Z0.3527
X1.1546 Z0.3525
X1.1645 Z0.3522
X1.1695 Z0.352
X1.1745 Z0.3518
X1.1795 Z0.3516
X1.1845 Z0.3515
X1.1895 Z0.3513
X1.1944 Z0.3511
X1.1994 Z0.3509
X1.2044 Z0.3508
X1.2094 Z0.3506
X1.2144 Z0.3504
X1.2194 Z0.3503
X1.2243 Z0.3501
X1.2293 Z0.3499
X1.2343 Z0.3497
X1.2393 Z0.3496
X1.2443 Z0.3494
X1.2493 Z0.3492
X1.2543 Z0.349
X1.2592 Z0.3489
X1.2642 Z0.3487
X1.2692 Z0.3485
X1.2742 Z0.3483
X1.2792 Z0.3482
X1.2842 Z0.348
X1.2892 Z0.3478
X1.2941 Z0.3476
X1.3041 Z0.3473
X1.3191 Z0.3468
X1.334 Z0.3462
X1.349 Z0.3457
X1.3639 Z0.3452
X1.3789 Z0.3447
X1.3939 Z0.3442
X1.4138 Z0.3435
X1.4288 Z0.3429
X1.4332 Z0.3428
X1.4356 Z0.3427
X1.4369
X1.4375
Y0.5626
Y0.563
Y0.5638 Z0.3426
Y0.5987 Z0.3414
Y0.6485 Z0.3397
Y0.7233 Z0.3371
Y0.7482 Z0.3362
Y0.7732 Z0.3353
Y0.7881 Z0.3348
Y0.8031 Z0.3343
Y0.818 Z0.3338
Y0.833 Z0.3332
Y0.848 Z0.3327
Y0.8629 Z0.3322
Y0.8679 Z0.332
Y0.8729 Z0.3318
Y0.8779 Z0.3317
Y0.8829 Z0.3315
Y0.8878 Z0.3313
Y0.8928 Z0.3311
Y0.8978 Z0.331
Y0.9028 Z0.3308
Y0.9078 Z0.3306
Y0.9128 Z0.3304
Y0.9178 Z0.3303
Y0.9227 Z0.3301
Y0.9277 Z0.3299
Y0.9327 Z0.3297
Y0.9377 Z0.3296
Y0.9427 Z0.3294
Y0.9477 Z0.3292
Y0.9527 Z0.3291
Y0.9576 Z0.3289
Y0.9626 Z0.3287
Y0.9676 Z0.3285
Y0.9726 Z0.3284
Y0.9776 Z0.3282
Y0.9826 Z0.328
Y0.9876 Z0.3278
Y0.9975 Z0.3275
Y1.0025 Z0.3273
Y1.0075 Z0.3271
Y1.0125 Z0.327
Y1.0175 Z0.3268
Y1.0225 Z0.3266
Y1.0274 Z0.3265
Y1.0324 Z0.3263
Y1.0374 Z0.3262
Y1.0424 Z0.326
Y1.0474 Z0.3258
Y1.0524 Z0.3257
Y1.0574 Z0.3255
Y1.0623 Z0.3254
X1.4374 Y1.0625
X1.4372
X1.4369 Z0.3253
X1.4276 Z0.3251
X1.4227 Z0.3249
X1.4177 Z0.3248
X1.4127 Z0.3246
X1.4077 Z0.3245
X1.4027 Z0.3243
X1.3977 Z0.3242
X1.3927 Z0.3241
X1.3878 Z0.3239
X1.3828 Z0.3238
X1.3778 Z0.3237
X1.3728 Z0.3235
X1.3678 Z0.3234
X1.3628 Z0.3233
X1.3578 Z0.3232
X1.3529 Z0.323
X1.3479 Z0.3229
X1.3429 Z0.3228
X1.3379 Z0.3227
X1.3329 Z0.3226
X1.3279 Z0.3225
X1.3229 Z0.3223
X1.318 Z0.3222
X1.313 Z0.3221
X1.308 Z0.322
X1.298 Z0.3218
X1.288 Z0.3216
X1.2781 Z0.3215
X1.2681 Z0.3213
X1.2581 Z0.3211
X1.2482 Z0.321
X1.2382 Z0.3208
X1.2282 Z0.3207
X1.2182 Z0.3206
X1.2083 Z0.3205
X1.1983 Z0.3204
X1.1883 Z0.3203
X1.1784 Z0.3202
X1.1684 Z0.3201
X1.1584
X1.1484
X1.1385 Z0.32
X1.1285
X1.1191
X1.0626 F15.
X1.0625 Y1.0624
Y0.5626
X1.0626 Y0.5625
X1.4374
X1.4375 Y0.5626
Y1.0624
X1.4374 Y1.0625
X1.1191
X1.1091 F48.
X1.0991
X1.0892 Z0.3199
X1.0792
X1.0692 Z0.3198
X1.0651
X1.0629
X1.0627
X1.0625
Y1.0623
Y1.0618
Y1.0592
Y1.0492 Z0.3197
Y1.0393 Z0.3196
Y1.0293 Z0.3195
Y1.0193 Z0.3194
Y1.0093 Z0.3193
Y0.9994 Z0.3192
Y0.9894 Z0.319
Y0.9794 Z0.3189
Y0.9695 Z0.3187
Y0.9595 Z0.3185
Y0.9495 Z0.3184
Y0.9396 Z0.3182
Y0.9296 Z0.318
Y0.9246 Z0.3179
Y0.9196 Z0.3178
Y0.9146 Z0.3176
Y0.9096 Z0.3175
Y0.9047 Z0.3174
Y0.8997 Z0.3173
Y0.8947 Z0.3172
Y0.8897 Z0.3171
Y0.8847 Z0.317
Y0.8797 Z0.3168
Y0.8747 Z0.3167
Y0.8698 Z0.3166
Y0.8648 Z0.3165
Y0.8598 Z0.3163
Y0.8548 Z0.3162
Y0.8498 Z0.3161
Y0.8448 Z0.3159
Y0.8398 Z0.3158
Y0.8349 Z0.3156
Y0.8299 Z0.3155
Y0.8249 Z0.3154
Y0.8199 Z0.3152
Y0.8149 Z0.3151
Y0.8099 Z0.3149
Y0.8049 Z0.3148
Y0.8 Z0.3146
Y0.795 Z0.3145
Y0.79 Z0.3143
Y0.785 Z0.3141
Y0.78 Z0.314
Y0.775 Z0.3138
Y0.77 Z0.3137
Y0.7651 Z0.3135
Y0.7601 Z0.3133
Y0.7551 Z0.3132
Y0.7501 Z0.313
Y0.7451 Z0.3128
Y0.7401 Z0.3127
Y0.7351 Z0.3125
Y0.7252 Z0.3121
Y0.7202 Z0.312
Y0.7152 Z0.3118
Y0.7102 Z0.3116
Y0.7052 Z0.3115
Y0.7002 Z0.3113
Y0.6953 Z0.3111
Y0.6903 Z0.3109
Y0.6853 Z0.3108
Y0.6803 Z0.3106
Y0.6753 Z0.3104
Y0.6703 Z0.3102
Y0.6653 Z0.3101
Y0.6604 Z0.3099
Y0.6554 Z0.3097
Y0.6504 Z0.3095
Y0.6454 Z0.3094
Y0.6404 Z0.3092
Y0.6354 Z0.309
Y0.6304 Z0.3088
Y0.6255 Z0.3087
Y0.6205 Z0.3085
Y0.6155 Z0.3083
Y0.6105 Z0.3081
Y0.6055 Z0.308
Y0.6005 Z0.3078
Y0.5955 Z0.3076
Y0.5856 Z0.3073
Y0.5706 Z0.3067
Y0.5663 Z0.3066
Y0.5639 Z0.3065
Y0.5632
Y0.5627
Y0.5626
X1.0626 Y0.5625
X1.0629
X1.0644
X1.0794 Z0.3059
X1.0943 Z0.3054
X1.1093 Z0.3049
X1.1242 Z0.3044
X1.1392 Z0.3038
X1.1641 Z0.303
X1.189 Z0.3021
X1.2239 Z0.3009
X1.2888 Z0.2986
X1.3336 Z0.2971
X1.3586 Z0.2962
X1.3835 Z0.2953
X1.3984 Z0.2948
X1.4134 Z0.2943
X1.4284 Z0.2938
X1.4333 Z0.2936
X1.4357 Z0.2935
X1.4372
X1.4374
X1.4375 Y0.5626
Y0.5628
Y0.5632
Y0.564
Y0.5684 Z0.2933
Y0.5833 Z0.2928
Y0.5983 Z0.2923
Y0.6033 Z0.2921
Y0.6082 Z0.2919
Y0.6132 Z0.2918
Y0.6182 Z0.2916
Y0.6232 Z0.2914
Y0.6282 Z0.2912
Y0.6332 Z0.2911
Y0.6382 Z0.2909
Y0.6431 Z0.2907
Y0.6481 Z0.2905
Y0.6531 Z0.2904
Y0.6581 Z0.2902
Y0.6631 Z0.29
Y0.6681 Z0.2898
Y0.6731 Z0.2897
Y0.678 Z0.2895
Y0.683 Z0.2893
Y0.688 Z0.2891
Y0.693 Z0.289
Y0.698 Z0.2888
Y0.703 Z0.2886
Y0.708 Z0.2885
Y0.7129 Z0.2883
Y0.7179 Z0.2881
Y0.7229 Z0.2879
Y0.7279 Z0.2878
Y0.7329 Z0.2876
Y0.7379 Z0.2874
Y0.7429 Z0.2872
Y0.7478 Z0.2871
Y0.7528 Z0.2869
Y0.7578 Z0.2867
Y0.7628 Z0.2866
Y0.7678 Z0.2864
Y0.7728 Z0.2862
Y0.7778 Z0.2861
Y0.7827 Z0.2859
Y0.7877 Z0.2858
Y0.7927 Z0.2856
Y0.7977 Z0.2855
Y0.8027 Z0.2853
Y0.8077 Z0.2851
Y0.8127 Z0.285
Y0.8176 Z0.2848
Y0.8226 Z0.2847
Y0.8276 Z0.2846
Y0.8326 Z0.2844
Y0.8376 Z0.2843
Y0.8426 Z0.2841
Y0.8476 Z0.284
Y0.8525 Z0.2839
Y0.8575 Z0.2837
Y0.8625 Z0.2836
Y0.8675 Z0.2835
Y0.8725 Z0.2833
Y0.8775 Z0.2832
Y0.8825 Z0.2831
Y0.8874 Z0.283
Y0.8924 Z0.2829
Y0.8974 Z0.2827
Y0.9024 Z0.2826
Y0.9074 Z0.2825
Y0.9124 Z0.2824
Y0.9174 Z0.2823
Y0.9223 Z0.2822
Y0.9273 Z0.2821
Y0.9323 Z0.282
Y0.9373 Z0.2819
Y0.9473 Z0.2817
Y0.9572 Z0.2815
Y0.9672 Z0.2813
Y0.9772 Z0.2812
Y0.9871 Z0.281
Y0.9971 Z0.2809
Y1.0071 Z0.2807
Y1.0171 Z0.2806
Y1.027 Z0.2805
Y1.037 Z0.2804
Y1.047 Z0.2803
Y1.0569 Z0.2802
Y1.0615
Y1.0624
Y1.0625
X1.4371
X1.4367
X1.4354
X1.433
X1.4231 Z0.2801
X1.4131
X1.4031 Z0.28
X1.3931
X1.3832
X1.381
X1.1191 F15.
X1.0626
X1.0625 Y1.0624
Y0.5626
X1.0626 Y0.5625
X1.4374
X1.4375 Y0.5626
Y1.0624
X1.4374 Y1.0625
X1.381
X1.371 F48.
X1.3611
X1.3511 Z0.2799
X1.3411
X1.3312 Z0.2798
X1.3212
X1.3112 Z0.2797
X1.3012 Z0.2796
X1.2913 Z0.2795
X1.2813 Z0.2794
X1.2713 Z0.2793
X1.2614 Z0.2792
X1.2514 Z0.279
X1.2414 Z0.2789
X1.2314 Z0.2787
X1.2215 Z0.2785
X1.2115 Z0.2784
X1.2015 Z0.2782
X1.1916 Z0.278
X1.1866 Z0.2779
X1.1816 Z0.2778
X1.1766 Z0.2776
X1.1716 Z0.2775
X1.1666 Z0.2774
X1.1616 Z0.2773
X1.1567 Z0.2772
X1.1517 Z0.2771
X1.1467 Z0.277
X1.1417 Z0.2768
X1.1367 Z0.2767
X1.1317 Z0.2766
X1.1268 Z0.2765
X1.1218 Z0.2763
X1.1168 Z0.2762
X1.1118 Z0.2761
X1.1068 Z0.2759
X1.1018 Z0.2758
X1.0968 Z0.2756
X1.0919 Z0.2755
X1.0869 Z0.2754
X1.0819 Z0.2752
X1.0769 Z0.2751
X1.0719 Z0.2749
X1.0648 Z0.2747
X1.0636
X1.0629 Z0.2746
X1.0626
X1.0625 Y1.0624
Y1.0623
Y1.0619
Y1.0569 Z0.2745
Y1.0519 Z0.2743
Y1.0469 Z0.2741
Y1.0419 Z0.274
Y1.037 Z0.2738
Y1.032 Z0.2737
Y1.027 Z0.2735
Y1.022 Z0.2733
Y1.017 Z0.2732
Y1.012 Z0.273
Y1.007 Z0.2728
Y1.0021 Z0.2727
Y0.9971 Z0.2725
Y0.9871 Z0.2721
Y0.9821 Z0.272
Y0.9771 Z0.2718
Y0.9721 Z0.2716
Y0.9672 Z0.2715
Y0.9622 Z0.2713
Y0.9572 Z0.2711
Y0.9522 Z0.2709
Y0.9472 Z0.2708
Y0.9422 Z0.2706
Y0.9372 Z0.2704
Y0.9323 Z0.2702
Y0.9273 Z0.2701
Y0.9223 Z0.2699
Y0.9173 Z0.2697
Y0.9123 Z0.2695
Y0.9073 Z0.2694
Y0.9023 Z0.2692
Y0.8974 Z0.269
Y0.8924 Z0.2688
Y0.8874 Z0.2687
Y0.8824 Z0.2685
Y0.8774 Z0.2683
Y0.8724 Z0.2681
Y0.8674 Z0.268
Y0.8625 Z0.2678
Y0.8575 Z0.2676
Y0.8475 Z0.2673
Y0.8325 Z0.2667
Y0.8176 Z0.2662
Y0.8026 Z0.2657
Y0.7877 Z0.2652
Y0.7727 Z0.2647
Y0.7578 Z0.2641
Y0.7378 Z0.2634
Y0.7129 Z0.2626
Y0.678 Z0.2614
Y0.6281 Z0.2596
Y0.5633 Z0.2573
Y0.5627
Y0.5626
X1.0626 Y0.5625
X1.0634
X1.0647
X1.0671 Z0.2572
X1.0717 Z0.257
X1.0966 Z0.2562
X1.1215 Z0.2553
X1.1365 Z0.2548
X1.1515 Z0.2542
X1.1664 Z0.2537
X1.1814 Z0.2532
X1.1963 Z0.2527
X1.2113 Z0.2522
X1.2163 Z0.252
X1.2213 Z0.2518
X1.2262 Z0.2516
X1.2312 Z0.2515
X1.2362 Z0.2513
X1.2412 Z0.2511
X1.2462 Z0.2509
X1.2512 Z0.2508
X1.2562 Z0.2506
X1.2611 Z0.2504
X1.2661 Z0.2502
X1.2711 Z0.2501
X1.2761 Z0.2499
X1.2811 Z0.2497
X1.2861 Z0.2495
X1.2911 Z0.2494
X1.296 Z0.2492
X1.301 Z0.249
X1.306 Z0.2488
X1.311 Z0.2487
X1.316 Z0.2485
X1.321 Z0.2483
X1.326 Z0.2481
X1.3309 Z0.248
X1.3359 Z0.2478
X1.3459 Z0.2475
X1.3509 Z0.2473
X1.3559 Z0.2471
X1.3609 Z0.2469
X1.3658 Z0.2468
X1.3708 Z0.2466
X1.3758 Z0.2464
X1.3808 Z0.2463
X1.3858 Z0.2461
X1.3908 Z0.246
X1.3958 Z0.2458
X1.4007 Z0.2456
X1.4057 Z0.2455
X1.4107 Z0.2453
X1.4157 Z0.2452
X1.4207 Z0.245
X1.4257 Z0.2449
X1.4307 Z0.2447
X1.4348 Z0.2446
X1.4362
X1.4369
X1.4374
X1.4375 Y0.5626 Z0.2445
Y0.563
Y0.5657
Y0.5707 Z0.2443
Y0.5756 Z0.2442
Y0.5806 Z0.2441
Y0.5856 Z0.2439
Y0.5906 Z0.2438
Y0.5956 Z0.2437
Y0.6006 Z0.2435
Y0.6056 Z0.2434
Y0.6105 Z0.2433
Y0.6155 Z0.2431
Y0.6205 Z0.243
Y0.6255 Z0.2429
Y0.6305 Z0.2428
Y0.6355 Z0.2427
Y0.6405 Z0.2426
Y0.6454 Z0.2424
Y0.6504 Z0.2423
Y0.6554 Z0.2422
Y0.6604 Z0.2421
Y0.6654 Z0.242
Y0.6754 Z0.2418
Y0.6853 Z0.2416
Y0.6953 Z0.2415
Y0.7053 Z0.2413
Y0.7152 Z0.2411
Y0.7252 Z0.241
Y0.7352 Z0.2408
Y0.7452 Z0.2407
Y0.7551 Z0.2406
Y0.7651 Z0.2405
Y0.7751 Z0.2404
Y0.785 Z0.2403
Y0.795 Z0.2402
Y0.805 Z0.2401
Y0.815
Y0.8249
Y0.8349 Z0.24
Y0.8449
Y0.8542
Y1.0624 F15.
X1.4374 Y1.0625
X1.0626
X1.0625 Y1.0624
Y0.5626
X1.0626 Y0.5625
X1.4374
X1.4375 Y0.5626
Y0.8542
Y0.8641 F48.
Y0.8741
Y0.8841 Z0.2399
Y0.8941
Y0.904 Z0.2398
Y0.914
Y0.924 Z0.2397
Y0.9339 Z0.2396
Y0.9439 Z0.2395
Y0.9539 Z0.2394
Y0.9639 Z0.2393
Y0.9738 Z0.2392
Y0.9838 Z0.239
Y0.9938 Z0.2389
Y1.0037 Z0.2387
Y1.0137 Z0.2385
Y1.0237 Z0.2384
Y1.0337 Z0.2382
Y1.0436 Z0.238
Y1.0486 Z0.2379
Y1.0536 Z0.2378
Y1.0581 Z0.2376
Y1.0605
Y1.0618
Y1.0624
Y1.0625
X1.4372
X1.4364 Z0.2375
X1.4314 Z0.2374
X1.4264 Z0.2373
X1.4214 Z0.2372
X1.4164 Z0.2371
X1.4115 Z0.237
X1.4065 Z0.2368
X1.4015 Z0.2367
X1.3965 Z0.2366
X1.3915 Z0.2365
X1.3865 Z0.2363
X1.3815 Z0.2362
X1.3766 Z0.2361
X1.3716 Z0.2359
X1.3666 Z0.2358
X1.3616 Z0.2356
X1.3566 Z0.2355
X1.3516 Z0.2354
X1.3466 Z0.2352
X1.3417 Z0.2351
X1.3367 Z0.2349
X1.3317 Z0.2348
X1.3267 Z0.2346
X1.3217 Z0.2345
X1.3167 Z0.2343
X1.3117 Z0.2341
X1.3068 Z0.234
X1.3018 Z0.2338
X1.2968 Z0.2337
X1.2918 Z0.2335
X1.2868 Z0.2333
X1.2818 Z0.2332
X1.2768 Z0.233
X1.2719 Z0.2328
X1.2669 Z0.2327
X1.2619 Z0.2325
X1.2519 Z0.2321
X1.2469 Z0.232
X1.2419 Z0.2318
X1.237 Z0.2316
X1.232 Z0.2315
X1.227 Z0.2313
X1.222 Z0.2311
X1.217 Z0.2309
X1.212 Z0.2308
X1.207 Z0.2306
X1.2021 Z0.2304
X1.1971 Z0.2302
X1.1921 Z0.2301
X1.1871 Z0.2299
X1.1821 Z0.2297
X1.1771 Z0.2295
X1.1721 Z0.2294
X1.1672 Z0.2292
X1.1622 Z0.229
X1.1572 Z0.2288
X1.1522 Z0.2287
X1.1472 Z0.2285
X1.1422 Z0.2283
X1.1372 Z0.2281
X1.1323 Z0.228
X1.1273 Z0.2278
X1.1223 Z0.2276
X1.1123 Z0.2273
X1.0974 Z0.2267
X1.0824 Z0.2262
X1.0674 Z0.2257
X1.0628 Z0.2256
X1.0626
X1.0625 Y1.0624
Y1.0574 Z0.2255
Y1.0425 Z0.2249
Y1.0275 Z0.2244
Y1.0126 Z0.2239
Y0.9876 Z0.223
Y0.9627 Z0.2221
Y0.9278 Z0.2209
Y0.863 Z0.2187
Y0.8181 Z0.2171
Y0.7932 Z0.2162
Y0.7683 Z0.2154
Y0.7533 Z0.2148
Y0.7383 Z0.2143
Y0.7234 Z0.2138
Y0.7084 Z0.2133
Y0.6935 Z0.2127
Y0.6785 Z0.2122
Y0.6735 Z0.2121
Y0.6686 Z0.2119
Y0.6636 Z0.2117
Y0.6586 Z0.2115
Y0.6536 Z0.2114
Y0.6486 Z0.2112
Y0.6436 Z0.211
Y0.6386 Z0.2108
Y0.6337 Z0.2107
Y0.6287 Z0.2105
Y0.6237 Z0.2103
Y0.6187 Z0.2101
Y0.6137 Z0.21
Y0.6087 Z0.2098
Y0.6037 Z0.2096
Y0.5988 Z0.2094
Y0.5938 Z0.2093
Y0.5888 Z0.2091
Y0.5838 Z0.2089
Y0.5788 Z0.2087
Y0.5738 Z0.2086
Y0.5688 Z0.2084
Y0.5646 Z0.2083
Y0.5632 Z0.2082
Y0.5627
Y0.5625
X1.0627
X1.0629
X1.0637
X1.0662 Z0.2081
X1.0712 Z0.208
X1.0762 Z0.2078
X1.0811 Z0.2076
X1.0861 Z0.2074
X1.0911 Z0.2073
X1.0961 Z0.2071
X1.1011 Z0.2069
X1.1061 Z0.2068
X1.1111 Z0.2066
X1.116 Z0.2064
X1.121 Z0.2063
X1.126 Z0.2061
X1.131 Z0.206
X1.136 Z0.2058
X1.141 Z0.2056
X1.146 Z0.2055
X1.1509 Z0.2053
X1.1559 Z0.2052
X1.1609 Z0.205
X1.1659 Z0.2049
X1.1709 Z0.2047
X1.1759 Z0.2046
X1.1809 Z0.2044
X1.1858 Z0.2043
X1.1908 Z0.2042
X1.1958 Z0.204
X1.2008 Z0.2039
X1.2058 Z0.2038
X1.2108 Z0.2036
X1.2157 Z0.2035
X1.2207 Z0.2034
X1.2257 Z0.2032
X1.2307 Z0.2031
X1.2357 Z0.203
X1.2407 Z0.2029
X1.2457 Z0.2028
X1.2506 Z0.2026
X1.2556 Z0.2025
X1.2606 Z0.2024
X1.2656 Z0.2023
X1.2706 Z0.2022
X1.2756 Z0.2021
X1.2806 Z0.202
X1.2855 Z0.2019
X1.2955 Z0.2017
X1.3055 Z0.2015
X1.3155 Z0.2014
X1.3254 Z0.2012
X1.3354 Z0.201
X1.3454 Z0.2009
X1.3553 Z0.2008
X1.3653 Z0.2006
X1.3753 Z0.2005
X1.3853 Z0.2004
X1.3952 Z0.2003
X1.4052 Z0.2002
X1.4152
X1.4251 Z0.2001
X1.4351
X1.4369
X1.4374
X1.4375 Y0.5626
Y0.5634
Y0.5659 Z0.2
Y0.5701
Y0.5801
Y0.5901
Y0.5933
Y0.8542 F15.
Y1.0624
X1.4374 Y1.0625
X1.0626
X1.0625 Y1.0624
Y0.5626
X1.0626 Y0.5625
X1.4374
X1.4375 Y0.5626
Y0.5933
Y0.6033 F48.
Y0.6133
Y0.6233 Z0.1999
Y0.6332
Y0.6432 Z0.1998
Y0.6532
Y0.6631 Z0.1997
Y0.6731 Z0.1996
Y0.6831 Z0.1995
Y0.6931 Z0.1994
Y0.703 Z0.1993
Y0.713 Z0.1992
Y0.723 Z0.199
Y0.7329 Z0.1989
Y0.7429 Z0.1987
Y0.7529 Z0.1985
Y0.7629 Z0.1984
Y0.7728 Z0.1982
Y0.7828 Z0.198
Y0.7878 Z0.1979
Y0.7928 Z0.1978
Y0.7978 Z0.1976
Y0.8027 Z0.1975
Y0.8077 Z0.1974
Y0.8127 Z0.1973
Y0.8177 Z0.1972
Y0.8227 Z0.1971
Y0.8277 Z0.197
Y0.8326 Z0.1968
Y0.8376 Z0.1967
Y0.8426 Z0.1966
Y0.8476 Z0.1965
Y0.8526 Z0.1963
Y0.8576 Z0.1962
Y0.8626 Z0.1961
Y0.8675 Z0.1959
Y0.8725 Z0.1958
Y0.8775 Z0.1956
Y0.8825 Z0.1955
Y0.8875 Z0.1954
Y0.8925 Z0.1952
Y0.8975 Z0.1951
Y0.9024 Z0.1949
Y0.9074 Z0.1948
Y0.9124 Z0.1946
Y0.9174 Z0.1945
Y0.9224 Z0.1943
Y0.9274 Z0.1941
Y0.9324 Z0.194
Y0.9373 Z0.1938
Y0.9423 Z0.1937
Y0.9473 Z0.1935
Y0.9523 Z0.1933
Y0.9573 Z0.1932
Y0.9623 Z0.193
Y0.9673 Z0.1928
Y0.9722 Z0.1927
Y0.9772 Z0.1925
Y0.9872 Z0.1921
Y0.9922 Z0.192
Y0.9972 Z0.1918
Y1.0022 Z0.1916
Y1.0071 Z0.1915
Y1.0121 Z0.1913
Y1.0171 Z0.1911
Y1.0221 Z0.1909
Y1.0271 Z0.1908
Y1.0321 Z0.1906
Y1.0371 Z0.1904
Y1.042 Z0.1902
Y1.047 Z0.1901
Y1.052 Z0.1899
Y1.057 Z0.1897
Y1.062 Z0.1895
Y1.0624
X1.4374 Y1.0625
X1.4371
X1.4364
X1.4352
X1.4328 Z0.1894
X1.418 Z0.1889
X1.413 Z0.1887
X1.408 Z0.1885
X1.4031 Z0.1883
X1.3981 Z0.1882
X1.3931 Z0.188
X1.3881 Z0.1878
X1.3831 Z0.1876
X1.3731 Z0.1873
X1.3582 Z0.1868
X1.3432 Z0.1862
X1.3283 Z0.1857
X1.3133 Z0.1852
X1.2984 Z0.1847
X1.2834 Z0.1842
X1.2635 Z0.1835
X1.2385 Z0.1826
X1.2036 Z0.1814
X1.1538 Z0.1796
X1.079 Z0.177
X1.069 Z0.1767
X1.0648 Z0.1765
X1.0635
X1.0626
X1.0625
Y1.0615
Y1.059 Z0.1764
Y1.0341 Z0.1755
Y1.0191 Z0.175
Y1.0042 Z0.1745
Y0.9892 Z0.174
Y0.9743 Z0.1735
Y0.9593 Z0.1729
Y0.9443 Z0.1724
Y0.9394 Z0.1722
Y0.9344 Z0.1721
Y0.9294 Z0.1719
Y0.9244 Z0.1717
Y0.9194 Z0.1715
Y0.9144 Z0.1714
Y0.9094 Z0.1712
Y0.9045 Z0.171
Y0.8995 Z0.1708
Y0.8945 Z0.1707
Y0.8895 Z0.1705
Y0.8845 Z0.1703
Y0.8795 Z0.1701
Y0.8745 Z0.17
Y0.8696 Z0.1698
Y0.8646 Z0.1696
Y0.8596 Z0.1694
Y0.8546 Z0.1693
Y0.8496 Z0.1691
Y0.8446 Z0.1689
Y0.8396 Z0.1688
Y0.8347 Z0.1686
Y0.8297 Z0.1684
Y0.8247 Z0.1682
Y0.8197 Z0.1681
Y0.8147 Z0.1679
Y0.8047 Z0.1675
Y0.7998 Z0.1674
Y0.7948 Z0.1672
Y0.7898 Z0.167
Y0.7848 Z0.1669
Y0.7798 Z0.1667
Y0.7748 Z0.1665
Y0.7698 Z0.1664
Y0.7649 Z0.1662
Y0.7599 Z0.166
Y0.7549 Z0.1659
Y0.7499 Z0.1657
Y0.7449 Z0.1656
Y0.7399 Z0.1654
Y0.7349 Z0.1653
Y0.73 Z0.1651
Y0.725 Z0.165
Y0.72 Z0.1648
Y0.715 Z0.1647
Y0.71 Z0.1645
Y0.705 Z0.1644
Y0.7 Z0.1642
Y0.6951 Z0.1641
Y0.6901 Z0.164
Y0.6851 Z0.1638
Y0.6801 Z0.1637
Y0.6751 Z0.1636
Y0.6701 Z0.1634
Y0.6651 Z0.1633
Y0.6602 Z0.1632
Y0.6552 Z0.1631
Y0.6502 Z0.1629
Y0.6452 Z0.1628
Y0.6402 Z0.1627
Y0.6352 Z0.1626
Y0.6302 Z0.1625
Y0.6253 Z0.1624
Y0.6203 Z0.1623
Y0.6153 Z0.1622
Y0.6103 Z0.1621
Y0.6003 Z0.1619
Y0.5904 Z0.1617
Y0.5804 Z0.1615
Y0.5704 Z0.1613
Y0.5662 Z0.1612
Y0.5637
Y0.5628
Y0.5627
Y0.5625
X1.0627
X1.0632
X1.0646 Z0.1611
X1.0746 Z0.161
X1.0845 Z0.1609
X1.0945 Z0.1607
X1.1045 Z0.1606
X1.1145 Z0.1605
X1.1244 Z0.1604
X1.1344 Z0.1603
X1.1444 Z0.1602
X1.1543
X1.1643 Z0.1601
X1.1743
X1.1843 Z0.16
X1.1942
X1.205
X1.4374 F15.
X1.4375 Y0.5626
Y1.0624
X1.4374 Y1.0625
X1.0626
X1.0625 Y1.0624
Y0.5626
X1.0626 Y0.5625
X1.205
X1.2149 F48.
X1.2249
X1.2349 Z0.1599
X1.2448
X1.2548 Z0.1598
X1.2648
X1.2748 Z0.1597
X1.2847 Z0.1596
X1.2947 Z0.1595
X1.3047 Z0.1594
X1.3146 Z0.1593
X1.3246 Z0.1592
X1.3346 Z0.159
X1.3446 Z0.1589
X1.3545 Z0.1587
X1.3645 Z0.1585
X1.3745 Z0.1584
X1.3844 Z0.1582
X1.3944 Z0.158
X1.3994 Z0.1579
X1.4044 Z0.1578
X1.4094 Z0.1576
X1.4144 Z0.1575
X1.4193 Z0.1574
X1.4243 Z0.1573
X1.4293 Z0.1572
X1.4343 Z0.1571
X1.437 Z0.157
X1.4374
X1.4375
Y0.563
Y0.5638
Y0.5652
Y0.5693 Z0.1568
Y0.5743 Z0.1567
Y0.5793 Z0.1566
Y0.5843 Z0.1565
Y0.5893 Z0.1563
Y0.5942 Z0.1562
Y0.5992 Z0.1561
Y0.6042 Z0.1559
Y0.6092 Z0.1558
Y0.6142 Z0.1556
Y0.6192 Z0.1555
Y0.6242 Z0.1554
Y0.6291 Z0.1552
Y0.6341 Z0.1551
Y0.6391 Z0.1549
Y0.6441 Z0.1548
Y0.6491 Z0.1546
Y0.6541 Z0.1545
Y0.6591 Z0.1543
Y0.664 Z0.1541
Y0.669 Z0.154
Y0.674 Z0.1538
Y0.679 Z0.1537
Y0.684 Z0.1535
Y0.689 Z0.1533
Y0.694 Z0.1532
Y0.6989 Z0.153
Y0.7039 Z0.1528
Y0.7089 Z0.1527
Y0.7139 Z0.1525
Y0.7239 Z0.1521
Y0.7289 Z0.152
Y0.7338 Z0.1518
Y0.7388 Z0.1516
Y0.7438 Z0.1515
Y0.7488 Z0.1513
Y0.7538 Z0.1511
Y0.7588 Z0.1509
Y0.7638 Z0.1508
Y0.7687 Z0.1506
Y0.7737 Z0.1504
Y0.7787 Z0.1502
Y0.7837 Z0.1501
Y0.7887 Z0.1499
Y0.7937 Z0.1497
Y0.7987 Z0.1495
Y0.8036 Z0.1494
Y0.8086 Z0.1492
Y0.8136 Z0.149
Y0.8186 Z0.1488
Y0.8236 Z0.1487
Y0.8286 Z0.1485
Y0.8336 Z0.1483
Y0.8385 Z0.1481
Y0.8435 Z0.148
Y0.8485 Z0.1478
Y0.8535 Z0.1476
Y0.8635 Z0.1473
Y0.8784 Z0.1467
Y0.8934 Z0.1462
Y0.9083 Z0.1457
Y0.9233 Z0.1452
Y0.9382 Z0.1447
Y0.9532 Z0.1441
Y0.9731 Z0.1434
Y0.9981 Z0.1426
Y1.033 Z0.1414
Y1.0579 Z0.1405
Y1.0603 Z0.1404
Y1.0615
Y1.0623
Y1.0624
X1.4374 Y1.0625
X1.4371
X1.4367
X1.4321 Z0.1402
X1.3573 Z0.1376
X1.3224 Z0.1364
X1.2975 Z0.1355
X1.2825 Z0.135
X1.2675 Z0.1345
X1.2526 Z0.134
X1.2376 Z0.1334
X1.2227 Z0.1329
X1.2077 Z0.1324
X1.2027 Z0.1322
X1.1978 Z0.1321
X1.1928 Z0.1319
X1.1878 Z0.1317
X1.1828 Z0.1315
X1.1778 Z0.1314
X1.1728 Z0.1312
X1.1678 Z0.131
X1.1629 Z0.1308
X1.1579 Z0.1307
X1.1529 Z0.1305
X1.1479 Z0.1303
X1.1429 Z0.1301
X1.1379 Z0.13
X1.1329 Z0.1298
X1.128 Z0.1296
X1.123 Z0.1294
X1.118 Z0.1293
X1.113 Z0.1291
X1.108 Z0.1289
X1.103 Z0.1287
X1.098 Z0.1286
X1.0931 Z0.1284
X1.0881 Z0.1282
X1.0831 Z0.128
X1.0781 Z0.1279
X1.0681 Z0.1275
X1.0631 Z0.1274
X1.0627 Z0.1273
X1.0626
X1.0625 Y1.0624
Y1.0622
Y1.0614
Y1.0602
Y1.0531 Z0.127
Y1.0481 Z0.1269
Y1.0431 Z0.1267
Y1.0382 Z0.1265
Y1.0332 Z0.1264
Y1.0282 Z0.1262
Y1.0232 Z0.126
Y1.0182 Z0.1259
Y1.0132 Z0.1257
Y1.0082 Z0.1256
Y1.0033 Z0.1254
Y0.9983 Z0.1253
Y0.9933 Z0.1251
Y0.9883 Z0.125
Y0.9833 Z0.1248
Y0.9783 Z0.1247
Y0.9733 Z0.1245
Y0.9684 Z0.1244
Y0.9634 Z0.1242
Y0.9584 Z0.1241
Y0.9534 Z0.124
Y0.9484 Z0.1238
Y0.9434 Z0.1237
Y0.9384 Z0.1236
Y0.9335 Z0.1234
Y0.9285 Z0.1233
Y0.9235 Z0.1232
Y0.9185 Z0.1231
Y0.9135 Z0.1229
Y0.9085 Z0.1228
Y0.9035 Z0.1227
Y0.8986 Z0.1226
Y0.8936 Z0.1225
Y0.8886 Z0.1224
Y0.8836 Z0.1223
Y0.8786 Z0.1222
Y0.8736 Z0.1221
Y0.8687 Z0.122
Y0.8637 Z0.1219
Y0.8537 Z0.1217
Y0.8437 Z0.1215
Y0.8338 Z0.1213
Y0.8238 Z0.1212
Y0.8138 Z0.121
Y0.8038 Z0.1209
Y0.7939 Z0.1207
Y0.7839 Z0.1206
Y0.7739 Z0.1205
Y0.764 Z0.1204
Y0.754 Z0.1203
Y0.744 Z0.1202
Y0.734
Y0.7241 Z0.1201
Y0.7141
Y0.7041 Z0.12
Y0.6942
Y0.6842
Y0.6832
Y0.5626 F15.
X1.0626 Y0.5625
X1.4374
X1.4375 Y0.5626
Y1.0624
X1.4374 Y1.0625
X1.0626
X1.0625 Y1.0624
Y0.6832
Y0.6733 F48.
Y0.6633
Y0.6533 Z0.1199
Y0.6433
Y0.6334 Z0.1198
Y0.6234
Y0.6134 Z0.1197
Y0.6035 Z0.1196
Y0.5935 Z0.1195
Y0.5835 Z0.1194
Y0.5735 Z0.1193
Y0.5636 Z0.1192
Y0.5626 Z0.1191
X1.0626 Y0.5625
X1.0628
X1.0633
X1.0646
X1.0669
X1.0715 Z0.119
X1.0814 Z0.1189
X1.0914 Z0.1187
X1.1014 Z0.1185
X1.1113 Z0.1184
X1.1213 Z0.1182
X1.1313 Z0.118
X1.1363 Z0.1179
X1.1412 Z0.1178
X1.1462 Z0.1176
X1.1512 Z0.1175
X1.1562 Z0.1174
X1.1612 Z0.1173
X1.1662 Z0.1172
X1.1712 Z0.1171
X1.1761 Z0.117
X1.1811 Z0.1168
X1.1861 Z0.1167
X1.1911 Z0.1166
X1.1961 Z0.1165
X1.2011 Z0.1163
X1.2061 Z0.1162
X1.211 Z0.1161
X1.216 Z0.1159
X1.221 Z0.1158
X1.226 Z0.1156
X1.231 Z0.1155
X1.236 Z0.1154
X1.241 Z0.1152
X1.2459 Z0.1151
X1.2509 Z0.1149
X1.2559 Z0.1148
X1.2609 Z0.1146
X1.2659 Z0.1145
X1.2709 Z0.1143
X1.2759 Z0.1141
X1.2808 Z0.114
X1.2858 Z0.1138
X1.2908 Z0.1137
X1.2958 Z0.1135
X1.3008 Z0.1133
X1.3058 Z0.1132
X1.3108 Z0.113
X1.3157 Z0.1128
X1.3207 Z0.1127
X1.3257 Z0.1125
X1.3357 Z0.1121
X1.3407 Z0.112
X1.3457 Z0.1118
X1.3506 Z0.1116
X1.3556 Z0.1115
X1.3606 Z0.1113
X1.3656 Z0.1111
X1.3706 Z0.1109
X1.3756 Z0.1108
X1.3806 Z0.1106
X1.3855 Z0.1104
X1.3905 Z0.1102
X1.3955 Z0.1101
X1.4005 Z0.1099
X1.4055 Z0.1097
X1.4105 Z0.1095
X1.4155 Z0.1094
X1.4204 Z0.1092
X1.4254 Z0.109
X1.4304 Z0.1088
X1.4346 Z0.1087
X1.4375 Z0.1086
Y0.5627
Y0.5654
Y0.5704 Z0.1084
Y0.5754 Z0.1082
Y0.5804 Z0.108
Y0.5854 Z0.1079
Y0.5904 Z0.1077
Y0.6003 Z0.1074
Y0.6153 Z0.1068
Y0.6302 Z0.1063
Y0.6452 Z0.1058
Y0.6602 Z0.1053
Y0.6751 Z0.1047
Y0.6901 Z0.1042
Y0.71 Z0.1035
Y0.7349 Z0.1027
Y0.7698 Z0.1014
Y0.8147 Z0.0999
Y0.8895 Z0.0973
Y0.9144 Z0.0964
Y0.9394 Z0.0955
Y0.9543 Z0.095
Y0.9693 Z0.0945
Y0.9842 Z0.0939
Y0.9992 Z0.0934
Y1.0141 Z0.0929
Y1.0291 Z0.0924
Y1.0341 Z0.0922
Y1.0391 Z0.092
Y1.0441 Z0.0919
Y1.049 Z0.0917
Y1.054 Z0.0915
Y1.0584 Z0.0914
Y1.0607 Z0.0913
Y1.0623 Z0.0912
Y1.0624
X1.4374 Y1.0625
X1.4371
X1.4367
X1.436
X1.431 Z0.091
X1.426 Z0.0909
X1.421 Z0.0907
X1.416 Z0.0905
X1.411 Z0.0903
X1.406 Z0.0902
X1.4011 Z0.09
X1.3961 Z0.0898
X1.3911 Z0.0896
X1.3861 Z0.0895
X1.3811 Z0.0893
X1.3761 Z0.0891
X1.3711 Z0.0889
X1.3662 Z0.0888
X1.3612 Z0.0886
X1.3562 Z0.0884
X1.3512 Z0.0883
X1.3462 Z0.0881
X1.3412 Z0.0879
X1.3263 Z0.0874
X1.3213 Z0.0872
X1.3163 Z0.087
X1.3113 Z0.0869
X1.3063 Z0.0867
X1.3013 Z0.0865
X1.2964 Z0.0864
X1.2914 Z0.0862
X1.2864 Z0.0861
X1.2814 Z0.0859
X1.2764 Z0.0857
X1.2714 Z0.0856
X1.2664 Z0.0854
X1.2615 Z0.0853
X1.2565 Z0.0851
X1.2515 Z0.085
X1.2465 Z0.0848
X1.2415 Z0.0847
X1.2365 Z0.0845
X1.2315 Z0.0844
X1.2266 Z0.0843
X1.2216 Z0.0841
X1.2166 Z0.084
X1.2116 Z0.0838
X1.2066 Z0.0837
X1.2016 Z0.0836
X1.1966 Z0.0835
X1.1917 Z0.0833
X1.1867 Z0.0832
X1.1817 Z0.0831
X1.1767 Z0.083
X1.1717 Z0.0828
X1.1667 Z0.0827
X1.1617 Z0.0826
X1.1568 Z0.0825
X1.1518 Z0.0824
X1.1468 Z0.0823
X1.1418 Z0.0822
X1.1368 Z0.0821
X1.1318 Z0.082
X1.1268 Z0.0819
X1.1169 Z0.0817
X1.1069 Z0.0815
X1.0969 Z0.0813
X1.087 Z0.0812
X1.077 Z0.081
X1.0647 Z0.0808
X1.0634
X1.0625
Y1.0624
Y1.0616
Y1.057 Z0.0807
Y1.047 Z0.0806
Y1.0371 Z0.0805
Y1.0271 Z0.0804
Y1.0171 Z0.0803
Y1.0071 Z0.0802
Y0.9972
Y0.9872 Z0.0801
Y0.9772
Y0.9673 Z0.08
Y0.9573
Y0.9473
Y0.9459
Y0.6832 F15.
Y0.5626
X1.0626 Y0.5625
X1.4374
X1.4375 Y0.5626
Y1.0624
X1.4374 Y1.0625
X1.0626
X1.0625 Y1.0624
Y0.9459
Y0.9359 F48.
Y0.926
Y0.916 Z0.0799
Y0.906
Y0.8961 Z0.0798
Y0.8861
Y0.8761 Z0.0797
Y0.8661 Z0.0796
Y0.8562 Z0.0795
Y0.8462 Z0.0794
Y0.8362 Z0.0793
Y0.8263 Z0.0792
Y0.8163 Z0.079
Y0.8063 Z0.0789
Y0.7964 Z0.0787
Y0.7864 Z0.0785
Y0.7764 Z0.0784
Y0.7664 Z0.0782
Y0.7565 Z0.078
Y0.7515 Z0.0779
Y0.7465 Z0.0778
Y0.7415 Z0.0776
Y0.7365 Z0.0775
Y0.7315 Z0.0774
Y0.7266 Z0.0773
Y0.7216 Z0.0772
Y0.7166 Z0.0771
Y0.7116 Z0.077
Y0.7066 Z0.0768
Y0.7016 Z0.0767
Y0.6966 Z0.0766
Y0.6917 Z0.0765
Y0.6867 Z0.0763
Y0.6817 Z0.0762
Y0.6767 Z0.0761
Y0.6717 Z0.0759
Y0.6667 Z0.0758
Y0.6617 Z0.0756
Y0.6568 Z0.0755
Y0.6518 Z0.0754
Y0.6468 Z0.0752
Y0.6418 Z0.0751
Y0.6368 Z0.0749
Y0.6318 Z0.0748
Y0.6268 Z0.0746
Y0.6219 Z0.0745
Y0.6169 Z0.0743
Y0.6119 Z0.0741
Y0.6069 Z0.074
Y0.6019 Z0.0738
Y0.5969 Z0.0737
Y0.5919 Z0.0735
Y0.587 Z0.0733
Y0.582 Z0.0732
Y0.577 Z0.073
Y0.572 Z0.0728
Y0.567 Z0.0727
Y0.5647 Z0.0726
Y0.5634
Y0.5626
Y0.5625
X1.0634 Z0.0725
X1.068 Z0.0724
X1.073 Z0.0722
X1.078 Z0.0721
X1.083 Z0.0719
X1.0879 Z0.0717
X1.0929 Z0.0715
X1.0979 Z0.0714
X1.1029 Z0.0712
X1.1079 Z0.071
X1.1129 Z0.0709
X1.1179 Z0.0707
X1.1228 Z0.0705
X1.1278 Z0.0703
X1.1328 Z0.0702
X1.1378 Z0.07
X1.1428 Z0.0698
X1.1478 Z0.0696
X1.1528 Z0.0695
X1.1577 Z0.0693
X1.1627 Z0.0691
X1.1677 Z0.0689
X1.1727 Z0.0688
X1.1777 Z0.0686
X1.1827 Z0.0684
X1.1877 Z0.0682
X1.1926 Z0.0681
X1.1976 Z0.0679
X1.2026 Z0.0677
X1.2076 Z0.0675
X1.2176 Z0.0672
X1.2325 Z0.0667
X1.2475 Z0.0662
X1.2624 Z0.0656
X1.2774 Z0.0651
X1.2924 Z0.0646
X1.3073 Z0.0641
X1.3322 Z0.0632
X1.3572 Z0.0623
X1.3921 Z0.0611
X1.4369 Z0.0595
X1.4374
X1.4375
Y0.5627
Y0.5629
Y0.5636
Y0.5648
Y0.5672 Z0.0594
Y0.5769 Z0.059
Y0.6318 Z0.0571
Y0.6567 Z0.0562
Y0.6816 Z0.0554
Y0.6966 Z0.0549
Y0.7116 Z0.0543
Y0.7265 Z0.0538
Y0.7415 Z0.0533
Y0.7564 Z0.0528
Y0.7714 Z0.0522
Y0.7764 Z0.0521
Y0.7814 Z0.0519
Y0.7863 Z0.0517
Y0.7913 Z0.0515
Y0.7963 Z0.0514
Y0.8013 Z0.0512
Y0.8063 Z0.051
Y0.8113 Z0.0508
Y0.8163 Z0.0507
Y0.8212 Z0.0505
Y0.8262 Z0.0503
Y0.8312 Z0.0502
Y0.8362 Z0.05
Y0.8412 Z0.0498
Y0.8462 Z0.0496
Y0.8512 Z0.0495
Y0.8561 Z0.0493
Y0.8611 Z0.0491
Y0.8661 Z0.0489
Y0.8711 Z0.0488
Y0.8761 Z0.0486
Y0.8811 Z0.0484
Y0.8861 Z0.0482
Y0.891 Z0.0481
Y0.896 Z0.0479
Y0.911 Z0.0474
Y0.916 Z0.0472
Y0.921 Z0.047
Y0.9259 Z0.0469
Y0.9309 Z0.0467
Y0.9359 Z0.0465
Y0.9409 Z0.0464
Y0.9459 Z0.0462
Y0.9509 Z0.046
Y0.9559 Z0.0459
Y0.9608 Z0.0457
Y0.9658 Z0.0456
Y0.9708 Z0.0454
Y0.9758 Z0.0453
Y0.9808 Z0.0451
Y0.9858 Z0.045
Y0.9908 Z0.0448
Y0.9957 Z0.0447
Y1.0007 Z0.0445
Y1.0057 Z0.0444
Y1.0107 Z0.0442
Y1.0157 Z0.0441
Y1.0207 Z0.044
Y1.0257 Z0.0438
Y1.0306 Z0.0437
Y1.0356 Z0.0436
Y1.0406 Z0.0434
Y1.0456 Z0.0433
Y1.0506 Z0.0432
Y1.0556 Z0.0431
Y1.0605 Z0.0429
Y1.062
Y1.0624
X1.4374 Y1.0625
X1.4369
X1.4361
X1.4337 Z0.0428
X1.4294 Z0.0427
X1.4244 Z0.0426
X1.4195 Z0.0425
X1.4145 Z0.0424
X1.4095 Z0.0423
X1.4045 Z0.0422
X1.3995 Z0.0421
X1.3945 Z0.042
X1.3895 Z0.0419
X1.3796 Z0.0417
X1.3696 Z0.0415
X1.3596 Z0.0413
X1.3497 Z0.0412
X1.3397 Z0.041
X1.3297 Z0.0409
X1.3197 Z0.0407
X1.3098 Z0.0406
X1.2998 Z0.0405
X1.2898 Z0.0404
X1.2799 Z0.0403
X1.2699 Z0.0402
X1.2599
X1.2499 Z0.0401
X1.24
X1.23 Z0.04
X1.22
X1.2101
X1.209
X1.0626 F15.
X1.0625 Y1.0624
Y0.5626
X1.0626 Y0.5625
X1.4374
X1.4375 Y0.5626
Y1.0624
X1.4374 Y1.0625
X1.209
X1.1991 F48.
X1.1891
X1.1791 Z0.0399
X1.1692
X1.1592 Z0.0398
X1.1492
X1.1392 Z0.0397
X1.1293 Z0.0396
X1.1193 Z0.0395
X1.1093 Z0.0394
X1.0994 Z0.0393
X1.0894 Z0.0392
X1.0794 Z0.039
X1.0694 Z0.0389
X1.0653 Z0.0388
X1.0628 Z0.0387
X1.0625
Y1.0624
Y1.0622
Y1.0594
Y1.0495 Z0.0385
Y1.0395 Z0.0384
Y1.0295 Z0.0382
Y1.0195 Z0.038
Y1.0146 Z0.0379
Y1.0096 Z0.0378
Y1.0046 Z0.0376
Y0.9996 Z0.0375
Y0.9946 Z0.0374
Y0.9896 Z0.0373
Y0.9846 Z0.0372
Y0.9797 Z0.0371
Y0.9747 Z0.037
Y0.9697 Z0.0368
Y0.9647 Z0.0367
Y0.9597 Z0.0366
Y0.9547 Z0.0365
Y0.9497 Z0.0363
Y0.9448 Z0.0362
Y0.9398 Z0.0361
Y0.9348 Z0.0359
Y0.9298 Z0.0358
Y0.9248 Z0.0356
Y0.9198 Z0.0355
Y0.9148 Z0.0354
Y0.9099 Z0.0352
Y0.9049 Z0.0351
Y0.8999 Z0.0349
Y0.8949 Z0.0348
Y0.8899 Z0.0346
Y0.8849 Z0.0345
Y0.8799 Z0.0343
Y0.875 Z0.0341
Y0.87 Z0.034
Y0.865 Z0.0338
Y0.86 Z0.0337
Y0.855 Z0.0335
Y0.85 Z0.0333
Y0.845 Z0.0332
Y0.8401 Z0.033
Y0.8351 Z0.0328
Y0.8301 Z0.0327
Y0.8251 Z0.0325
Y0.8151 Z0.0321
Y0.8101 Z0.032
Y0.8052 Z0.0318
Y0.8002 Z0.0316
Y0.7952 Z0.0315
Y0.7902 Z0.0313
Y0.7852 Z0.0311
Y0.7802 Z0.0309
Y0.7752 Z0.0308
Y0.7703 Z0.0306
Y0.7653 Z0.0304
Y0.7603 Z0.0302
Y0.7553 Z0.0301
Y0.7503 Z0.0299
Y0.7453 Z0.0297
Y0.7403 Z0.0295
Y0.7354 Z0.0294
Y0.7304 Z0.0292
Y0.7254 Z0.029
Y0.7204 Z0.0288
Y0.7154 Z0.0287
Y0.7104 Z0.0285
Y0.7055 Z0.0283
Y0.7005 Z0.0281
Y0.6955 Z0.028
Y0.6905 Z0.0278
Y0.6855 Z0.0276
Y0.6755 Z0.0273
Y0.6606 Z0.0267
Y0.6456 Z0.0262
Y0.6307 Z0.0257
Y0.6157 Z0.0252
Y0.6008 Z0.0247
Y0.5858 Z0.0241
Y0.5708 Z0.0236
Y0.5665 Z0.0235
Y0.5641 Z0.0234
Y0.5626
Y0.5625
X1.0642 Z0.0233
X1.0891 Z0.0224
X1.124 Z0.0212
X1.1789 Z0.0193
X1.2437 Z0.0171
X1.2686 Z0.0162
X1.2935 Z0.0153
X1.3085 Z0.0148
X1.3234 Z0.0143
X1.3384 Z0.0137
X1.3533 Z0.0132
X1.3683 Z0.0127
X1.3833 Z0.0122
X1.3882 Z0.012
X1.3932 Z0.0118
X1.3982 Z0.0117
X1.4032 Z0.0115
X1.4082 Z0.0113
X1.4132 Z0.0111
X1.4182 Z0.011
X1.4231 Z0.0108
X1.4281 Z0.0106
X1.4331 Z0.0104
X1.4354
X1.4368 Z0.0103
X1.4372
X1.4374
X1.4375
Y0.5628
Y0.5636
Y0.5681 Z0.0102
Y0.5731 Z0.01
Y0.5781 Z0.0098
Y0.5831 Z0.0097
Y0.5881 Z0.0095
Y0.5931 Z0.0093
Y0.598 Z0.0091
Y0.603 Z0.009
Y0.608 Z0.0088
Y0.613 Z0.0086
Y0.618 Z0.0084
Y0.623 Z0.0083
Y0.628 Z0.0081
Y0.6329 Z0.0079
Y0.6379 Z0.0078
Y0.6429 Z0.0076
Y0.6479 Z0.0074
Y0.6529 Z0.0072
Y0.6579 Z0.0071
Y0.6629 Z0.0069
Y0.6678 Z0.0067
Y0.6728 Z0.0066
Y0.6778 Z0.0064
Y0.6828 Z0.0062
Y0.6878 Z0.0061
Y0.6928 Z0.0059
Y0.6978 Z0.0058
Y0.7027 Z0.0056
Y0.7077 Z0.0054
Y0.7127 Z0.0053
Y0.7177 Z0.0051
Y0.7227 Z0.005
Y0.7277 Z0.0048
Y0.7327 Z0.0047
Y0.7376 Z0.0046
Y0.7426 Z0.0044
Y0.7476 Z0.0043
Y0.7526 Z0.0041
Y0.7576 Z0.004
Y0.7626 Z0.0039
Y0.7676 Z0.0037
Y0.7725 Z0.0036
Y0.7775 Z0.0035
Y0.7825 Z0.0033
Y0.7875 Z0.0032
Y0.7925 Z0.0031
Y0.7975 Z0.003
Y0.8025 Z0.0029
Y0.8074 Z0.0027
Y0.8124 Z0.0026
Y0.8174 Z0.0025
Y0.8224 Z0.0024
Y0.8274 Z0.0023
Y0.8324 Z0.0022
Y0.8374 Z0.0021
Y0.8423 Z0.002
Y0.8473 Z0.0019
Y0.8573 Z0.0017
Y0.8673 Z0.0015
Y0.8772 Z0.0013
Y0.8872 Z0.0012
Y0.8972 Z0.001
Y0.9072 Z0.0009
Y0.9171 Z0.0007
Y0.9271 Z0.0006
Y0.9371 Z0.0005
Y0.947 Z0.0004
Y0.957 Z0.0003
Y0.967 Z0.0002
Y0.977
Y0.9869 Z0.0001
Y0.9969
Y1.0069 Z0.
Y1.0168
Y1.0268
Y1.0288
Y1.0624 F15.
X1.4374 Y1.0625
X1.209
X1.0626
X1.0625 Y1.0624
Y0.5626
X1.0626 Y0.5625
X1.4374
X1.4375 Y0.5626
Y1.0288
G3 X1.425 Y1.0413 I-0.0125 J0.
G1 X1.4222 Z0.0003 F15.
X1.4196 Z0.0012
X1.4172 Z0.0027
X1.4152 Z0.0047
X1.4137 Z0.0071
X1.4128 Z0.0097
X1.4125 Z0.0125
Z1.12
X2.5001 Y1.8579
Z0.9313
Z0.8956 F10.
Z0.8525 F15.
Y1.8582 Z0.8497
Y1.8592 Z0.8471
Y1.8607 Z0.8447
Y1.8626 Z0.8427
Y1.865 Z0.8412
Y1.8677 Z0.8403
Y1.8704 Z0.84
Y1.925
G3 X2.4876 Y1.9375 I-0.0125 J0.
G1 X2.0626
X2.0625 Y1.9374
Y0.0123
G3 X2.075 Y-0.0002 I0.0125 J0.
G1 X2.0778 Z0.8403
X2.0804 Z0.8412
X2.0828 Z0.8427
X2.0848 Z0.8447
X2.0863 Z0.8471
X2.0872 Z0.8497
X2.0875 Z0.8525
Z1.12
X2.5001 Y1.8571
Z0.8125
Y1.8574 Z0.8097
Y1.8583 Z0.8071
Y1.8598 Z0.8047
Y1.8618 Z0.8027
Y1.8642 Z0.8012
Y1.8668 Z0.8003
Y1.8696 Z0.8
Y1.925
G3 X2.4876 Y1.9375 I-0.0125 J0.
G1 X2.0626
X2.0625 Y1.9374
Y0.0123
G3 X2.075 Y-0.0002 I0.0125 J0.
G1 X2.0778 Z0.8003
X2.0804 Z0.8012
X2.0828 Z0.8027
X2.0848 Z0.8047
X2.0863 Z0.8071
X2.0872 Z0.8097
X2.0875 Z0.8125
Z1.12
X2.5001 Y1.8571
Z0.7725
Y1.8574 Z0.7697
Y1.8583 Z0.7671
Y1.8598 Z0.7647
Y1.8618 Z0.7627
Y1.8642 Z0.7612
Y1.8668 Z0.7603
Y1.8696 Z0.76
Y1.925
G3 X2.4876 Y1.9375 I-0.0125 J0.
G1 X2.0626
X2.0625 Y1.9374
Y0.0123
G3 X2.075 Y-0.0002 I0.0125 J0.
G1 X2.0778 Z0.7603
X2.0804 Z0.7612
X2.0828 Z0.7627
X2.0848 Z0.7647
X2.0863 Z0.7671
X2.0872 Z0.7697
X2.0875 Z0.7725
Z1.12
X2.5001 Y1.8571
Z0.7325
Y1.8574 Z0.7297
Y1.8583 Z0.7271
Y1.8598 Z0.7247
Y1.8618 Z0.7227
Y1.8642 Z0.7212
Y1.8668 Z0.7203
Y1.8696 Z0.72
Y1.925
G3 X2.4876 Y1.9375 I-0.0125 J0.
G1 X2.0626
X2.0625 Y1.9374
Y0.0123
G3 X2.075 Y-0.0002 I0.0125 J0.
G1 X2.0778 Z0.7203
X2.0804 Z0.7212
X2.0828 Z0.7227
X2.0848 Z0.7247
X2.0863 Z0.7271
X2.0872 Z0.7297
X2.0875 Z0.7325
Z1.12
X2.5001 Y1.8571
Z0.6925
Y1.8574 Z0.6897
Y1.8583 Z0.6871
Y1.8598 Z0.6847
Y1.8618 Z0.6827
Y1.8642 Z0.6812
Y1.8668 Z0.6803
Y1.8696 Z0.68
Y1.925
G3 X2.4876 Y1.9375 I-0.0125 J0.
G1 X2.0626
X2.0625 Y1.9374
Y0.0123
G3 X2.075 Y-0.0002 I0.0125 J0.
G1 X2.0778 Z0.6803
X2.0804 Z0.6812
X2.0828 Z0.6827
X2.0848 Z0.6847
X2.0863 Z0.6871
X2.0872 Z0.6897
X2.0875 Z0.6925
Z1.12
X2.5001 Y1.8571
Z0.6525
Y1.8574 Z0.6497
Y1.8583 Z0.6471
Y1.8598 Z0.6447
Y1.8618 Z0.6427
Y1.8642 Z0.6412
Y1.8668 Z0.6403
Y1.8696 Z0.64
Y1.925
G3 X2.4876 Y1.9375 I-0.0125 J0.
G1 X2.0626
X2.0625 Y1.9374
Y0.0123
G3 X2.075 Y-0.0002 I0.0125 J0.
G1 X2.0778 Z0.6403
X2.0804 Z0.6412
X2.0828 Z0.6427
X2.0848 Z0.6447
X2.0863 Z0.6471
X2.0872 Z0.6497
X2.0875 Z0.6525
Z1.12
X2.5001 Y1.8571
Z0.6125
Y1.8574 Z0.6097
Y1.8583 Z0.6071
Y1.8598 Z0.6047
Y1.8618 Z0.6027
Y1.8642 Z0.6012
Y1.8668 Z0.6003
Y1.8696 Z0.6
Y1.925
G3 X2.4876 Y1.9375 I-0.0125 J0.
G1 X2.0626
X2.0625 Y1.9374
Y0.0123
G3 X2.075 Y-0.0002 I0.0125 J0.
G1 X2.0778 Z0.6003
X2.0804 Z0.6012
X2.0828 Z0.6027
X2.0848 Z0.6047
X2.0863 Z0.6071
X2.0872 Z0.6097
X2.0875 Z0.6125
Z1.12
X2.5001 Y1.8571
Z0.5725
Y1.8574 Z0.5697
Y1.8583 Z0.5671
Y1.8598 Z0.5647
Y1.8618 Z0.5627
Y1.8642 Z0.5612
Y1.8668 Z0.5603
Y1.8696 Z0.56
Y1.925
G3 X2.4876 Y1.9375 I-0.0125 J0.
G1 X2.0626
X2.0625 Y1.9374
Y0.0123
G3 X2.075 Y-0.0002 I0.0125 J0.
G1 X2.0778 Z0.5603
X2.0804 Z0.5612
X2.0828 Z0.5627
X2.0848 Z0.5647
X2.0863 Z0.5671
X2.0872 Z0.5697
X2.0875 Z0.5725
Z1.12
X2.5001 Y1.8571
Z0.5325
Y1.8574 Z0.5297
Y1.8583 Z0.5271
Y1.8598 Z0.5247
Y1.8618 Z0.5227
Y1.8642 Z0.5212
Y1.8668 Z0.5203
Y1.8696 Z0.52
Y1.925
G3 X2.4876 Y1.9375 I-0.0125 J0.
G1 X2.0626
X2.0625 Y1.9374
Y0.0123
G3 X2.075 Y-0.0002 I0.0125 J0.
G1 X2.0778 Z0.5203
X2.0804 Z0.5212
X2.0828 Z0.5227
X2.0848 Z0.5247
X2.0863 Z0.5271
X2.0872 Z0.5297
X2.0875 Z0.5325
Z1.12
X2.5001 Y1.8571
Z0.4925
Y1.8574 Z0.4897
Y1.8583 Z0.4871
Y1.8598 Z0.4847
Y1.8618 Z0.4827
Y1.8642 Z0.4812
Y1.8668 Z0.4803
Y1.8696 Z0.48
Y1.925
G3 X2.4876 Y1.9375 I-0.0125 J0.
G1 X2.0626
X2.0625 Y1.9374
Y0.0123
G3 X2.075 Y-0.0002 I0.0125 J0.
G1 X2.0778 Z0.4803
X2.0804 Z0.4812
X2.0828 Z0.4827
X2.0848 Z0.4847
X2.0863 Z0.4871
X2.0872 Z0.4897
X2.0875 Z0.4925
Z1.12
X2.5001 Y1.8571
Z0.4525
Y1.8574 Z0.4497
Y1.8583 Z0.4471
Y1.8598 Z0.4447
Y1.8618 Z0.4427
Y1.8642 Z0.4412
Y1.8668 Z0.4403
Y1.8696 Z0.44
Y1.925
G3 X2.4876 Y1.9375 I-0.0125 J0.
G1 X2.0626
X2.0625 Y1.9374
Y0.0123
G3 X2.075 Y-0.0002 I0.0125 J0.
G1 X2.0778 Z0.4403
X2.0804 Z0.4412
X2.0828 Z0.4427
X2.0848 Z0.4447
X2.0863 Z0.4471
X2.0872 Z0.4497
X2.0875 Z0.4525
Z1.12
X2.5001 Y1.8571
Z0.4125
Y1.8574 Z0.4097
Y1.8583 Z0.4071
Y1.8598 Z0.4047
Y1.8618 Z0.4027
Y1.8642 Z0.4012
Y1.8668 Z0.4003
Y1.8696 Z0.4
Y1.925
G3 X2.4876 Y1.9375 I-0.0125 J0.
G1 X2.0626
X2.0625 Y1.9374
Y0.0123
G3 X2.075 Y-0.0002 I0.0125 J0.
G1 X2.0778 Z0.4003
X2.0804 Z0.4012
X2.0828 Z0.4027
X2.0848 Z0.4047
X2.0863 Z0.4071
X2.0872 Z0.4097
X2.0875 Z0.4125
Z1.12
X2.5001 Y1.8571
Z0.3725
Y1.8574 Z0.3697
Y1.8583 Z0.3671
Y1.8598 Z0.3647
Y1.8618 Z0.3627
Y1.8642 Z0.3612
Y1.8668 Z0.3603
Y1.8696 Z0.36
Y1.925
G3 X2.4876 Y1.9375 I-0.0125 J0.
G1 X2.0626
X2.0625 Y1.9374
Y0.0123
G3 X2.075 Y-0.0002 I0.0125 J0.
G1 X2.0778 Z0.3603
X2.0804 Z0.3612
X2.0828 Z0.3627
X2.0848 Z0.3647
X2.0863 Z0.3671
X2.0872 Z0.3697
X2.0875 Z0.3725
Z1.12
X2.5001 Y1.8571
Z0.3325
Y1.8574 Z0.3297
Y1.8583 Z0.3271
Y1.8598 Z0.3247
Y1.8618 Z0.3227
Y1.8642 Z0.3212
Y1.8668 Z0.3203
Y1.8696 Z0.32
Y1.925
G3 X2.4876 Y1.9375 I-0.0125 J0.
G1 X2.0626
X2.0625 Y1.9374
Y0.0123
G3 X2.075 Y-0.0002 I0.0125 J0.
G1 X2.0778 Z0.3203
X2.0804 Z0.3212
X2.0828 Z0.3227
X2.0848 Z0.3247
X2.0863 Z0.3271
X2.0872 Z0.3297
X2.0875 Z0.3325
Z1.12
X2.5001 Y1.8571
Z0.2925
Y1.8574 Z0.2897
Y1.8583 Z0.2871
Y1.8598 Z0.2847
Y1.8618 Z0.2827
Y1.8642 Z0.2812
Y1.8668 Z0.2803
Y1.8696 Z0.28
Y1.925
G3 X2.4876 Y1.9375 I-0.0125 J0.
G1 X2.0626
X2.0625 Y1.9374
Y0.0123
G3 X2.075 Y-0.0002 I0.0125 J0.
G1 X2.0778 Z0.2803
X2.0804 Z0.2812
X2.0828 Z0.2827
X2.0848 Z0.2847
X2.0863 Z0.2871
X2.0872 Z0.2897
X2.0875 Z0.2925
Z1.12
X2.5001 Y1.8571
Z0.2525
Y1.8574 Z0.2497
Y1.8583 Z0.2471
Y1.8598 Z0.2447
Y1.8618 Z0.2427
Y1.8642 Z0.2412
Y1.8668 Z0.2403
Y1.8696 Z0.24
Y1.925
G3 X2.4876 Y1.9375 I-0.0125 J0.
G1 X2.0626
X2.0625 Y1.9374
Y0.0123
G3 X2.075 Y-0.0002 I0.0125 J0.
G1 X2.0778 Z0.2403
X2.0804 Z0.2412
X2.0828 Z0.2427
X2.0848 Z0.2447
X2.0863 Z0.2471
X2.0872 Z0.2497
X2.0875 Z0.2525
Z1.12
X2.5001 Y1.8571
Z0.2125
Y1.8574 Z0.2097
Y1.8583 Z0.2071
Y1.8598 Z0.2047
Y1.8618 Z0.2027
Y1.8642 Z0.2012
Y1.8668 Z0.2003
Y1.8696 Z0.2
Y1.925
G3 X2.4876 Y1.9375 I-0.0125 J0.
G1 X2.0626
X2.0625 Y1.9374
Y0.0123
G3 X2.075 Y-0.0002 I0.0125 J0.
G1 X2.0778 Z0.2003
X2.0804 Z0.2012
X2.0828 Z0.2027
X2.0848 Z0.2047
X2.0863 Z0.2071
X2.0872 Z0.2097
X2.0875 Z0.2125
Z1.12
X2.5001 Y1.8571
Z0.1725
Y1.8574 Z0.1697
Y1.8583 Z0.1671
Y1.8598 Z0.1647
Y1.8618 Z0.1627
Y1.8642 Z0.1612
Y1.8668 Z0.1603
Y1.8696 Z0.16
Y1.925
G3 X2.4876 Y1.9375 I-0.0125 J0.
G1 X2.0626
X2.0625 Y1.9374
Y0.0123
G3 X2.075 Y-0.0002 I0.0125 J0.
G1 X2.0778 Z0.1603
X2.0804 Z0.1612
X2.0828 Z0.1627
X2.0848 Z0.1647
X2.0863 Z0.1671
X2.0872 Z0.1697
X2.0875 Z0.1725
Z1.12
X2.5001 Y1.8571
Z0.1325
Y1.8574 Z0.1297
Y1.8583 Z0.1271
Y1.8598 Z0.1247
Y1.8618 Z0.1227
Y1.8642 Z0.1212
Y1.8668 Z0.1203
Y1.8696 Z0.12
Y1.925
G3 X2.4876 Y1.9375 I-0.0125 J0.
G1 X2.0626
X2.0625 Y1.9374
Y0.0123
G3 X2.075 Y-0.0002 I0.0125 J0.
G1 X2.0778 Z0.1203
X2.0804 Z0.1212
X2.0828 Z0.1227
X2.0848 Z0.1247
X2.0863 Z0.1271
X2.0872 Z0.1297
X2.0875 Z0.1325
Z1.12
X2.5001 Y1.8571
Z0.0925
Y1.8574 Z0.0897
Y1.8583 Z0.0871
Y1.8598 Z0.0847
Y1.8618 Z0.0827
Y1.8642 Z0.0812
Y1.8668 Z0.0803
Y1.8696 Z0.08
Y1.925
G3 X2.4876 Y1.9375 I-0.0125 J0.
G1 X2.0626
X2.0625 Y1.9374
Y0.0123
G3 X2.075 Y-0.0002 I0.0125 J0.
G1 X2.0778 Z0.0803
X2.0804 Z0.0812
X2.0828 Z0.0827
X2.0848 Z0.0847
X2.0863 Z0.0871
X2.0872 Z0.0897
X2.0875 Z0.0925
Z1.12
X2.5001 Y1.8571
Z0.0525
Y1.8574 Z0.0497
Y1.8583 Z0.0471
Y1.8598 Z0.0447
Y1.8618 Z0.0427
Y1.8642 Z0.0412
Y1.8668 Z0.0403
Y1.8696 Z0.04
Y1.925
G3 X2.4876 Y1.9375 I-0.0125 J0.
G1 X2.0626
X2.0625 Y1.9374
Y0.0123
G3 X2.075 Y-0.0002 I0.0125 J0.
G1 X2.0778 Z0.0403
X2.0804 Z0.0412
X2.0828 Z0.0427
X2.0848 Z0.0447
X2.0863 Z0.0471
X2.0872 Z0.0497
X2.0875 Z0.0525
Z1.12
X2.5001 Y1.8571
Z0.0125
Y1.8574 Z0.0097
Y1.8583 Z0.0071
Y1.8598 Z0.0047
Y1.8618 Z0.0027
Y1.8642 Z0.0012
Y1.8668 Z0.0003
Y1.8696 Z0.
Y1.925
G3 X2.4876 Y1.9375 I-0.0125 J0.
G1 X2.0626
X2.0625 Y1.9374
Y0.0123
G3 X2.075 Y-0.0002 I0.0125 J0.
G1 X2.0778 Z0.0003
X2.0804 Z0.0012
X2.0828 Z0.0027
X2.0848 Z0.0047
X2.0863 Z0.0071
X2.0872 Z0.0097
X2.0875 Z0.0125
Z1.52
G53 Z
M5
G53 P10
