[test_tenon_t4]
[Machine]
[  vendor: NL]
[  model: Generic WinCNC]
[T4 D=0.125 CR=0. - ZMIN=0. - flat end mill]
G90
G20
G94
G49
[When using Fusion for Personal Use, the feedrate of rapid]
[moves is reduced to match the feedrate of cutting moves,]
[which can increase machining time. Unrestricted rapid moves]
[are available with a Fusion Subscription.]
G53
[Adaptive4 (2)]
M0
[MANUAL TOOL CHANGE TO T4]
S10000 M3
G90
G94
G54
M37 H4
G0 X2.2663 Y1.9017
G43 Z1.52
G1 Z1.12 F12
Z0.6325
Z0.62
X2.2661 Y1.9019 Z0.6172 F12
X2.2653 Y1.9024 Z0.6146
X2.264 Y1.9031 Z0.6122
X2.2623 Y1.9041 Z0.6102
X2.2603 Y1.9054 Z0.6087
X2.258 Y1.9067 Z0.6078
X2.2556 Y1.9081 Z0.6075
G3 X2.1896 Y1.9275 I-0.0708 J-0.1191
G1 X2.1145
X2.1085 Y1.9272
X2.1025 Y1.9262
X2.0968 Y1.9245
X2.0913 Y1.9221
X2.0881 Y1.9205
X2.0817 Y1.9159
X2.0767 Y1.9097
X2.0736 Y1.9025
X2.0725 Y1.8946
G3 X2.0854 Y1.8826 Z0.6155 I0.0125 J0.0004
G1 X2.0878 Y1.8829
X2.09 Y1.8836
X2.0921 Y1.8848
X2.0942 Y1.8863
X2.1211 Y1.9047
G3 X2.1265 Y1.9146 I-0.0071 J0.0103
X2.1145 Y1.9275 Z0.6075 I-0.0125 J0.0004
G1 X2.0971
X2.0913 Y1.9269
X2.083 Y1.9255
X2.0817 Y1.9252
X2.0804 Y1.9248
X2.0798 Y1.9245
X2.0783 Y1.9237
X2.0769 Y1.9227
X2.0759 Y1.9218
X2.0752 Y1.9209
X2.074 Y1.919
X2.0733 Y1.9176
X2.0729 Y1.9161
X2.0726 Y1.9147
X2.0725 Y1.9132
Y1.8406
G3 X2.0951 Y1.8337 I0.0125 J0.0004
G1 X2.0967 Y1.8359 Z0.6078
X2.0983 Y1.838 Z0.6087
X2.0997 Y1.8399 Z0.6102
X2.1009 Y1.8415 Z0.6122
X2.1017 Y1.8427 Z0.6146
X2.1023 Y1.8435 Z0.6172
X2.1025 Y1.8437 Z0.62
Z1.12
X0.4017 Y1.7497
Z0.6325
Z0.62
X0.4019 Y1.75 Z0.6172
X0.4024 Y1.7508 Z0.6146
X0.4031 Y1.7521 Z0.6122
X0.4041 Y1.7538 Z0.6102
X0.4054 Y1.7558 Z0.6087
X0.4067 Y1.7581 Z0.6078
X0.4081 Y1.7605 Z0.6075
G3 X0.4275 Y1.8265 I-0.1191 J0.0708
G1 Y1.8843
X0.4272 Y1.8903
X0.4262 Y1.8962
X0.4244 Y1.9019
X0.422 Y1.9075
X0.4186 Y1.914
X0.4139 Y1.9196
X0.408 Y1.9239
X0.4012 Y1.9266
X0.3939 Y1.9275
G3 X0.3819 Y1.9146 Z0.6155 I0.0004 J-0.0125
G1 X0.3822 Y1.9123
X0.3829 Y1.91
X0.3841 Y1.908
X0.3856 Y1.9058
X0.4047 Y1.8777
G3 X0.4146 Y1.8722 I0.0103 J0.007
X0.4275 Y1.8843 Z0.6075 I0.0004 J0.0125
G1 Y1.9132
X0.4274 Y1.9147
X0.4271 Y1.9161
X0.4267 Y1.9176
X0.426 Y1.9191
X0.4248 Y1.9209
X0.4241 Y1.9218
X0.4231 Y1.9227
X0.4217 Y1.9237
X0.4202 Y1.9245
X0.4196 Y1.9248
X0.4183 Y1.9252
X0.417 Y1.9255
X0.4087 Y1.9269
X0.4029 Y1.9275
X0.3277
G3 X0.3157 Y1.9158 I0.0004 J-0.0125
G1 Y1.915
X0.3162 Y1.9129 Z0.6079
X0.3167 Y1.9109 Z0.6086
X0.3172 Y1.909 Z0.6096
X0.3184 Y1.9076 Z0.6112
X0.3194 Y1.9065 Z0.6131
X0.3201 Y1.9056 Z0.6152
X0.3206 Y1.9051 Z0.6176
X0.3208 Y1.9049 Z0.62
Z1.12
X1.0983 Y0.7705
Z0.6325
Z0.62
X1.0981 Y0.7702 Z0.6172
X1.0976 Y0.7694 Z0.6146
X1.0969 Y0.7681 Z0.6122
X1.0959 Y0.7664 Z0.6102
X1.0946 Y0.7644 Z0.6087
X1.0933 Y0.7621 Z0.6078
X1.0919 Y0.7597 Z0.6075
G3 X1.0725 Y0.6938 I0.1191 J-0.0708
G1 Y0.6174
X1.0728 Y0.6114
X1.0737 Y0.6055
X1.0753 Y0.5997
X1.0776 Y0.5941
X1.0808 Y0.5878
X1.0817 Y0.5864
X1.0864 Y0.5806
X1.0923 Y0.5762
X1.0992 Y0.5734
X1.1066 Y0.5725
G3 X1.1186 Y0.5854 Z0.6155 I-0.0004 J0.0125
G1 X1.1183 Y0.5877
X1.1176 Y0.5899
X1.1166 Y0.5919
X1.115 Y0.5943
X1.0954 Y0.6238
G3 X1.0854 Y0.6294 I-0.0104 J-0.0069
X1.0725 Y0.6174 Z0.6075 I-0.0004 J-0.0125
G1 Y0.6058
Y0.6
X1.0727 Y0.599
X1.0729 Y0.5979
X1.0732 Y0.5968
X1.0736 Y0.5957
X1.0744 Y0.5943
X1.0852 Y0.5789
X1.0867 Y0.5769
X1.0878 Y0.5758
X1.0888 Y0.5749
X1.0899 Y0.5742
X1.091 Y0.5736
X1.0924 Y0.5731
X1.0939 Y0.5727
X1.0953 Y0.5725
X1.0968
X1.1636
X1.1655 Y0.5727 Z0.6083
G2 X1.1829 Y0.5757 Z0.6155 I0.0774 J-0.3983
X1.2005 Y0.578 I0.06 J-0.4013
G1 X1.2018
X1.284
X1.2853
G2 X1.3029 Y0.5757 I-0.0424 J-0.4035
X1.3203 Y0.5727 Z0.6083 I-0.06 J-0.4013
G1 X1.3223 Y0.5725 Z0.6075
X1.3819
X1.3878 Y0.5728
X1.3937 Y0.5741
X1.3994 Y0.576
X1.4052 Y0.5787
X1.412 Y0.5825
X1.4183 Y0.5867
X1.4194 Y0.5875
X1.4215 Y0.5894
X1.4234 Y0.5914
X1.4252 Y0.5937
G3 X1.4215 Y0.611 Z0.6155 I-0.0105 J0.0068
X1.4093 Y0.6118 I-0.0068 J-0.0105
G1 X1.3769 Y0.5963
G3 X1.3698 Y0.5854 I0.0054 J-0.0113
X1.3819 Y0.5725 Z0.6075 I0.0125 J-0.0004
G1 X1.4032
X1.4047
X1.4061 Y0.5727
X1.4076 Y0.5731
X1.409 Y0.5736
X1.4101 Y0.5742
X1.4112 Y0.5749
X1.4122 Y0.5758
X1.4133 Y0.5769
X1.4148 Y0.5789
X1.4256 Y0.5943
X1.4264 Y0.5957
X1.4268 Y0.5968
X1.4271 Y0.5979
X1.4273 Y0.599
X1.4275 Y0.6
Y0.6116
Y0.6842
X1.4273 Y0.6862 Z0.6083
G2 X1.4241 Y0.7035 Z0.6155 I0.6708 J0.1304
X1.4185 Y0.7451 I0.6739 J0.113
G1 X1.4184 Y0.7464
Y0.8867
X1.4185 Y0.888
G2 X1.4241 Y0.9296 I0.6796 J-0.0714
X1.4273 Y0.9469 Z0.6083 I0.6739 J-0.113
G1 X1.4275 Y0.9489 Z0.6075
Y1.0108
X1.4272 Y1.0168
X1.4258 Y1.0226
X1.4237 Y1.0282
X1.4208 Y1.0343
X1.4188 Y1.0379
X1.4141 Y1.0439
X1.4081 Y1.0486
X1.401 Y1.0515
X1.3935 Y1.0525
G3 X1.3814 Y1.0396 Z0.6155 I0.0004 J-0.0125
G1 X1.3817 Y1.0371
X1.3826 Y1.0348
X1.3838 Y1.0326
X1.3852 Y1.0308
X1.4049 Y1.0038
G3 X1.4146 Y0.9987 I0.0101 J0.0074
X1.4275 Y1.0108 Z0.6075 I0.0004 J0.0125
G1 Y1.0252
X1.4274 Y1.0267
X1.4272 Y1.0281
X1.4269 Y1.0294
X1.4264 Y1.0307
X1.4255 Y1.0323
X1.4243 Y1.0339
X1.4136 Y1.0478
X1.4128 Y1.0486
X1.412 Y1.0494
X1.4106 Y1.0505
X1.409 Y1.0514
X1.4076 Y1.0519
X1.4061 Y1.0523
X1.4047 Y1.0525
X1.4032
X1.3364
X1.3345 Y1.0523 Z0.6083
G2 X1.3171 Y1.0493 Z0.6155 I-0.0774 J0.3983
X1.2995 Y1.047 I-0.06 J0.4013
G1 X1.2982
X1.216
X1.2147
G2 X1.1971 Y1.0493 I0.0424 J0.4035
X1.1797 Y1.0523 Z0.6083 I0.06 J0.4013
G1 X1.1777 Y1.0525 Z0.6075
X1.1141
X1.1081 Y1.0522
X1.1022 Y1.0511
X1.0965 Y1.0492
X1.0908 Y1.0467
X1.0873 Y1.0448
X1.0838 Y1.0426
X1.0807 Y1.04
X1.078 Y1.0369
G3 X1.0809 Y1.0195 Z0.6155 I0.0102 J-0.0073
X1.0929 Y1.018 I0.0073 J0.0102
G1 X1.1184 Y1.0284
G3 X1.1262 Y1.0396 I-0.0047 J0.0116
X1.1141 Y1.0525 Z0.6075 I-0.0125 J0.0004
G1 X1.0968
X1.0953
X1.0939 Y1.0523
X1.0924 Y1.0519
X1.0908 Y1.0513
X1.0894 Y1.0505
X1.088 Y1.0494
X1.0872 Y1.0486
X1.0864 Y1.0478
X1.0757 Y1.0339
X1.0745 Y1.0323
X1.0736 Y1.0307
X1.0731 Y1.0294
X1.0728 Y1.0281
X1.0726 Y1.0267
X1.0725 Y1.0252
Y0.9645
G3 X1.0842 Y0.9524 I0.0125 J0.0004
G1 X1.085
X1.0871 Y0.953 Z0.6079
X1.0891 Y0.9535 Z0.6086
X1.091 Y0.9539 Z0.6096
X1.0924 Y0.9552 Z0.6112
X1.0935 Y0.9562 Z0.6131
X1.0944 Y0.9569 Z0.6152
X1.0949 Y0.9574 Z0.6176
X1.0951 Y0.9575 Z0.62
Z1.12
X2.2663 Y1.9017
Z0.32
Z0.3075
X2.2661 Y1.9019 Z0.3047
X2.2653 Y1.9024 Z0.3021
X2.264 Y1.9031 Z0.2997
X2.2623 Y1.9041 Z0.2977
X2.2603 Y1.9054 Z0.2962
X2.258 Y1.9067 Z0.2953
X2.2556 Y1.9081 Z0.295
G3 X2.1896 Y1.9275 I-0.0708 J-0.1191
G1 X2.1145
X2.1085 Y1.9272
X2.1025 Y1.9262
X2.0968 Y1.9245
X2.0913 Y1.9221
X2.0881 Y1.9205
X2.0817 Y1.9159
X2.0767 Y1.9097
X2.0736 Y1.9025
X2.0725 Y1.8946
G3 X2.0854 Y1.8826 Z0.303 I0.0125 J0.0004
G1 X2.0878 Y1.8829
X2.09 Y1.8836
X2.0921 Y1.8848
X2.0942 Y1.8863
X2.1211 Y1.9047
G3 X2.1265 Y1.9146 I-0.0071 J0.0103
X2.1145 Y1.9275 Z0.295 I-0.0125 J0.0004
G1 X2.0971
X2.0913 Y1.9269
X2.083 Y1.9255
X2.0817 Y1.9252
X2.0804 Y1.9248
X2.0798 Y1.9245
X2.0783 Y1.9237
X2.0769 Y1.9227
X2.0759 Y1.9218
X2.0752 Y1.9209
X2.074 Y1.919
X2.0733 Y1.9176
X2.0729 Y1.9161
X2.0726 Y1.9147
X2.0725 Y1.9132
Y1.8406
G3 X2.0951 Y1.8337 I0.0125 J0.0004
G1 X2.0967 Y1.8359 Z0.2953
X2.0983 Y1.838 Z0.2962
X2.0997 Y1.8399 Z0.2977
X2.1009 Y1.8415 Z0.2997
X2.1017 Y1.8427 Z0.3021
X2.1023 Y1.8435 Z0.3047
X2.1025 Y1.8437 Z0.3075
Z1.12
X0.4017 Y1.7497
Z0.32
Z0.3075
X0.4019 Y1.75 Z0.3047
X0.4024 Y1.7508 Z0.3021
X0.4031 Y1.7521 Z0.2997
X0.4041 Y1.7538 Z0.2977
X0.4054 Y1.7558 Z0.2962
X0.4067 Y1.7581 Z0.2953
X0.4081 Y1.7605 Z0.295
G3 X0.4275 Y1.8265 I-0.1191 J0.0708
G1 Y1.8843
X0.4272 Y1.8903
X0.4262 Y1.8962
X0.4244 Y1.9019
X0.422 Y1.9075
X0.4186 Y1.914
X0.4139 Y1.9196
X0.408 Y1.9239
X0.4012 Y1.9266
X0.3939 Y1.9275
G3 X0.3819 Y1.9146 Z0.303 I0.0004 J-0.0125
G1 X0.3822 Y1.9123
X0.3829 Y1.91
X0.3841 Y1.908
X0.3856 Y1.9058
X0.4047 Y1.8777
G3 X0.4146 Y1.8722 I0.0103 J0.007
X0.4275 Y1.8843 Z0.295 I0.0004 J0.0125
G1 Y1.9132
X0.4274 Y1.9147
X0.4271 Y1.9161
X0.4267 Y1.9176
X0.426 Y1.9191
X0.4248 Y1.9209
X0.4241 Y1.9218
X0.4231 Y1.9227
X0.4217 Y1.9237
X0.4202 Y1.9245
X0.4196 Y1.9248
X0.4183 Y1.9252
X0.417 Y1.9255
X0.4087 Y1.9269
X0.4029 Y1.9275
X0.3277
G3 X0.3157 Y1.9158 I0.0004 J-0.0125
G1 Y1.915
X0.3162 Y1.9129 Z0.2954
X0.3167 Y1.9109 Z0.2961
X0.3172 Y1.909 Z0.2971
X0.3184 Y1.9076 Z0.2987
X0.3194 Y1.9065 Z0.3006
X0.3201 Y1.9056 Z0.3027
X0.3206 Y1.9051 Z0.3051
X0.3208 Y1.9049 Z0.3075
Z1.12
X1.0983 Y0.7705
Z0.32
Z0.3075
X1.0981 Y0.7702 Z0.3047
X1.0976 Y0.7694 Z0.3021
X1.0969 Y0.7681 Z0.2997
X1.0959 Y0.7664 Z0.2977
X1.0946 Y0.7644 Z0.2962
X1.0933 Y0.7621 Z0.2953
X1.0919 Y0.7597 Z0.295
G3 X1.0725 Y0.6938 I0.1191 J-0.0708
G1 Y0.6174
X1.0728 Y0.6114
X1.0737 Y0.6055
X1.0753 Y0.5997
X1.0776 Y0.5941
X1.0808 Y0.5878
X1.0817 Y0.5864
X1.0864 Y0.5806
X1.0923 Y0.5762
X1.0992 Y0.5734
X1.1066 Y0.5725
G3 X1.1186 Y0.5854 Z0.303 I-0.0004 J0.0125
G1 X1.1183 Y0.5877
X1.1176 Y0.5899
X1.1166 Y0.5919
X1.115 Y0.5943
X1.0954 Y0.6238
G3 X1.0854 Y0.6294 I-0.0104 J-0.0069
X1.0725 Y0.6174 Z0.295 I-0.0004 J-0.0125
G1 Y0.6058
Y0.6
X1.0727 Y0.599
X1.0729 Y0.5979
X1.0732 Y0.5968
X1.0736 Y0.5957
X1.0744 Y0.5943
X1.0852 Y0.5789
X1.0867 Y0.5769
X1.0878 Y0.5758
X1.0888 Y0.5749
X1.0899 Y0.5742
X1.091 Y0.5736
X1.0924 Y0.5731
X1.0939 Y0.5727
X1.0953 Y0.5725
X1.0968
X1.1636
X1.1655 Y0.5727 Z0.2958
G2 X1.1829 Y0.5757 Z0.303 I0.0774 J-0.3983
X1.2005 Y0.578 I0.06 J-0.4013
G1 X1.2018
X1.284
X1.2853
G2 X1.3029 Y0.5757 I-0.0424 J-0.4035
X1.3203 Y0.5727 Z0.2958 I-0.06 J-0.4013
G1 X1.3223 Y0.5725 Z0.295
X1.3819
X1.3878 Y0.5728
X1.3937 Y0.5741
X1.3994 Y0.576
X1.4052 Y0.5787
X1.412 Y0.5825
X1.4183 Y0.5867
X1.4194 Y0.5875
X1.4215 Y0.5894
X1.4234 Y0.5914
X1.4252 Y0.5937
G3 X1.4215 Y0.611 Z0.303 I-0.0105 J0.0068
X1.4093 Y0.6118 I-0.0068 J-0.0105
G1 X1.3769 Y0.5963
G3 X1.3698 Y0.5854 I0.0054 J-0.0113
X1.3819 Y0.5725 Z0.295 I0.0125 J-0.0004
G1 X1.4032
X1.4047
X1.4061 Y0.5727
X1.4076 Y0.5731
X1.409 Y0.5736
X1.4101 Y0.5742
X1.4112 Y0.5749
X1.4122 Y0.5758
X1.4133 Y0.5769
X1.4148 Y0.5789
X1.4256 Y0.5943
X1.4264 Y0.5957
X1.4268 Y0.5968
X1.4271 Y0.5979
X1.4273 Y0.599
X1.4275 Y0.6
Y0.6116
Y0.6842
X1.4273 Y0.6862 Z0.2958
G2 X1.4241 Y0.7035 Z0.303 I0.6708 J0.1304
X1.4185 Y0.7451 I0.6739 J0.113
G1 X1.4184 Y0.7464
Y0.8867
X1.4185 Y0.888
G2 X1.4241 Y0.9296 I0.6796 J-0.0714
X1.4273 Y0.9469 Z0.2958 I0.6739 J-0.113
G1 X1.4275 Y0.9489 Z0.295
Y1.0108
X1.4272 Y1.0168
X1.4258 Y1.0226
X1.4237 Y1.0282
X1.4208 Y1.0343
X1.4188 Y1.0379
X1.4141 Y1.0439
X1.4081 Y1.0486
X1.401 Y1.0515
X1.3935 Y1.0525
G3 X1.3814 Y1.0396 Z0.303 I0.0004 J-0.0125
G1 X1.3817 Y1.0371
X1.3826 Y1.0348
X1.3838 Y1.0326
X1.3852 Y1.0308
X1.4049 Y1.0038
G3 X1.4146 Y0.9987 I0.0101 J0.0074
X1.4275 Y1.0108 Z0.295 I0.0004 J0.0125
G1 Y1.0252
X1.4274 Y1.0267
X1.4272 Y1.0281
X1.4269 Y1.0294
X1.4264 Y1.0307
X1.4255 Y1.0323
X1.4243 Y1.0339
X1.4136 Y1.0478
X1.4128 Y1.0486
X1.412 Y1.0494
X1.4106 Y1.0505
X1.409 Y1.0514
X1.4076 Y1.0519
X1.4061 Y1.0523
X1.4047 Y1.0525
X1.4032
X1.3364
X1.3345 Y1.0523 Z0.2958
G2 X1.3171 Y1.0493 Z0.303 I-0.0774 J0.3983
X1.2995 Y1.047 I-0.06 J0.4013
G1 X1.2982
X1.216
X1.2147
G2 X1.1971 Y1.0493 I0.0424 J0.4035
X1.1797 Y1.0523 Z0.2958 I0.06 J0.4013
G1 X1.1777 Y1.0525 Z0.295
X1.1141
X1.1081 Y1.0522
X1.1022 Y1.0511
X1.0965 Y1.0492
X1.0908 Y1.0467
X1.0873 Y1.0448
X1.0838 Y1.0426
X1.0807 Y1.04
X1.078 Y1.0369
G3 X1.0809 Y1.0195 Z0.303 I0.0102 J-0.0073
X1.0929 Y1.018 I0.0073 J0.0102
G1 X1.1184 Y1.0284
G3 X1.1262 Y1.0396 I-0.0047 J0.0116
X1.1141 Y1.0525 Z0.295 I-0.0125 J0.0004
G1 X1.0968
X1.0953
X1.0939 Y1.0523
X1.0924 Y1.0519
X1.0908 Y1.0513
X1.0894 Y1.0505
X1.088 Y1.0494
X1.0872 Y1.0486
X1.0864 Y1.0478
X1.0757 Y1.0339
X1.0745 Y1.0323
X1.0736 Y1.0307
X1.0731 Y1.0294
X1.0728 Y1.0281
X1.0726 Y1.0267
X1.0725 Y1.0252
Y0.9645
G3 X1.0842 Y0.9524 I0.0125 J0.0004
G1 X1.085
X1.0871 Y0.953 Z0.2954
X1.0891 Y0.9535 Z0.2961
X1.091 Y0.9539 Z0.2971
X1.0924 Y0.9552 Z0.2987
X1.0935 Y0.9562 Z0.3006
X1.0944 Y0.9569 Z0.3027
X1.0949 Y0.9574 Z0.3051
X1.0951 Y0.9575 Z0.3075
Z1.12
X2.2663 Y1.9017
Z0.025
Z0.0125
X2.2661 Y1.9019 Z0.0097
X2.2653 Y1.9024 Z0.0071
X2.264 Y1.9031 Z0.0047
X2.2623 Y1.9041 Z0.0027
X2.2603 Y1.9054 Z0.0012
X2.258 Y1.9067 Z0.0003
X2.2556 Y1.9081 Z0.
G3 X2.1896 Y1.9275 I-0.0708 J-0.1191
G1 X2.1145
X2.1085 Y1.9272
X2.1025 Y1.9262
X2.0968 Y1.9245
X2.0913 Y1.9221
X2.0881 Y1.9205
X2.0817 Y1.9159
X2.0767 Y1.9097
X2.0736 Y1.9025
X2.0725 Y1.8946
G3 X2.0854 Y1.8826 Z0.008 I0.0125 J0.0004
G1 X2.0878 Y1.8829
X2.09 Y1.8836
X2.0921 Y1.8848
X2.0942 Y1.8863
X2.1211 Y1.9047
G3 X2.1265 Y1.9146 I-0.0071 J0.0103
X2.1145 Y1.9275 Z0. I-0.0125 J0.0004
G1 X2.0971
X2.0913 Y1.9269
X2.083 Y1.9255
X2.0817 Y1.9252
X2.0804 Y1.9248
X2.0798 Y1.9245
X2.0783 Y1.9237
X2.0769 Y1.9227
X2.0759 Y1.9218
X2.0752 Y1.9209
X2.074 Y1.919
X2.0733 Y1.9176
X2.0729 Y1.9161
X2.0726 Y1.9147
X2.0725 Y1.9132
Y1.8406
G3 X2.0951 Y1.8337 I0.0125 J0.0004
G1 X2.0967 Y1.8359 Z0.0003
X2.0983 Y1.838 Z0.0012
X2.0997 Y1.8399 Z0.0027
X2.1009 Y1.8415 Z0.0047
X2.1017 Y1.8427 Z0.0071
X2.1023 Y1.8435 Z0.0097
X2.1025 Y1.8437 Z0.0125
Z1.12
X0.4017 Y1.7497
Z0.025
Z0.0125
X0.4019 Y1.75 Z0.0097
X0.4024 Y1.7508 Z0.0071
X0.4031 Y1.7521 Z0.0047
X0.4041 Y1.7538 Z0.0027
X0.4054 Y1.7558 Z0.0012
X0.4067 Y1.7581 Z0.0003
X0.4081 Y1.7605 Z0.
G3 X0.4275 Y1.8265 I-0.1191 J0.0708
G1 Y1.8843
X0.4272 Y1.8903
X0.4262 Y1.8962
X0.4244 Y1.9019
X0.422 Y1.9075
X0.4186 Y1.914
X0.4139 Y1.9196
X0.408 Y1.9239
X0.4012 Y1.9266
X0.3939 Y1.9275
G3 X0.3819 Y1.9146 Z0.008 I0.0004 J-0.0125
G1 X0.3822 Y1.9123
X0.3829 Y1.91
X0.3841 Y1.908
X0.3856 Y1.9058
X0.4047 Y1.8777
G3 X0.4146 Y1.8722 I0.0103 J0.007
X0.4275 Y1.8843 Z0. I0.0004 J0.0125
G1 Y1.9132
X0.4274 Y1.9147
X0.4271 Y1.9161
X0.4267 Y1.9176
X0.426 Y1.9191
X0.4248 Y1.9209
X0.4241 Y1.9218
X0.4231 Y1.9227
X0.4217 Y1.9237
X0.4202 Y1.9245
X0.4196 Y1.9248
X0.4183 Y1.9252
X0.417 Y1.9255
X0.4087 Y1.9269
X0.4029 Y1.9275
X0.3277
G3 X0.3157 Y1.9158 I0.0004 J-0.0125
G1 Y1.915
X0.3162 Y1.9129 Z0.0004
X0.3167 Y1.9109 Z0.0011
X0.3172 Y1.909 Z0.0021
X0.3184 Y1.9076 Z0.0037
X0.3194 Y1.9065 Z0.0056
X0.3201 Y1.9056 Z0.0077
X0.3206 Y1.9051 Z0.0101
X0.3208 Y1.9049 Z0.0125
Z1.12
X1.0983 Y0.7705
Z0.025
Z0.0125
X1.0981 Y0.7702 Z0.0097
X1.0976 Y0.7694 Z0.0071
X1.0969 Y0.7681 Z0.0047
X1.0959 Y0.7664 Z0.0027
X1.0946 Y0.7644 Z0.0012
X1.0933 Y0.7621 Z0.0003
X1.0919 Y0.7597 Z0.
G3 X1.0725 Y0.6938 I0.1191 J-0.0708
G1 Y0.6174
X1.0728 Y0.6114
X1.0737 Y0.6055
X1.0753 Y0.5997
X1.0776 Y0.5941
X1.0808 Y0.5878
X1.0817 Y0.5864
X1.0864 Y0.5806
X1.0923 Y0.5762
X1.0992 Y0.5734
X1.1066 Y0.5725
G3 X1.1186 Y0.5854 Z0.008 I-0.0004 J0.0125
G1 X1.1183 Y0.5877
X1.1176 Y0.5899
X1.1166 Y0.5919
X1.115 Y0.5943
X1.0954 Y0.6238
G3 X1.0854 Y0.6294 I-0.0104 J-0.0069
X1.0725 Y0.6174 Z0. I-0.0004 J-0.0125
G1 Y0.6058
Y0.6
X1.0727 Y0.599
X1.0729 Y0.5979
X1.0732 Y0.5968
X1.0736 Y0.5957
X1.0744 Y0.5943
X1.0852 Y0.5789
X1.0867 Y0.5769
X1.0878 Y0.5758
X1.0888 Y0.5749
X1.0899 Y0.5742
X1.091 Y0.5736
X1.0924 Y0.5731
X1.0939 Y0.5727
X1.0953 Y0.5725
X1.0968
X1.1636
X1.1655 Y0.5727 Z0.0008
G2 X1.1829 Y0.5757 Z0.008 I0.0774 J-0.3983
X1.2005 Y0.578 I0.06 J-0.4013
G1 X1.2018
X1.284
X1.2853
G2 X1.3029 Y0.5757 I-0.0424 J-0.4035
X1.3203 Y0.5727 Z0.0008 I-0.06 J-0.4013
G1 X1.3223 Y0.5725 Z0.
X1.3819
X1.3878 Y0.5728
X1.3937 Y0.5741
X1.3994 Y0.576
X1.4052 Y0.5787
X1.412 Y0.5825
X1.4183 Y0.5867
X1.4194 Y0.5875
X1.4215 Y0.5894
X1.4234 Y0.5914
X1.4252 Y0.5937
G3 X1.4215 Y0.611 Z0.008 I-0.0105 J0.0068
X1.4093 Y0.6118 I-0.0068 J-0.0105
G1 X1.3769 Y0.5963
G3 X1.3698 Y0.5854 I0.0054 J-0.0113
X1.3819 Y0.5725 Z0. I0.0125 J-0.0004
G1 X1.4032
X1.4047
X1.4061 Y0.5727
X1.4076 Y0.5731
X1.409 Y0.5736
X1.4101 Y0.5742
X1.4112 Y0.5749
X1.4122 Y0.5758
X1.4133 Y0.5769
X1.4148 Y0.5789
X1.4256 Y0.5943
X1.4264 Y0.5957
X1.4268 Y0.5968
X1.4271 Y0.5979
X1.4273 Y0.599
X1.4275 Y0.6
Y0.6116
Y0.6842
X1.4273 Y0.6862 Z0.0008
G2 X1.4241 Y0.7035 Z0.008 I0.6708 J0.1304
X1.4185 Y0.7451 I0.6739 J0.113
G1 X1.4184 Y0.7464
Y0.8867
X1.4185 Y0.888
G2 X1.4241 Y0.9296 I0.6796 J-0.0714
X1.4273 Y0.9469 Z0.0008 I0.6739 J-0.113
G1 X1.4275 Y0.9489 Z0.
Y1.0108
X1.4272 Y1.0168
X1.4258 Y1.0226
X1.4237 Y1.0282
X1.4208 Y1.0343
X1.4188 Y1.0379
X1.4141 Y1.0439
X1.4081 Y1.0486
X1.401 Y1.0515
X1.3935 Y1.0525
G3 X1.3814 Y1.0396 Z0.008 I0.0004 J-0.0125
G1 X1.3817 Y1.0371
X1.3826 Y1.0348
X1.3838 Y1.0326
X1.3852 Y1.0308
X1.4049 Y1.0038
G3 X1.4146 Y0.9987 I0.0101 J0.0074
X1.4275 Y1.0108 Z0. I0.0004 J0.0125
G1 Y1.0252
X1.4274 Y1.0267
X1.4272 Y1.0281
X1.4269 Y1.0294
X1.4264 Y1.0307
X1.4255 Y1.0323
X1.4243 Y1.0339
X1.4136 Y1.0478
X1.4128 Y1.0486
X1.412 Y1.0494
X1.4106 Y1.0505
X1.409 Y1.0514
X1.4076 Y1.0519
X1.4061 Y1.0523
X1.4047 Y1.0525
X1.4032
X1.3364
X1.3345 Y1.0523 Z0.0008
G2 X1.3171 Y1.0493 Z0.008 I-0.0774 J0.3983
X1.2995 Y1.047 I-0.06 J0.4013
G1 X1.2982
X1.216
X1.2147
G2 X1.1971 Y1.0493 I0.0424 J0.4035
X1.1797 Y1.0523 Z0.0008 I0.06 J0.4013
G1 X1.1777 Y1.0525 Z0.
X1.1141
X1.1081 Y1.0522
X1.1022 Y1.0511
X1.0965 Y1.0492
X1.0908 Y1.0467
X1.0873 Y1.0448
X1.0838 Y1.0426
X1.0807 Y1.04
X1.078 Y1.0369
G3 X1.0809 Y1.0195 Z0.008 I0.0102 J-0.0073
X1.0929 Y1.018 I0.0073 J0.0102
G1 X1.1184 Y1.0284
G3 X1.1262 Y1.0396 I-0.0047 J0.0116
X1.1141 Y1.0525 Z0. I-0.0125 J0.0004
G1 X1.0968
X1.0953
X1.0939 Y1.0523
X1.0924 Y1.0519
X1.0908 Y1.0513
X1.0894 Y1.0505
X1.088 Y1.0494
X1.0872 Y1.0486
X1.0864 Y1.0478
X1.0757 Y1.0339
X1.0745 Y1.0323
X1.0736 Y1.0307
X1.0731 Y1.0294
X1.0728 Y1.0281
X1.0726 Y1.0267
X1.0725 Y1.0252
Y0.9645
G3 X1.0951 Y0.9575 I0.0125 J0.0004
G1 X1.0967 Y0.9598 Z0.0003
X1.0983 Y0.9619 Z0.0012
X1.0997 Y0.9638 Z0.0027
X1.1009 Y0.9654 Z0.0047
X1.1017 Y0.9666 Z0.0071
X1.1023 Y0.9674 Z0.0097
X1.1025 Y0.9676 Z0.0125
Z1.52
M5
G53
G49
G28
