[test_tenon_t2]
[Machine]
[  vendor: Nova Labs]
[  model: ShopSaber]
[  description: Generic 3-axis]
[T2 D=0.25 CR=0. - ZMIN=0. - flat end mill]
G90
G20
[When using Fusion for Personal Use, the feedrate of rapid]
[moves is reduced to match the feedrate of cutting moves,]
[which can increase machining time. Unrestricted rapid moves]
[are available with a Fusion Subscription.]
G53 Z
[Pocket1]
M0
[MANUAL TOOL CHANGE TO T2]
S10000
M3
G4 X4.
G90
G0 X0.3014 Y1.5535
Z1.52
G1 Z0.9125 F20.
X0.3015 Y1.5537 Z0.9095 F20.
X0.3018 Y1.5544 Z0.9065
X0.3024 Y1.5556 Z0.9037
X0.3032 Y1.5571 Z0.9013
X0.3042 Y1.559 Z0.8991
X0.3053 Y1.5613 Z0.8973
X0.3066 Y1.5637 Z0.8961
X0.3079 Y1.5663 Z0.8953
X0.3093 Y1.5691 Z0.895
X0.3723 Y1.6927
G3 X0.375 Y1.704 I-0.0223 J0.0113
G1 Y1.875
X0.2226 Y1.8751
G3 X0.2037 Y1.8336 I0. J-0.025 F13.3333
G1 X0.2056 Y1.8316 Z0.8947 F13.3333
X0.2073 Y1.8296 Z0.8938
X0.2089 Y1.8278 Z0.8923
X0.2102 Y1.8263 Z0.8903
X0.2111 Y1.8252 Z0.8879
X0.2117 Y1.8245 Z0.8853
X0.212 Y1.8242 Z0.8825
X0.2122 Y1.824 Z0.8797
X0.2128 Y1.8233 Z0.8771
X0.2137 Y1.8222 Z0.8747
X0.215 Y1.8207 Z0.8727
X0.2166 Y1.8189 Z0.8712
X0.2183 Y1.8169 Z0.8703
X0.2202 Y1.8148 Z0.87
X0.3312 Y1.6876
G3 X0.375 Y1.704 I0.0188 J0.0164
G1 Y1.875 F20.
X0.2226 Y1.8751
G3 X0.2037 Y1.8336 I0. J-0.025 F13.3333
G1 X0.2056 Y1.8316 Z0.8697
X0.2073 Y1.8296 Z0.8688
X0.2089 Y1.8278 Z0.8673
X0.2102 Y1.8263 Z0.8653
X0.2111 Y1.8252 Z0.8629
X0.2117 Y1.8245 Z0.8603
X0.212 Y1.8242 Z0.8575
X0.2122 Y1.824 Z0.8547
X0.2128 Y1.8233 Z0.8521
X0.2137 Y1.8222 Z0.8497
X0.215 Y1.8207 Z0.8477
X0.2166 Y1.8189 Z0.8462
X0.2183 Y1.8169 Z0.8453
X0.2202 Y1.8148 Z0.845
X0.3312 Y1.6876
G3 X0.375 Y1.704 I0.0188 J0.0164
G1 Y1.875 F20.
X0.2226 Y1.8751
G3 X0.2037 Y1.8336 I0. J-0.025 F13.3333
G1 X0.2056 Y1.8316 Z0.8447
X0.2073 Y1.8296 Z0.8438
X0.2089 Y1.8278 Z0.8423
X0.2102 Y1.8263 Z0.8403
X0.2111 Y1.8252 Z0.8379
X0.2117 Y1.8245 Z0.8353
X0.212 Y1.8242 Z0.8325
X0.2122 Y1.824 Z0.8297
X0.2128 Y1.8233 Z0.8271
X0.2137 Y1.8222 Z0.8247
X0.215 Y1.8207 Z0.8227
X0.2166 Y1.8189 Z0.8212
X0.2183 Y1.8169 Z0.8203
X0.2202 Y1.8148 Z0.82
X0.3312 Y1.6876
G3 X0.375 Y1.704 I0.0188 J0.0164
G1 Y1.875 F20.
X0.2226 Y1.8751
G3 X0.2037 Y1.8336 I0. J-0.025 F13.3333
G1 X0.2056 Y1.8316 Z0.8197
X0.2073 Y1.8296 Z0.8188
X0.2089 Y1.8278 Z0.8173
X0.2102 Y1.8263 Z0.8153
X0.2111 Y1.8252 Z0.8129
X0.2117 Y1.8245 Z0.8103
X0.212 Y1.8242 Z0.8075
X0.2122 Y1.824 Z0.8047
X0.2128 Y1.8233 Z0.8021
X0.2137 Y1.8222 Z0.7997
X0.215 Y1.8207 Z0.7977
X0.2166 Y1.8189 Z0.7962
X0.2183 Y1.8169 Z0.7953
X0.2202 Y1.8148 Z0.795
X0.3312 Y1.6876
G3 X0.375 Y1.704 I0.0188 J0.0164
G1 Y1.875 F20.
X0.2226 Y1.8751
G3 X0.2037 Y1.8336 I0. J-0.025 F13.3333
G1 X0.2056 Y1.8316 Z0.7947
X0.2073 Y1.8296 Z0.7938
X0.2089 Y1.8278 Z0.7923
X0.2102 Y1.8263 Z0.7903
X0.2111 Y1.8252 Z0.7879
X0.2117 Y1.8245 Z0.7853
X0.212 Y1.8242 Z0.7825
X0.2122 Y1.824 Z0.7797
X0.2128 Y1.8233 Z0.7771
X0.2137 Y1.8222 Z0.7747
X0.215 Y1.8207 Z0.7727
X0.2166 Y1.8189 Z0.7712
X0.2183 Y1.8169 Z0.7703
X0.2202 Y1.8148 Z0.77
X0.3312 Y1.6876
G3 X0.375 Y1.704 I0.0188 J0.0164
G1 Y1.875 F20.
X0.2226 Y1.8751
G3 X0.2037 Y1.8336 I0. J-0.025 F13.3333
G1 X0.2056 Y1.8316 Z0.7697
X0.2073 Y1.8296 Z0.7688
X0.2089 Y1.8278 Z0.7673
X0.2102 Y1.8263 Z0.7653
X0.2111 Y1.8252 Z0.7629
X0.2117 Y1.8245 Z0.7603
X0.212 Y1.8242 Z0.7575
X0.2122 Y1.824 Z0.7547
X0.2128 Y1.8233 Z0.7521
X0.2137 Y1.8222 Z0.7497
X0.215 Y1.8207 Z0.7477
X0.2166 Y1.8189 Z0.7462
X0.2183 Y1.8169 Z0.7453
X0.2202 Y1.8148 Z0.745
X0.3312 Y1.6876
G3 X0.375 Y1.704 I0.0188 J0.0164
G1 Y1.875 F20.
X0.2226 Y1.8751
G3 X0.2037 Y1.8336 I0. J-0.025 F13.3333
G1 X0.2056 Y1.8316 Z0.7447
X0.2073 Y1.8296 Z0.7438
X0.2089 Y1.8278 Z0.7423
X0.2102 Y1.8263 Z0.7403
X0.2111 Y1.8252 Z0.7379
X0.2117 Y1.8245 Z0.7353
X0.212 Y1.8242 Z0.7325
X0.2122 Y1.824 Z0.7297
X0.2128 Y1.8233 Z0.7271
X0.2137 Y1.8222 Z0.7247
X0.215 Y1.8207 Z0.7227
X0.2166 Y1.8189 Z0.7212
X0.2183 Y1.8169 Z0.7203
X0.2202 Y1.8148 Z0.72
X0.3312 Y1.6876
G3 X0.375 Y1.704 I0.0188 J0.0164
G1 Y1.875 F20.
X0.2226 Y1.8751
G3 X0.2037 Y1.8336 I0. J-0.025 F13.3333
G1 X0.2056 Y1.8316 Z0.7197
X0.2073 Y1.8296 Z0.7188
X0.2089 Y1.8278 Z0.7173
X0.2102 Y1.8263 Z0.7153
X0.2111 Y1.8252 Z0.7129
X0.2117 Y1.8245 Z0.7103
X0.212 Y1.8242 Z0.7075
X0.2122 Y1.824 Z0.7047
X0.2128 Y1.8233 Z0.7021
X0.2137 Y1.8222 Z0.6997
X0.215 Y1.8207 Z0.6977
X0.2166 Y1.8189 Z0.6962
X0.2183 Y1.8169 Z0.6953
X0.2202 Y1.8148 Z0.695
X0.3312 Y1.6876
G3 X0.375 Y1.704 I0.0188 J0.0164
G1 Y1.875 F20.
X0.2226 Y1.8751
G3 X0.2037 Y1.8336 I0. J-0.025 F13.3333
G1 X0.2056 Y1.8316 Z0.6947
X0.2073 Y1.8296 Z0.6938
X0.2089 Y1.8278 Z0.6923
X0.2102 Y1.8263 Z0.6903
X0.2111 Y1.8252 Z0.6879
X0.2117 Y1.8245 Z0.6853
X0.212 Y1.8242 Z0.6825
X0.2122 Y1.824 Z0.6797
X0.2128 Y1.8233 Z0.6771
X0.2137 Y1.8222 Z0.6747
X0.215 Y1.8207 Z0.6727
X0.2166 Y1.8189 Z0.6712
X0.2183 Y1.8169 Z0.6703
X0.2202 Y1.8148 Z0.67
X0.3312 Y1.6876
G3 X0.375 Y1.704 I0.0188 J0.0164
G1 Y1.875 F20.
X0.2226 Y1.8751
G3 X0.2037 Y1.8336 I0. J-0.025 F13.3333
G1 X0.2056 Y1.8316 Z0.6697
X0.2073 Y1.8296 Z0.6688
X0.2089 Y1.8278 Z0.6673
X0.2102 Y1.8263 Z0.6653
X0.2111 Y1.8252 Z0.6629
X0.2117 Y1.8245 Z0.6603
X0.212 Y1.8242 Z0.6575
X0.2122 Y1.824 Z0.6547
X0.2128 Y1.8233 Z0.6521
X0.2137 Y1.8222 Z0.6497
X0.215 Y1.8207 Z0.6477
X0.2166 Y1.8189 Z0.6462
X0.2183 Y1.8169 Z0.6453
X0.2202 Y1.8148 Z0.645
X0.3312 Y1.6876
G3 X0.375 Y1.704 I0.0188 J0.0164
G1 Y1.875 F20.
X0.2226 Y1.8751
G3 X0.2037 Y1.8336 I0. J-0.025 F13.3333
G1 X0.2056 Y1.8316 Z0.6447
X0.2073 Y1.8296 Z0.6438
X0.2089 Y1.8278 Z0.6423
X0.2102 Y1.8263 Z0.6403
X0.2111 Y1.8252 Z0.6379
X0.2117 Y1.8245 Z0.6353
X0.212 Y1.8242 Z0.6325
X0.2122 Y1.824 Z0.6297
X0.2128 Y1.8233 Z0.6271
X0.2137 Y1.8222 Z0.6247
X0.215 Y1.8207 Z0.6227
X0.2166 Y1.8189 Z0.6212
X0.2183 Y1.8169 Z0.6203
X0.2202 Y1.8148 Z0.62
X0.3312 Y1.6876
G3 X0.375 Y1.704 I0.0188 J0.0164
G1 Y1.875 F20.
X0.2226 Y1.8751
G3 X0.2037 Y1.8336 I0. J-0.025 F13.3333
G1 X0.2056 Y1.8316 Z0.6197
X0.2073 Y1.8296 Z0.6188
X0.2089 Y1.8278 Z0.6173
X0.2102 Y1.8263 Z0.6153
X0.2111 Y1.8252 Z0.6129
X0.2117 Y1.8245 Z0.6103
X0.212 Y1.8242 Z0.6075
X0.2122 Y1.824 Z0.6047
X0.2128 Y1.8233 Z0.6021
X0.2137 Y1.8222 Z0.5997
X0.215 Y1.8207 Z0.5977
X0.2166 Y1.8189 Z0.5962
X0.2183 Y1.8169 Z0.5953
X0.2202 Y1.8148 Z0.595
X0.3312 Y1.6876
G3 X0.375 Y1.704 I0.0188 J0.0164
G1 Y1.875 F20.
X0.2226 Y1.8751
G3 X0.2037 Y1.8336 I0. J-0.025 F13.3333
G1 X0.2056 Y1.8316 Z0.5947
X0.2073 Y1.8296 Z0.5938
X0.2089 Y1.8278 Z0.5923
X0.2102 Y1.8263 Z0.5903
X0.2111 Y1.8252 Z0.5879
X0.2117 Y1.8245 Z0.5853
X0.212 Y1.8242 Z0.5825
X0.2122 Y1.824 Z0.5797
X0.2128 Y1.8233 Z0.5771
X0.2137 Y1.8222 Z0.5747
X0.215 Y1.8207 Z0.5727
X0.2166 Y1.8189 Z0.5712
X0.2183 Y1.8169 Z0.5703
X0.2202 Y1.8148 Z0.57
X0.3312 Y1.6876
G3 X0.375 Y1.704 I0.0188 J0.0164
G1 Y1.875 F20.
X0.2226 Y1.8751
G3 X0.2037 Y1.8336 I0. J-0.025 F13.3333
G1 X0.2056 Y1.8316 Z0.5697
X0.2073 Y1.8296 Z0.5688
X0.2089 Y1.8278 Z0.5673
X0.2102 Y1.8263 Z0.5653
X0.2111 Y1.8252 Z0.5629
X0.2117 Y1.8245 Z0.5603
X0.212 Y1.8242 Z0.5575
X0.2122 Y1.824 Z0.5547
X0.2128 Y1.8233 Z0.5521
X0.2137 Y1.8222 Z0.5497
X0.215 Y1.8207 Z0.5477
X0.2166 Y1.8189 Z0.5462
X0.2183 Y1.8169 Z0.5453
X0.2202 Y1.8148 Z0.545
X0.3312 Y1.6876
G3 X0.375 Y1.704 I0.0188 J0.0164
G1 Y1.875 F20.
X0.2226 Y1.8751
G3 X0.2037 Y1.8336 I0. J-0.025 F13.3333
G1 X0.2056 Y1.8316 Z0.5447
X0.2073 Y1.8296 Z0.5438
X0.2089 Y1.8278 Z0.5423
X0.2102 Y1.8263 Z0.5403
X0.2111 Y1.8252 Z0.5379
X0.2117 Y1.8245 Z0.5353
X0.212 Y1.8242 Z0.5325
X0.2122 Y1.824 Z0.5297
X0.2128 Y1.8233 Z0.5271
X0.2137 Y1.8222 Z0.5247
X0.215 Y1.8207 Z0.5227
X0.2166 Y1.8189 Z0.5212
X0.2183 Y1.8169 Z0.5203
X0.2202 Y1.8148 Z0.52
X0.3312 Y1.6876
G3 X0.375 Y1.704 I0.0188 J0.0164
G1 Y1.875 F20.
X0.2226 Y1.8751
G3 X0.2037 Y1.8336 I0. J-0.025 F13.3333
G1 X0.2056 Y1.8316 Z0.5197
X0.2073 Y1.8296 Z0.5188
X0.2089 Y1.8278 Z0.5173
X0.2102 Y1.8263 Z0.5153
X0.2111 Y1.8252 Z0.5129
X0.2117 Y1.8245 Z0.5103
X0.212 Y1.8242 Z0.5075
X0.2122 Y1.824 Z0.5047
X0.2128 Y1.8233 Z0.5021
X0.2137 Y1.8222 Z0.4997
X0.215 Y1.8207 Z0.4977
X0.2166 Y1.8189 Z0.4962
X0.2183 Y1.8169 Z0.4953
X0.2202 Y1.8148 Z0.495
X0.3312 Y1.6876
G3 X0.375 Y1.704 I0.0188 J0.0164
G1 Y1.875 F20.
X0.2226 Y1.8751
G3 X0.2037 Y1.8336 I0. J-0.025 F13.3333
G1 X0.2056 Y1.8316 Z0.4947
X0.2073 Y1.8296 Z0.4938
X0.2089 Y1.8278 Z0.4923
X0.2102 Y1.8263 Z0.4903
X0.2111 Y1.8252 Z0.4879
X0.2117 Y1.8245 Z0.4853
X0.212 Y1.8242 Z0.4825
X0.2122 Y1.824 Z0.4797
X0.2128 Y1.8233 Z0.4771
X0.2137 Y1.8222 Z0.4747
X0.215 Y1.8207 Z0.4727
X0.2166 Y1.8189 Z0.4712
X0.2183 Y1.8169 Z0.4703
X0.2202 Y1.8148 Z0.47
X0.3312 Y1.6876
G3 X0.375 Y1.704 I0.0188 J0.0164
G1 Y1.875 F20.
X0.2226 Y1.8751
G3 X0.2037 Y1.8336 I0. J-0.025 F13.3333
G1 X0.2056 Y1.8316 Z0.4697
X0.2073 Y1.8296 Z0.4688
X0.2089 Y1.8278 Z0.4673
X0.2102 Y1.8263 Z0.4653
X0.2111 Y1.8252 Z0.4629
X0.2117 Y1.8245 Z0.4603
X0.212 Y1.8242 Z0.4575
X0.2122 Y1.824 Z0.4547
X0.2128 Y1.8233 Z0.4521
X0.2137 Y1.8222 Z0.4497
X0.215 Y1.8207 Z0.4477
X0.2166 Y1.8189 Z0.4462
X0.2183 Y1.8169 Z0.4453
X0.2202 Y1.8148 Z0.445
X0.3312 Y1.6876
G3 X0.375 Y1.704 I0.0188 J0.0164
G1 Y1.875 F20.
X0.2226 Y1.8751
G3 X0.2037 Y1.8336 I0. J-0.025 F13.3333
G1 X0.2056 Y1.8316 Z0.4447
X0.2073 Y1.8296 Z0.4438
X0.2089 Y1.8278 Z0.4423
X0.2102 Y1.8263 Z0.4403
X0.2111 Y1.8252 Z0.4379
X0.2117 Y1.8245 Z0.4353
X0.212 Y1.8242 Z0.4325
X0.2122 Y1.824 Z0.4297
X0.2128 Y1.8233 Z0.4271
X0.2137 Y1.8222 Z0.4247
X0.215 Y1.8207 Z0.4227
X0.2166 Y1.8189 Z0.4212
X0.2183 Y1.8169 Z0.4203
X0.2202 Y1.8148 Z0.42
X0.3312 Y1.6876
G3 X0.375 Y1.704 I0.0188 J0.0164
G1 Y1.875 F20.
X0.2226 Y1.8751
G3 X0.2037 Y1.8336 I0. J-0.025 F13.3333
G1 X0.2056 Y1.8316 Z0.4197
X0.2073 Y1.8296 Z0.4188
X0.2089 Y1.8278 Z0.4173
X0.2102 Y1.8263 Z0.4153
X0.2111 Y1.8252 Z0.4129
X0.2117 Y1.8245 Z0.4103
X0.212 Y1.8242 Z0.4075
X0.2122 Y1.824 Z0.4047
X0.2128 Y1.8233 Z0.4021
X0.2137 Y1.8222 Z0.3997
X0.215 Y1.8207 Z0.3977
X0.2166 Y1.8189 Z0.3962
X0.2183 Y1.8169 Z0.3953
X0.2202 Y1.8148 Z0.395
X0.3312 Y1.6876
G3 X0.375 Y1.704 I0.0188 J0.0164
G1 Y1.875 F20.
X0.2226 Y1.8751
G3 X0.2037 Y1.8336 I0. J-0.025 F13.3333
G1 X0.2056 Y1.8316 Z0.3947
X0.2073 Y1.8296 Z0.3938
X0.2089 Y1.8278 Z0.3923
X0.2102 Y1.8263 Z0.3903
X0.2111 Y1.8252 Z0.3879
X0.2117 Y1.8245 Z0.3853
X0.212 Y1.8242 Z0.3825
X0.2122 Y1.824 Z0.3797
X0.2128 Y1.8233 Z0.3771
X0.2137 Y1.8222 Z0.3747
X0.215 Y1.8207 Z0.3727
X0.2166 Y1.8189 Z0.3712
X0.2183 Y1.8169 Z0.3703
X0.2202 Y1.8148 Z0.37
X0.3312 Y1.6876
G3 X0.375 Y1.704 I0.0188 J0.0164
G1 Y1.875 F20.
X0.2226 Y1.8751
G3 X0.2037 Y1.8336 I0. J-0.025 F13.3333
G1 X0.2056 Y1.8316 Z0.3697
X0.2073 Y1.8296 Z0.3688
X0.2089 Y1.8278 Z0.3673
X0.2102 Y1.8263 Z0.3653
X0.2111 Y1.8252 Z0.3629
X0.2117 Y1.8245 Z0.3603
X0.212 Y1.8242 Z0.3575
X0.2122 Y1.824 Z0.3547
X0.2128 Y1.8233 Z0.3521
X0.2137 Y1.8222 Z0.3497
X0.215 Y1.8207 Z0.3477
X0.2166 Y1.8189 Z0.3462
X0.2183 Y1.8169 Z0.3453
X0.2202 Y1.8148 Z0.345
X0.3312 Y1.6876
G3 X0.375 Y1.704 I0.0188 J0.0164
G1 Y1.875 F20.
X0.2226 Y1.8751
G3 X0.2037 Y1.8336 I0. J-0.025 F13.3333
G1 X0.2056 Y1.8316 Z0.3447
X0.2073 Y1.8296 Z0.3438
X0.2089 Y1.8278 Z0.3423
X0.2102 Y1.8263 Z0.3403
X0.2111 Y1.8252 Z0.3379
X0.2117 Y1.8245 Z0.3353
X0.212 Y1.8242 Z0.3325
X0.2122 Y1.824 Z0.3297
X0.2128 Y1.8233 Z0.3271
X0.2137 Y1.8222 Z0.3247
X0.215 Y1.8207 Z0.3227
X0.2166 Y1.8189 Z0.3212
X0.2183 Y1.8169 Z0.3203
X0.2202 Y1.8148 Z0.32
X0.3312 Y1.6876
G3 X0.375 Y1.704 I0.0188 J0.0164
G1 Y1.875 F20.
X0.2226 Y1.8751
G3 X0.2037 Y1.8336 I0. J-0.025 F13.3333
G1 X0.2056 Y1.8316 Z0.3197
X0.2073 Y1.8296 Z0.3188
X0.2089 Y1.8278 Z0.3173
X0.2102 Y1.8263 Z0.3153
X0.2111 Y1.8252 Z0.3129
X0.2117 Y1.8245 Z0.3103
X0.212 Y1.8242 Z0.3075
X0.2122 Y1.824 Z0.3047
X0.2128 Y1.8233 Z0.3021
X0.2137 Y1.8222 Z0.2997
X0.215 Y1.8207 Z0.2977
X0.2166 Y1.8189 Z0.2962
X0.2183 Y1.8169 Z0.2953
X0.2202 Y1.8148 Z0.295
X0.3312 Y1.6876
G3 X0.375 Y1.704 I0.0188 J0.0164
G1 Y1.875 F20.
X0.2226 Y1.8751
G3 X0.2037 Y1.8336 I0. J-0.025 F13.3333
G1 X0.2056 Y1.8316 Z0.2947
X0.2073 Y1.8296 Z0.2938
X0.2089 Y1.8278 Z0.2923
X0.2102 Y1.8263 Z0.2903
X0.2111 Y1.8252 Z0.2879
X0.2117 Y1.8245 Z0.2853
X0.212 Y1.8242 Z0.2825
X0.2122 Y1.824 Z0.2797
X0.2128 Y1.8233 Z0.2771
X0.2137 Y1.8222 Z0.2747
X0.215 Y1.8207 Z0.2727
X0.2166 Y1.8189 Z0.2712
X0.2183 Y1.8169 Z0.2703
X0.2202 Y1.8148 Z0.27
X0.3312 Y1.6876
G3 X0.375 Y1.704 I0.0188 J0.0164
G1 Y1.875 F20.
X0.2226 Y1.8751
G3 X0.2037 Y1.8336 I0. J-0.025 F13.3333
G1 X0.2056 Y1.8316 Z0.2697
X0.2073 Y1.8296 Z0.2688
X0.2089 Y1.8278 Z0.2673
X0.2102 Y1.8263 Z0.2653
X0.2111 Y1.8252 Z0.2629
X0.2117 Y1.8245 Z0.2603
X0.212 Y1.8242 Z0.2575
X0.2122 Y1.824 Z0.2547
X0.2128 Y1.8233 Z0.2521
X0.2137 Y1.8222 Z0.2497
X0.215 Y1.8207 Z0.2477
X0.2166 Y1.8189 Z0.2462
X0.2183 Y1.8169 Z0.2453
X0.2202 Y1.8148 Z0.245
X0.3312 Y1.6876
G3 X0.375 Y1.704 I0.0188 J0.0164
G1 Y1.875 F20.
X0.2226 Y1.8751
G3 X0.2037 Y1.8336 I0. J-0.025 F13.3333
G1 X0.2056 Y1.8316 Z0.2447
X0.2073 Y1.8296 Z0.2438
X0.2089 Y1.8278 Z0.2423
X0.2102 Y1.8263 Z0.2403
X0.2111 Y1.8252 Z0.2379
X0.2117 Y1.8245 Z0.2353
X0.212 Y1.8242 Z0.2325
X0.2122 Y1.824 Z0.2297
X0.2128 Y1.8233 Z0.2271
X0.2137 Y1.8222 Z0.2247
X0.215 Y1.8207 Z0.2227
X0.2166 Y1.8189 Z0.2212
X0.2183 Y1.8169 Z0.2203
X0.2202 Y1.8148 Z0.22
X0.3312 Y1.6876
G3 X0.375 Y1.704 I0.0188 J0.0164
G1 Y1.875 F20.
X0.2226 Y1.8751
G3 X0.2037 Y1.8336 I0. J-0.025 F13.3333
G1 X0.2056 Y1.8316 Z0.2197
X0.2073 Y1.8296 Z0.2188
X0.2089 Y1.8278 Z0.2173
X0.2102 Y1.8263 Z0.2153
X0.2111 Y1.8252 Z0.2129
X0.2117 Y1.8245 Z0.2103
X0.212 Y1.8242 Z0.2075
X0.2122 Y1.824 Z0.2047
X0.2128 Y1.8233 Z0.2021
X0.2137 Y1.8222 Z0.1997
X0.215 Y1.8207 Z0.1977
X0.2166 Y1.8189 Z0.1962
X0.2183 Y1.8169 Z0.1953
X0.2202 Y1.8148 Z0.195
X0.3312 Y1.6876
G3 X0.375 Y1.704 I0.0188 J0.0164
G1 Y1.875 F20.
X0.2226 Y1.8751
G3 X0.2037 Y1.8336 I0. J-0.025 F13.3333
G1 X0.2056 Y1.8316 Z0.1947
X0.2073 Y1.8296 Z0.1938
X0.2089 Y1.8278 Z0.1923
X0.2102 Y1.8263 Z0.1903
X0.2111 Y1.8252 Z0.1879
X0.2117 Y1.8245 Z0.1853
X0.212 Y1.8242 Z0.1825
X0.2122 Y1.824 Z0.1797
X0.2128 Y1.8233 Z0.1771
X0.2137 Y1.8222 Z0.1747
X0.215 Y1.8207 Z0.1727
X0.2166 Y1.8189 Z0.1712
X0.2183 Y1.8169 Z0.1703
X0.2202 Y1.8148 Z0.17
X0.3312 Y1.6876
G3 X0.375 Y1.704 I0.0188 J0.0164
G1 Y1.875 F20.
X0.2226 Y1.8751
G3 X0.2037 Y1.8336 I0. J-0.025 F13.3333
G1 X0.2056 Y1.8316 Z0.1697
X0.2073 Y1.8296 Z0.1688
X0.2089 Y1.8278 Z0.1673
X0.2102 Y1.8263 Z0.1653
X0.2111 Y1.8252 Z0.1629
X0.2117 Y1.8245 Z0.1603
X0.212 Y1.8242 Z0.1575
X0.2122 Y1.824 Z0.1547
X0.2128 Y1.8233 Z0.1521
X0.2137 Y1.8222 Z0.1497
X0.215 Y1.8207 Z0.1477
X0.2166 Y1.8189 Z0.1462
X0.2183 Y1.8169 Z0.1453
X0.2202 Y1.8148 Z0.145
X0.3312 Y1.6876
G3 X0.375 Y1.704 I0.0188 J0.0164
G1 Y1.875 F20.
X0.2226 Y1.8751
G3 X0.2037 Y1.8336 I0. J-0.025 F13.3333
G1 X0.2056 Y1.8316 Z0.1447
X0.2073 Y1.8296 Z0.1438
X0.2089 Y1.8278 Z0.1423
X0.2102 Y1.8263 Z0.1403
X0.2111 Y1.8252 Z0.1379
X0.2117 Y1.8245 Z0.1353
X0.212 Y1.8242 Z0.1325
X0.2122 Y1.824 Z0.1297
X0.2128 Y1.8233 Z0.1271
X0.2137 Y1.8222 Z0.1247
X0.215 Y1.8207 Z0.1227
X0.2166 Y1.8189 Z0.1212
X0.2183 Y1.8169 Z0.1203
X0.2202 Y1.8148 Z0.12
X0.3312 Y1.6876
G3 X0.375 Y1.704 I0.0188 J0.0164
G1 Y1.875 F20.
X0.2226 Y1.8751
G3 X0.2037 Y1.8336 I0. J-0.025 F13.3333
G1 X0.2056 Y1.8316 Z0.1197
X0.2073 Y1.8296 Z0.1188
X0.2089 Y1.8278 Z0.1173
X0.2102 Y1.8263 Z0.1153
X0.2111 Y1.8252 Z0.1129
X0.2117 Y1.8245 Z0.1103
X0.212 Y1.8242 Z0.1075
X0.2122 Y1.824 Z0.1047
X0.2128 Y1.8233 Z0.1021
X0.2137 Y1.8222 Z0.0997
X0.215 Y1.8207 Z0.0977
X0.2166 Y1.8189 Z0.0962
X0.2183 Y1.8169 Z0.0953
X0.2202 Y1.8148 Z0.095
X0.3312 Y1.6876
G3 X0.375 Y1.704 I0.0188 J0.0164
G1 Y1.875 F20.
X0.2226 Y1.8751
G3 X0.2037 Y1.8336 I0. J-0.025 F13.3333
G1 X0.2056 Y1.8316 Z0.0947
X0.2073 Y1.8296 Z0.0938
X0.2089 Y1.8278 Z0.0923
X0.2102 Y1.8263 Z0.0903
X0.2111 Y1.8252 Z0.0879
X0.2117 Y1.8245 Z0.0853
X0.212 Y1.8242 Z0.0825
X0.2122 Y1.824 Z0.0797
X0.2128 Y1.8233 Z0.0771
X0.2137 Y1.8222 Z0.0747
X0.215 Y1.8207 Z0.0727
X0.2166 Y1.8189 Z0.0712
X0.2183 Y1.8169 Z0.0703
X0.2202 Y1.8148 Z0.07
X0.3312 Y1.6876
G3 X0.375 Y1.704 I0.0188 J0.0164
G1 Y1.875 F20.
X0.2226 Y1.8751
G3 X0.2037 Y1.8336 I0. J-0.025 F13.3333
G1 X0.2056 Y1.8316 Z0.0697
X0.2073 Y1.8296 Z0.0688
X0.2089 Y1.8278 Z0.0673
X0.2102 Y1.8263 Z0.0653
X0.2111 Y1.8252 Z0.0629
X0.2117 Y1.8245 Z0.0603
X0.212 Y1.8242 Z0.0575
X0.2122 Y1.824 Z0.0547
X0.2128 Y1.8233 Z0.0521
X0.2137 Y1.8222 Z0.0497
X0.215 Y1.8207 Z0.0477
X0.2166 Y1.8189 Z0.0462
X0.2183 Y1.8169 Z0.0453
X0.2202 Y1.8148 Z0.045
X0.3312 Y1.6876
G3 X0.375 Y1.704 I0.0188 J0.0164
G1 Y1.875 F20.
X0.2226 Y1.8751
G3 X0.2037 Y1.8336 I0. J-0.025 F13.3333
G1 X0.2056 Y1.8316 Z0.0447
X0.2073 Y1.8296 Z0.0438
X0.2089 Y1.8278 Z0.0423
X0.2102 Y1.8263 Z0.0403
X0.2111 Y1.8252 Z0.0379
X0.2117 Y1.8245 Z0.0353
X0.212 Y1.8242 Z0.0325
X0.2122 Y1.824 Z0.0297
X0.2128 Y1.8233 Z0.0271
X0.2137 Y1.8222 Z0.0247
X0.215 Y1.8207 Z0.0227
X0.2166 Y1.8189 Z0.0212
X0.2183 Y1.8169 Z0.0203
X0.2202 Y1.8148 Z0.02
X0.3312 Y1.6876
G3 X0.375 Y1.704 I0.0188 J0.0164
G1 Y1.875 F20.
X0.2226 Y1.8751
G3 X0.1227 Y1.692 Z0.0118 I0. J-0.1188 F13.3333
G1 X0.1564 Y1.6397 Z0.0098
G3 X0.375 Y1.704 Z0. I0.0998 J0.0643
G1 Y1.875 F20.
X0.2226 Y1.8751
G3 X0.2049 Y1.8678 I0. J-0.025
G1 X0.1523 Y1.8152
X0.1496 Y1.8125 Z0.0003 F20.
X0.1469 Y1.8098 Z0.0012
X0.1443 Y1.8072 Z0.0027
X0.1419 Y1.8048 Z0.0048
X0.1398 Y1.8027 Z0.0073
X0.138 Y1.8009 Z0.0103
X0.1366 Y1.7995 Z0.0137
X0.1355 Y1.7984 Z0.0173
X0.1349 Y1.7978 Z0.0211
X0.1346 Y1.7976 Z0.025
Z1.12
X1.1816 Y0.9642
Z0.9936
Z0.9792 F10.
X1.1812 Y0.9638 Z0.9738 F13.3333
X1.1797 Y0.9628 Z0.9686
X1.1774 Y0.9611 Z0.9639
X1.1745 Y0.9587 Z0.96
X1.171 Y0.9557 Z0.957
X1.1672 Y0.9522 Z0.955
X1.1634 Y0.9483 Z0.9542
G3 X1.3366 Y0.7858 Z0.9417 I0.0866 J-0.0813
G3 X1.1634 Y0.9483 Z0.9292 I-0.0866 J0.0813
G3 X1.3366 Y0.7858 Z0.9167 I0.0866 J-0.0813
G3 X1.1634 Y0.9483 Z0.9042 I-0.0866 J0.0813
G3 X1.25 Y0.7483 Z0.895 I0.0866 J-0.0813
G3 X1.2646 Y0.7629 I0. J0.0146 F20.
G1 Y0.8763
G3 X1.2513 Y0.8896 I-0.0133 J0.
G1 X1.2487
G3 X1.2354 Y0.8763 I0. J-0.0133
G1 Y0.7629
G3 X1.25 Y0.7483 I0.0146 J0.
G2 X1.3121 Y0.7216 I0. J-0.0856
G3 X1.375 Y0.7466 I0.0264 J0.025
G1 Y1.
X1.125
Y0.625
X1.375
Y0.7466
X1.3748 Y0.7476
X1.3742 Y0.7484
X1.3733 Y0.7488
X1.3723
X1.3615 Y0.7468
X1.2517 Y0.75
X1.2498 Y0.7494
X1.2495 Y0.7491
Y0.7485
X1.25 Y0.7483
G3 Y0.9858 Z0.8825 I0. J0.1188 F13.3333
G3 Y0.7483 Z0.87 I0. J-0.1188
G3 X1.2646 Y0.7629 I0. J0.0146 F20.
G1 Y0.8763
G3 X1.2513 Y0.8896 I-0.0133 J0.
G1 X1.2487
G3 X1.2354 Y0.8763 I0. J-0.0133
G1 Y0.7629
G3 X1.25 Y0.7483 I0.0146 J0.
G2 X1.3121 Y0.7216 I0. J-0.0856
G3 X1.375 Y0.7466 I0.0264 J0.025
G1 Y1.
X1.125
Y0.625
X1.375
Y0.7466
X1.3748 Y0.7476
X1.3742 Y0.7484
X1.3733 Y0.7488
X1.3723
X1.3615 Y0.7468
X1.2517 Y0.75
X1.2498 Y0.7494
X1.2495 Y0.7491
Y0.7485
X1.25 Y0.7483
G3 Y0.9858 Z0.8575 I0. J0.1188 F13.3333
G3 Y0.7483 Z0.845 I0. J-0.1188
G3 X1.2646 Y0.7629 I0. J0.0146 F20.
G1 Y0.8763
G3 X1.2513 Y0.8896 I-0.0133 J0.
G1 X1.2487
G3 X1.2354 Y0.8763 I0. J-0.0133
G1 Y0.7629
G3 X1.25 Y0.7483 I0.0146 J0.
G2 X1.3121 Y0.7216 I0. J-0.0856
G3 X1.375 Y0.7466 I0.0264 J0.025
G1 Y1.
X1.125
Y0.625
X1.375
Y0.7466
X1.3748 Y0.7476
X1.3742 Y0.7484
X1.3733 Y0.7488
X1.3723
X1.3615 Y0.7468
X1.2517 Y0.75
X1.2498 Y0.7494
X1.2495 Y0.7491
Y0.7485
X1.25 Y0.7483
G3 Y0.9858 Z0.8325 I0. J0.1188 F13.3333
G3 Y0.7483 Z0.82 I0. J-0.1188
G3 X1.2646 Y0.7629 I0. J0.0146 F20.
G1 Y0.8763
G3 X1.2513 Y0.8896 I-0.0133 J0.
G1 X1.2487
G3 X1.2354 Y0.8763 I0. J-0.0133
G1 Y0.7629
G3 X1.25 Y0.7483 I0.0146 J0.
G2 X1.3121 Y0.7216 I0. J-0.0856
G3 X1.375 Y0.7466 I0.0264 J0.025
G1 Y1.
X1.125
Y0.625
X1.375
Y0.7466
X1.3748 Y0.7476
X1.3742 Y0.7484
X1.3733 Y0.7488
X1.3723
X1.3615 Y0.7468
X1.2517 Y0.75
X1.2498 Y0.7494
X1.2495 Y0.7491
Y0.7485
X1.25 Y0.7483
G3 Y0.9858 Z0.8075 I0. J0.1188 F13.3333
G3 Y0.7483 Z0.795 I0. J-0.1188
G3 X1.2646 Y0.7629 I0. J0.0146 F20.
G1 Y0.8763
G3 X1.2513 Y0.8896 I-0.0133 J0.
G1 X1.2487
G3 X1.2354 Y0.8763 I0. J-0.0133
G1 Y0.7629
G3 X1.25 Y0.7483 I0.0146 J0.
G2 X1.3121 Y0.7216 I0. J-0.0856
G3 X1.375 Y0.7466 I0.0264 J0.025
G1 Y1.
X1.125
Y0.625
X1.375
Y0.7466
X1.3748 Y0.7476
X1.3742 Y0.7484
X1.3733 Y0.7488
X1.3723
X1.3615 Y0.7468
X1.2517 Y0.75
X1.2498 Y0.7494
X1.2495 Y0.7491
Y0.7485
X1.25 Y0.7483
G3 Y0.9858 Z0.7825 I0. J0.1188 F13.3333
G3 Y0.7483 Z0.77 I0. J-0.1188
G3 X1.2646 Y0.7629 I0. J0.0146 F20.
G1 Y0.8763
G3 X1.2513 Y0.8896 I-0.0133 J0.
G1 X1.2487
G3 X1.2354 Y0.8763 I0. J-0.0133
G1 Y0.7629
G3 X1.25 Y0.7483 I0.0146 J0.
G2 X1.3121 Y0.7216 I0. J-0.0856
G3 X1.375 Y0.7466 I0.0264 J0.025
G1 Y1.
X1.125
Y0.625
X1.375
Y0.7466
X1.3748 Y0.7476
X1.3742 Y0.7484
X1.3733 Y0.7488
X1.3723
X1.3615 Y0.7468
X1.2517 Y0.75
X1.2498 Y0.7494
X1.2495 Y0.7491
Y0.7485
X1.25 Y0.7483
G3 Y0.9858 Z0.7575 I0. J0.1188 F13.3333
G3 Y0.7483 Z0.745 I0. J-0.1188
G3 X1.2646 Y0.7629 I0. J0.0146 F20.
G1 Y0.8763
G3 X1.2513 Y0.8896 I-0.0133 J0.
G1 X1.2487
G3 X1.2354 Y0.8763 I0. J-0.0133
G1 Y0.7629
G3 X1.25 Y0.7483 I0.0146 J0.
G2 X1.3121 Y0.7216 I0. J-0.0856
G3 X1.375 Y0.7466 I0.0264 J0.025
G1 Y1.
X1.125
Y0.625
X1.375
Y0.7466
X1.3748 Y0.7476
X1.3742 Y0.7484
X1.3733 Y0.7488
X1.3723
X1.3615 Y0.7468
X1.2517 Y0.75
X1.2498 Y0.7494
X1.2495 Y0.7491
Y0.7485
X1.25 Y0.7483
G3 Y0.9858 Z0.7325 I0. J0.1188 F13.3333
G3 Y0.7483 Z0.72 I0. J-0.1188
G3 X1.2646 Y0.7629 I0. J0.0146 F20.
G1 Y0.8763
G3 X1.2513 Y0.8896 I-0.0133 J0.
G1 X1.2487
G3 X1.2354 Y0.8763 I0. J-0.0133
G1 Y0.7629
G3 X1.25 Y0.7483 I0.0146 J0.
G2 X1.3121 Y0.7216 I0. J-0.0856
G3 X1.375 Y0.7466 I0.0264 J0.025
G1 Y1.
X1.125
Y0.625
X1.375
Y0.7466
X1.3748 Y0.7476
X1.3742 Y0.7484
X1.3733 Y0.7488
X1.3723
X1.3615 Y0.7468
X1.2517 Y0.75
X1.2498 Y0.7494
X1.2495 Y0.7491
Y0.7485
X1.25 Y0.7483
G3 Y0.9858 Z0.7075 I0. J0.1188 F13.3333
G3 Y0.7483 Z0.695 I0. J-0.1188
G3 X1.2646 Y0.7629 I0. J0.0146 F20.
G1 Y0.8763
G3 X1.2513 Y0.8896 I-0.0133 J0.
G1 X1.2487
G3 X1.2354 Y0.8763 I0. J-0.0133
G1 Y0.7629
G3 X1.25 Y0.7483 I0.0146 J0.
G2 X1.3121 Y0.7216 I0. J-0.0856
G3 X1.375 Y0.7466 I0.0264 J0.025
G1 Y1.
X1.125
Y0.625
X1.375
Y0.7466
X1.3748 Y0.7476
X1.3742 Y0.7484
X1.3733 Y0.7488
X1.3723
X1.3615 Y0.7468
X1.2517 Y0.75
X1.2498 Y0.7494
X1.2495 Y0.7491
Y0.7485
X1.25 Y0.7483
G3 Y0.9858 Z0.6825 I0. J0.1188 F13.3333
G3 Y0.7483 Z0.67 I0. J-0.1188
G3 X1.2646 Y0.7629 I0. J0.0146 F20.
G1 Y0.8763
G3 X1.2513 Y0.8896 I-0.0133 J0.
G1 X1.2487
G3 X1.2354 Y0.8763 I0. J-0.0133
G1 Y0.7629
G3 X1.25 Y0.7483 I0.0146 J0.
G2 X1.3121 Y0.7216 I0. J-0.0856
G3 X1.375 Y0.7466 I0.0264 J0.025
G1 Y1.
X1.125
Y0.625
X1.375
Y0.7466
X1.3748 Y0.7476
X1.3742 Y0.7484
X1.3733 Y0.7488
X1.3723
X1.3615 Y0.7468
X1.2517 Y0.75
X1.2498 Y0.7494
X1.2495 Y0.7491
Y0.7485
X1.25 Y0.7483
G3 Y0.9858 Z0.6575 I0. J0.1188 F13.3333
G3 Y0.7483 Z0.645 I0. J-0.1188
G3 X1.2646 Y0.7629 I0. J0.0146 F20.
G1 Y0.8763
G3 X1.2513 Y0.8896 I-0.0133 J0.
G1 X1.2487
G3 X1.2354 Y0.8763 I0. J-0.0133
G1 Y0.7629
G3 X1.25 Y0.7483 I0.0146 J0.
G2 X1.3121 Y0.7216 I0. J-0.0856
G3 X1.375 Y0.7466 I0.0264 J0.025
G1 Y1.
X1.125
Y0.625
X1.375
Y0.7466
G3 X1.3576 Y0.7581 I-0.0125 J0.
G1 X1.2879 Y0.7285
G2 X1.2712 Y0.736 I-0.0049 J0.0115
G2 X1.2799 Y0.7521 I0.0118 J0.004
G3 X1.2201 Y0.982 Z0.632 I-0.0299 J0.1149 F13.3333
G3 X1.25 Y0.7483 Z0.62 I0.0299 J-0.1149
G3 X1.2646 Y0.7629 I0. J0.0146 F20.
G1 Y0.8763
G3 X1.2513 Y0.8896 I-0.0133 J0.
G1 X1.2487
G3 X1.2354 Y0.8763 I0. J-0.0133
G1 Y0.7629
G3 X1.25 Y0.7483 I0.0146 J0.
G2 X1.3121 Y0.7216 I0. J-0.0856
G3 X1.375 Y0.7466 I0.0264 J0.025
G1 Y1.
X1.125
Y0.625
X1.375
Y0.7466
G3 X1.3576 Y0.7581 I-0.0125 J0.
G1 X1.2879 Y0.7285
G2 X1.2712 Y0.736 I-0.0049 J0.0115
G2 X1.2799 Y0.7521 I0.0118 J0.004
G3 X1.2201 Y0.982 Z0.607 I-0.0299 J0.1149 F13.3333
G3 X1.25 Y0.7483 Z0.595 I0.0299 J-0.1149
G3 X1.2646 Y0.7629 I0. J0.0146 F20.
G1 Y0.8763
G3 X1.2513 Y0.8896 I-0.0133 J0.
G1 X1.2487
G3 X1.2354 Y0.8763 I0. J-0.0133
G1 Y0.7629
G3 X1.25 Y0.7483 I0.0146 J0.
G2 X1.3121 Y0.7216 I0. J-0.0856
G3 X1.375 Y0.7466 I0.0264 J0.025
G1 Y1.
X1.125
Y0.625
X1.375
Y0.7466
G3 X1.3576 Y0.7581 I-0.0125 J0.
G1 X1.2879 Y0.7285
G2 X1.2712 Y0.736 I-0.0049 J0.0115
G2 X1.2799 Y0.7521 I0.0118 J0.004
G3 X1.2201 Y0.982 Z0.582 I-0.0299 J0.1149 F13.3333
G3 X1.25 Y0.7483 Z0.57 I0.0299 J-0.1149
G3 X1.2646 Y0.7629 I0. J0.0146 F20.
G1 Y0.8763
G3 X1.2513 Y0.8896 I-0.0133 J0.
G1 X1.2487
G3 X1.2354 Y0.8763 I0. J-0.0133
G1 Y0.7629
G3 X1.25 Y0.7483 I0.0146 J0.
G2 X1.3121 Y0.7216 I0. J-0.0856
G3 X1.375 Y0.7466 I0.0264 J0.025
G1 Y1.
X1.125
Y0.625
X1.375
Y0.7466
G3 X1.3576 Y0.7581 I-0.0125 J0.
G1 X1.2879 Y0.7285
G2 X1.2712 Y0.736 I-0.0049 J0.0115
G2 X1.2799 Y0.7521 I0.0118 J0.004
G3 X1.2201 Y0.982 Z0.557 I-0.0299 J0.1149 F13.3333
G3 X1.25 Y0.7483 Z0.545 I0.0299 J-0.1149
G3 X1.2646 Y0.7629 I0. J0.0146 F20.
G1 Y0.8763
G3 X1.2513 Y0.8896 I-0.0133 J0.
G1 X1.2487
G3 X1.2354 Y0.8763 I0. J-0.0133
G1 Y0.7629
G3 X1.25 Y0.7483 I0.0146 J0.
G2 X1.3121 Y0.7216 I0. J-0.0856
G3 X1.375 Y0.7466 I0.0264 J0.025
G1 Y1.
X1.125
Y0.625
X1.375
Y0.7466
G3 X1.3576 Y0.7581 I-0.0125 J0.
G1 X1.2879 Y0.7285
G2 X1.2712 Y0.736 I-0.0049 J0.0115
G2 X1.2799 Y0.7521 I0.0118 J0.004
G3 X1.2201 Y0.982 Z0.532 I-0.0299 J0.1149 F13.3333
G3 X1.25 Y0.7483 Z0.52 I0.0299 J-0.1149
G3 X1.2646 Y0.7629 I0. J0.0146 F20.
G1 Y0.8763
G3 X1.2513 Y0.8896 I-0.0133 J0.
G1 X1.2487
G3 X1.2354 Y0.8763 I0. J-0.0133
G1 Y0.7629
G3 X1.25 Y0.7483 I0.0146 J0.
G2 X1.3121 Y0.7216 I0. J-0.0856
G3 X1.375 Y0.7466 I0.0264 J0.025
G1 Y1.
X1.125
Y0.625
X1.375
Y0.7466
G3 X1.3576 Y0.7581 I-0.0125 J0.
G1 X1.2879 Y0.7285
G2 X1.2712 Y0.736 I-0.0049 J0.0115
G2 X1.2799 Y0.7521 I0.0118 J0.004
G3 X1.2201 Y0.982 Z0.507 I-0.0299 J0.1149 F13.3333
G3 X1.25 Y0.7483 Z0.495 I0.0299 J-0.1149
G3 X1.2646 Y0.7629 I0. J0.0146 F20.
G1 Y0.8763
G3 X1.2513 Y0.8896 I-0.0133 J0.
G1 X1.2487
G3 X1.2354 Y0.8763 I0. J-0.0133
G1 Y0.7629
G3 X1.25 Y0.7483 I0.0146 J0.
G2 X1.3121 Y0.7216 I0. J-0.0856
G3 X1.375 Y0.7466 I0.0264 J0.025
G1 Y1.
X1.125
Y0.625
X1.375
Y0.7466
G3 X1.3576 Y0.7581 I-0.0125 J0.
G1 X1.2879 Y0.7285
G2 X1.2712 Y0.736 I-0.0049 J0.0115
G2 X1.2799 Y0.7521 I0.0118 J0.004
G3 X1.2201 Y0.982 Z0.482 I-0.0299 J0.1149 F13.3333
G3 X1.25 Y0.7483 Z0.47 I0.0299 J-0.1149
G3 X1.2646 Y0.7629 I0. J0.0146 F20.
G1 Y0.8763
G3 X1.2513 Y0.8896 I-0.0133 J0.
G1 X1.2487
G3 X1.2354 Y0.8763 I0. J-0.0133
G1 Y0.7629
G3 X1.25 Y0.7483 I0.0146 J0.
G2 X1.3121 Y0.7216 I0. J-0.0856
G3 X1.375 Y0.7466 I0.0264 J0.025
G1 Y1.
X1.125
Y0.625
X1.375
Y0.7466
G3 X1.3576 Y0.7581 I-0.0125 J0.
G1 X1.2879 Y0.7285
G2 X1.2712 Y0.736 I-0.0049 J0.0115
G2 X1.2799 Y0.7521 I0.0118 J0.004
G3 X1.2201 Y0.982 Z0.457 I-0.0299 J0.1149 F13.3333
G3 X1.25 Y0.7483 Z0.445 I0.0299 J-0.1149
G3 X1.2646 Y0.7629 I0. J0.0146 F20.
G1 Y0.8763
G3 X1.2513 Y0.8896 I-0.0133 J0.
G1 X1.2487
G3 X1.2354 Y0.8763 I0. J-0.0133
G1 Y0.7629
G3 X1.25 Y0.7483 I0.0146 J0.
G2 X1.3121 Y0.7216 I0. J-0.0856
G3 X1.375 Y0.7466 I0.0264 J0.025
G1 Y1.
X1.125
Y0.625
X1.375
Y0.7466
G3 X1.3576 Y0.7581 I-0.0125 J0.
G1 X1.2879 Y0.7285
G2 X1.2712 Y0.736 I-0.0049 J0.0115
G2 X1.2799 Y0.7521 I0.0118 J0.004
G3 X1.2201 Y0.982 Z0.432 I-0.0299 J0.1149 F13.3333
G3 X1.25 Y0.7483 Z0.42 I0.0299 J-0.1149
G3 X1.2646 Y0.7629 I0. J0.0146 F20.
G1 Y0.8763
G3 X1.2513 Y0.8896 I-0.0133 J0.
G1 X1.2487
G3 X1.2354 Y0.8763 I0. J-0.0133
G1 Y0.7629
G3 X1.25 Y0.7483 I0.0146 J0.
G2 X1.3121 Y0.7216 I0. J-0.0856
G3 X1.375 Y0.7466 I0.0264 J0.025
G1 Y1.
X1.125
Y0.625
X1.375
Y0.7466
G3 X1.3576 Y0.7581 I-0.0125 J0.
G1 X1.2879 Y0.7285
G2 X1.2712 Y0.736 I-0.0049 J0.0115
G2 X1.2799 Y0.7521 I0.0118 J0.004
G3 X1.2201 Y0.982 Z0.407 I-0.0299 J0.1149 F13.3333
G3 X1.25 Y0.7483 Z0.395 I0.0299 J-0.1149
G3 X1.2646 Y0.7629 I0. J0.0146 F20.
G1 Y0.8763
G3 X1.2513 Y0.8896 I-0.0133 J0.
G1 X1.2487
G3 X1.2354 Y0.8763 I0. J-0.0133
G1 Y0.7629
G3 X1.25 Y0.7483 I0.0146 J0.
G2 X1.3121 Y0.7216 I0. J-0.0856
G3 X1.375 Y0.7466 I0.0264 J0.025
G1 Y1.
X1.125
Y0.625
X1.375
Y0.7466
G3 X1.3576 Y0.7581 I-0.0125 J0.
G1 X1.2879 Y0.7285
G2 X1.2712 Y0.736 I-0.0049 J0.0115
G2 X1.2799 Y0.7521 I0.0118 J0.004
G3 X1.2201 Y0.982 Z0.382 I-0.0299 J0.1149 F13.3333
G3 X1.25 Y0.7483 Z0.37 I0.0299 J-0.1149
G3 X1.2646 Y0.7629 I0. J0.0146 F20.
G1 Y0.8763
G3 X1.2513 Y0.8896 I-0.0133 J0.
G1 X1.2487
G3 X1.2354 Y0.8763 I0. J-0.0133
G1 Y0.7629
G3 X1.25 Y0.7483 I0.0146 J0.
G2 X1.3121 Y0.7216 I0. J-0.0856
G3 X1.375 Y0.7466 I0.0264 J0.025
G1 Y1.
X1.125
Y0.625
X1.375
Y0.7466
G3 X1.3576 Y0.7581 I-0.0125 J0.
G1 X1.2879 Y0.7285
G2 X1.2712 Y0.736 I-0.0049 J0.0115
G2 X1.2799 Y0.7521 I0.0118 J0.004
G3 X1.2201 Y0.982 Z0.357 I-0.0299 J0.1149 F13.3333
G3 X1.25 Y0.7483 Z0.345 I0.0299 J-0.1149
G3 X1.2646 Y0.7629 I0. J0.0146 F20.
G1 Y0.8763
G3 X1.2513 Y0.8896 I-0.0133 J0.
G1 X1.2487
G3 X1.2354 Y0.8763 I0. J-0.0133
G1 Y0.7629
G3 X1.25 Y0.7483 I0.0146 J0.
G2 X1.3121 Y0.7216 I0. J-0.0856
G3 X1.375 Y0.7466 I0.0264 J0.025
G1 Y1.
X1.125
Y0.625
X1.375
Y0.7466
G3 X1.3576 Y0.7581 I-0.0125 J0.
G1 X1.2879 Y0.7285
G2 X1.2712 Y0.736 I-0.0049 J0.0115
G2 X1.2799 Y0.7521 I0.0118 J0.004
G3 X1.2201 Y0.982 Z0.332 I-0.0299 J0.1149 F13.3333
G3 X1.25 Y0.7483 Z0.32 I0.0299 J-0.1149
G3 X1.2646 Y0.7629 I0. J0.0146 F20.
G1 Y0.8763
G3 X1.2513 Y0.8896 I-0.0133 J0.
G1 X1.2487
G3 X1.2354 Y0.8763 I0. J-0.0133
G1 Y0.7629
G3 X1.25 Y0.7483 I0.0146 J0.
G2 X1.3121 Y0.7216 I0. J-0.0856
G3 X1.375 Y0.7466 I0.0264 J0.025
G1 Y1.
X1.125
Y0.625
X1.375
Y0.7466
G3 X1.3576 Y0.7581 I-0.0125 J0.
G1 X1.2879 Y0.7285
G2 X1.2712 Y0.736 I-0.0049 J0.0115
G2 X1.2799 Y0.7521 I0.0118 J0.004
G3 X1.2201 Y0.982 Z0.307 I-0.0299 J0.1149 F13.3333
G3 X1.25 Y0.7483 Z0.295 I0.0299 J-0.1149
G3 X1.2646 Y0.7629 I0. J0.0146 F20.
G1 Y0.8763
G3 X1.2513 Y0.8896 I-0.0133 J0.
G1 X1.2487
G3 X1.2354 Y0.8763 I0. J-0.0133
G1 Y0.7629
G3 X1.25 Y0.7483 I0.0146 J0.
G2 X1.3121 Y0.7216 I0. J-0.0856
G3 X1.375 Y0.7466 I0.0264 J0.025
G1 Y1.
X1.125
Y0.625
X1.375
Y0.7466
G3 X1.3576 Y0.7581 I-0.0125 J0.
G1 X1.2879 Y0.7285
G2 X1.2712 Y0.736 I-0.0049 J0.0115
G2 X1.2799 Y0.7521 I0.0118 J0.004
G3 X1.2201 Y0.982 Z0.282 I-0.0299 J0.1149 F13.3333
G3 X1.25 Y0.7483 Z0.27 I0.0299 J-0.1149
G3 X1.2646 Y0.7629 I0. J0.0146 F20.
G1 Y0.8763
G3 X1.2513 Y0.8896 I-0.0133 J0.
G1 X1.2487
G3 X1.2354 Y0.8763 I0. J-0.0133
G1 Y0.7629
G3 X1.25 Y0.7483 I0.0146 J0.
G2 X1.3121 Y0.7216 I0. J-0.0856
G3 X1.375 Y0.7466 I0.0264 J0.025
G1 Y1.
X1.125
Y0.625
X1.375
Y0.7466
G3 X1.3576 Y0.7581 I-0.0125 J0.
G1 X1.2879 Y0.7285
G2 X1.2712 Y0.736 I-0.0049 J0.0115
G2 X1.2799 Y0.7521 I0.0118 J0.004
G3 X1.2201 Y0.982 Z0.257 I-0.0299 J0.1149 F13.3333
G3 X1.25 Y0.7483 Z0.245 I0.0299 J-0.1149
G3 X1.2646 Y0.7629 I0. J0.0146 F20.
G1 Y0.8763
G3 X1.2513 Y0.8896 I-0.0133 J0.
G1 X1.2487
G3 X1.2354 Y0.8763 I0. J-0.0133
G1 Y0.7629
G3 X1.25 Y0.7483 I0.0146 J0.
G2 X1.3121 Y0.7216 I0. J-0.0856
G3 X1.375 Y0.7466 I0.0264 J0.025
G1 Y1.
X1.125
Y0.625
X1.375
Y0.7466
G3 X1.3576 Y0.7581 I-0.0125 J0.
G1 X1.2879 Y0.7285
G2 X1.2712 Y0.736 I-0.0049 J0.0115
G2 X1.2799 Y0.7521 I0.0118 J0.004
G3 X1.2201 Y0.982 Z0.232 I-0.0299 J0.1149 F13.3333
G3 X1.25 Y0.7483 Z0.22 I0.0299 J-0.1149
G3 X1.2646 Y0.7629 I0. J0.0146 F20.
G1 Y0.8763
G3 X1.2513 Y0.8896 I-0.0133 J0.
G1 X1.2487
G3 X1.2354 Y0.8763 I0. J-0.0133
G1 Y0.7629
G3 X1.25 Y0.7483 I0.0146 J0.
G2 X1.3121 Y0.7216 I0. J-0.0856
G3 X1.375 Y0.7466 I0.0264 J0.025
G1 Y1.
X1.125
Y0.625
X1.375
Y0.7466
G3 X1.3576 Y0.7581 I-0.0125 J0.
G1 X1.2879 Y0.7285
G2 X1.2712 Y0.736 I-0.0049 J0.0115
G2 X1.2799 Y0.7521 I0.0118 J0.004
G3 X1.2201 Y0.982 Z0.207 I-0.0299 J0.1149 F13.3333
G3 X1.25 Y0.7483 Z0.195 I0.0299 J-0.1149
G3 X1.2646 Y0.7629 I0. J0.0146 F20.
G1 Y0.8763
G3 X1.2513 Y0.8896 I-0.0133 J0.
G1 X1.2487
G3 X1.2354 Y0.8763 I0. J-0.0133
G1 Y0.7629
G3 X1.25 Y0.7483 I0.0146 J0.
G2 X1.3121 Y0.7216 I0. J-0.0856
G3 X1.375 Y0.7466 I0.0264 J0.025
G1 Y1.
X1.125
Y0.625
X1.375
Y0.7466
G3 X1.3576 Y0.7581 I-0.0125 J0.
G1 X1.2879 Y0.7285
G2 X1.2712 Y0.736 I-0.0049 J0.0115
G2 X1.2799 Y0.7521 I0.0118 J0.004
G3 X1.2201 Y0.982 Z0.182 I-0.0299 J0.1149 F13.3333
G3 X1.25 Y0.7483 Z0.17 I0.0299 J-0.1149
G3 X1.2646 Y0.7629 I0. J0.0146 F20.
G1 Y0.8763
G3 X1.2513 Y0.8896 I-0.0133 J0.
G1 X1.2487
G3 X1.2354 Y0.8763 I0. J-0.0133
G1 Y0.7629
G3 X1.25 Y0.7483 I0.0146 J0.
G2 X1.3121 Y0.7216 I0. J-0.0856
G3 X1.375 Y0.7466 I0.0264 J0.025
G1 Y1.
X1.125
Y0.625
X1.375
Y0.7466
G3 X1.3576 Y0.7581 I-0.0125 J0.
G1 X1.2879 Y0.7285
G2 X1.2712 Y0.736 I-0.0049 J0.0115
G2 X1.2799 Y0.7521 I0.0118 J0.004
G3 X1.2201 Y0.982 Z0.157 I-0.0299 J0.1149 F13.3333
G3 X1.25 Y0.7483 Z0.145 I0.0299 J-0.1149
G3 X1.2646 Y0.7629 I0. J0.0146 F20.
G1 Y0.8763
G3 X1.2513 Y0.8896 I-0.0133 J0.
G1 X1.2487
G3 X1.2354 Y0.8763 I0. J-0.0133
G1 Y0.7629
G3 X1.25 Y0.7483 I0.0146 J0.
G2 X1.3121 Y0.7216 I0. J-0.0856
G3 X1.375 Y0.7466 I0.0264 J0.025
G1 Y1.
X1.125
Y0.625
X1.375
Y0.7466
G3 X1.3576 Y0.7581 I-0.0125 J0.
G1 X1.2879 Y0.7285
G2 X1.2712 Y0.736 I-0.0049 J0.0115
G2 X1.2799 Y0.7521 I0.0118 J0.004
G3 X1.2201 Y0.982 Z0.132 I-0.0299 J0.1149 F13.3333
G3 X1.25 Y0.7483 Z0.12 I0.0299 J-0.1149
G3 X1.2646 Y0.7629 I0. J0.0146 F20.
G1 Y0.8763
G3 X1.2513 Y0.8896 I-0.0133 J0.
G1 X1.2487
G3 X1.2354 Y0.8763 I0. J-0.0133
G1 Y0.7629
G3 X1.25 Y0.7483 I0.0146 J0.
G2 X1.3121 Y0.7216 I0. J-0.0856
G3 X1.375 Y0.7466 I0.0264 J0.025
G1 Y1.
X1.125
Y0.625
X1.375
Y0.7466
G3 X1.3576 Y0.7581 I-0.0125 J0.
G1 X1.2879 Y0.7285
G2 X1.2712 Y0.736 I-0.0049 J0.0115
G2 X1.2799 Y0.7521 I0.0118 J0.004
G3 X1.2201 Y0.982 Z0.107 I-0.0299 J0.1149 F13.3333
G3 X1.25 Y0.7483 Z0.095 I0.0299 J-0.1149
G3 X1.2646 Y0.7629 I0. J0.0146 F20.
G1 Y0.8763
G3 X1.2513 Y0.8896 I-0.0133 J0.
G1 X1.2487
G3 X1.2354 Y0.8763 I0. J-0.0133
G1 Y0.7629
G3 X1.25 Y0.7483 I0.0146 J0.
G2 X1.3121 Y0.7216 I0. J-0.0856
G3 X1.375 Y0.7466 I0.0264 J0.025
G1 Y1.
X1.125
Y0.625
X1.375
Y0.7466
G3 X1.3576 Y0.7581 I-0.0125 J0.
G1 X1.2879 Y0.7285
G2 X1.2712 Y0.736 I-0.0049 J0.0115
G2 X1.2799 Y0.7521 I0.0118 J0.004
G3 X1.2201 Y0.982 Z0.082 I-0.0299 J0.1149 F13.3333
G3 X1.25 Y0.7483 Z0.07 I0.0299 J-0.1149
G3 X1.2646 Y0.7629 I0. J0.0146 F20.
G1 Y0.8763
G3 X1.2513 Y0.8896 I-0.0133 J0.
G1 X1.2487
G3 X1.2354 Y0.8763 I0. J-0.0133
G1 Y0.7629
G3 X1.25 Y0.7483 I0.0146 J0.
G2 X1.3121 Y0.7216 I0. J-0.0856
G3 X1.375 Y0.7466 I0.0264 J0.025
G1 Y1.
X1.125
Y0.625
X1.375
Y0.7466
G3 X1.3576 Y0.7581 I-0.0125 J0.
G1 X1.2879 Y0.7285
G2 X1.2712 Y0.736 I-0.0049 J0.0115
G2 X1.2799 Y0.7521 I0.0118 J0.004
G3 X1.2201 Y0.982 Z0.057 I-0.0299 J0.1149 F13.3333
G3 X1.25 Y0.7483 Z0.045 I0.0299 J-0.1149
G3 X1.2646 Y0.7629 I0. J0.0146 F20.
G1 Y0.8763
G3 X1.2513 Y0.8896 I-0.0133 J0.
G1 X1.2487
G3 X1.2354 Y0.8763 I0. J-0.0133
G1 Y0.7629
G3 X1.25 Y0.7483 I0.0146 J0.
G2 X1.3121 Y0.7216 I0. J-0.0856
G3 X1.375 Y0.7466 I0.0264 J0.025
G1 Y1.
X1.125
Y0.625
X1.375
Y0.7466
G3 X1.3576 Y0.7581 I-0.0125 J0.
G1 X1.2879 Y0.7285
G2 X1.2712 Y0.736 I-0.0049 J0.0115
G2 X1.2799 Y0.7521 I0.0118 J0.004
G3 X1.2201 Y0.982 Z0.032 I-0.0299 J0.1149 F13.3333
G3 X1.25 Y0.7483 Z0.02 I0.0299 J-0.1149
G3 X1.2646 Y0.7629 I0. J0.0146 F20.
G1 Y0.8763
G3 X1.2513 Y0.8896 I-0.0133 J0.
G1 X1.2487
G3 X1.2354 Y0.8763 I0. J-0.0133
G1 Y0.7629
G3 X1.25 Y0.7483 I0.0146 J0.
G2 X1.3121 Y0.7216 I0. J-0.0856
G3 X1.375 Y0.7466 I0.0264 J0.025
G1 Y1.
X1.125
Y0.625
X1.375
Y0.7466
X1.368 Y0.8517
Y0.854
G3 X1.132 Y0.8802 Z0.007 I-0.118 J0.0131 F13.3333
G3 X1.25 Y0.7483 Z0. I0.118 J-0.0131
G3 X1.2646 Y0.7629 I0. J0.0146 F20.
G1 Y0.8763
G3 X1.2513 Y0.8896 I-0.0133 J0.
G1 X1.2487
G3 X1.2354 Y0.8763 I0. J-0.0133
G1 Y0.7629
G3 X1.25 Y0.7483 I0.0146 J0.
G2 X1.3121 Y0.7216 I0. J-0.0856
G3 X1.375 Y0.7466 I0.0264 J0.025
G1 Y1.
X1.125
Y0.625
X1.375
Y0.7466
X1.3748 Y0.7494 Z0.0003 F20.
X1.3742 Y0.7521 Z0.0006
X1.3734 Y0.7546 Z0.0016
X1.3724 Y0.757 Z0.0025
X1.3712 Y0.7591 Z0.004
X1.3698 Y0.761 Z0.0055
X1.3685 Y0.7625 Z0.0074
X1.3671 Y0.7639 Z0.0094
X1.3648 Y0.7658 Z0.0142
X1.3633 Y0.7668 Z0.0194
X1.3627 Y0.7672 Z0.025
Z1.12
X2.4279 Y1.8014
Z0.9125
X2.4277 Y1.8015 Z0.9095
X2.427 Y1.8018 Z0.9065
X2.4258 Y1.8024 Z0.9037
X2.4243 Y1.8032 Z0.9013
X2.4223 Y1.8042 Z0.8991
X2.4201 Y1.8053 Z0.8973
X2.4176 Y1.8066 Z0.8961
X2.415 Y1.8079 Z0.8953
X2.4123 Y1.8093 Z0.895
X2.2887 Y1.8723
G3 X2.2773 Y1.875 I-0.0113 J-0.0223
G1 X2.125
Y1.7041
G3 X2.1688 Y1.6877 I0.025 J0. F13.3333
G1 X2.1707 Y1.6898 Z0.8947 F13.3333
X2.1724 Y1.6918 Z0.8938
X2.174 Y1.6936 Z0.8923
X2.1753 Y1.6951 Z0.8903
X2.1762 Y1.6962 Z0.8879
X2.1768 Y1.6969 Z0.8853
X2.177 Y1.6971 Z0.8825
X2.1773 Y1.6974 Z0.8797
X2.1779 Y1.698 Z0.8771
X2.1788 Y1.6992 Z0.8747
X2.1801 Y1.7007 Z0.8727
X2.1817 Y1.7024 Z0.8712
X2.1834 Y1.7044 Z0.8703
X2.1853 Y1.7065 Z0.87
X2.2962 Y1.8336
G3 X2.2773 Y1.875 I-0.0188 J0.0164
G1 X2.125 F20.
Y1.7041
G3 X2.1688 Y1.6877 I0.025 J0. F13.3333
G1 X2.1707 Y1.6898 Z0.8697
X2.1724 Y1.6918 Z0.8688
X2.174 Y1.6936 Z0.8673
X2.1753 Y1.6951 Z0.8653
X2.1762 Y1.6962 Z0.8629
X2.1768 Y1.6969 Z0.8603
X2.177 Y1.6971 Z0.8575
X2.1773 Y1.6974 Z0.8547
X2.1779 Y1.698 Z0.8521
X2.1788 Y1.6992 Z0.8497
X2.1801 Y1.7007 Z0.8477
X2.1817 Y1.7024 Z0.8462
X2.1834 Y1.7044 Z0.8453
X2.1853 Y1.7065 Z0.845
X2.2962 Y1.8336
G3 X2.2773 Y1.875 I-0.0188 J0.0164
G1 X2.125 F20.
Y1.7041
G3 X2.1688 Y1.6877 I0.025 J0. F13.3333
G1 X2.1707 Y1.6898 Z0.8447
X2.1724 Y1.6918 Z0.8438
X2.174 Y1.6936 Z0.8423
X2.1753 Y1.6951 Z0.8403
X2.1762 Y1.6962 Z0.8379
X2.1768 Y1.6969 Z0.8353
X2.177 Y1.6971 Z0.8325
X2.1773 Y1.6974 Z0.8297
X2.1779 Y1.698 Z0.8271
X2.1788 Y1.6992 Z0.8247
X2.1801 Y1.7007 Z0.8227
X2.1817 Y1.7024 Z0.8212
X2.1834 Y1.7044 Z0.8203
X2.1853 Y1.7065 Z0.82
X2.2962 Y1.8336
G3 X2.2773 Y1.875 I-0.0188 J0.0164
G1 X2.125 F20.
Y1.7041
G3 X2.1688 Y1.6877 I0.025 J0. F13.3333
G1 X2.1707 Y1.6898 Z0.8197
X2.1724 Y1.6918 Z0.8188
X2.174 Y1.6936 Z0.8173
X2.1753 Y1.6951 Z0.8153
X2.1762 Y1.6962 Z0.8129
X2.1768 Y1.6969 Z0.8103
X2.177 Y1.6971 Z0.8075
X2.1773 Y1.6974 Z0.8047
X2.1779 Y1.698 Z0.8021
X2.1788 Y1.6992 Z0.7997
X2.1801 Y1.7007 Z0.7977
X2.1817 Y1.7024 Z0.7962
X2.1834 Y1.7044 Z0.7953
X2.1853 Y1.7065 Z0.795
X2.2962 Y1.8336
G3 X2.2773 Y1.875 I-0.0188 J0.0164
G1 X2.125 F20.
Y1.7041
G3 X2.1688 Y1.6877 I0.025 J0. F13.3333
G1 X2.1707 Y1.6898 Z0.7947
X2.1724 Y1.6918 Z0.7938
X2.174 Y1.6936 Z0.7923
X2.1753 Y1.6951 Z0.7903
X2.1762 Y1.6962 Z0.7879
X2.1768 Y1.6969 Z0.7853
X2.177 Y1.6971 Z0.7825
X2.1773 Y1.6974 Z0.7797
X2.1779 Y1.698 Z0.7771
X2.1788 Y1.6992 Z0.7747
X2.1801 Y1.7007 Z0.7727
X2.1817 Y1.7024 Z0.7712
X2.1834 Y1.7044 Z0.7703
X2.1853 Y1.7065 Z0.77
X2.2962 Y1.8336
G3 X2.2773 Y1.875 I-0.0188 J0.0164
G1 X2.125 F20.
Y1.7041
G3 X2.1688 Y1.6877 I0.025 J0. F13.3333
G1 X2.1707 Y1.6898 Z0.7697
X2.1724 Y1.6918 Z0.7688
X2.174 Y1.6936 Z0.7673
X2.1753 Y1.6951 Z0.7653
X2.1762 Y1.6962 Z0.7629
X2.1768 Y1.6969 Z0.7603
X2.177 Y1.6971 Z0.7575
X2.1773 Y1.6974 Z0.7547
X2.1779 Y1.698 Z0.7521
X2.1788 Y1.6992 Z0.7497
X2.1801 Y1.7007 Z0.7477
X2.1817 Y1.7024 Z0.7462
X2.1834 Y1.7044 Z0.7453
X2.1853 Y1.7065 Z0.745
X2.2962 Y1.8336
G3 X2.2773 Y1.875 I-0.0188 J0.0164
G1 X2.125 F20.
Y1.7041
G3 X2.1688 Y1.6877 I0.025 J0. F13.3333
G1 X2.1707 Y1.6898 Z0.7447
X2.1724 Y1.6918 Z0.7438
X2.174 Y1.6936 Z0.7423
X2.1753 Y1.6951 Z0.7403
X2.1762 Y1.6962 Z0.7379
X2.1768 Y1.6969 Z0.7353
X2.177 Y1.6971 Z0.7325
X2.1773 Y1.6974 Z0.7297
X2.1779 Y1.698 Z0.7271
X2.1788 Y1.6992 Z0.7247
X2.1801 Y1.7007 Z0.7227
X2.1817 Y1.7024 Z0.7212
X2.1834 Y1.7044 Z0.7203
X2.1853 Y1.7065 Z0.72
X2.2962 Y1.8336
G3 X2.2773 Y1.875 I-0.0188 J0.0164
G1 X2.125 F20.
Y1.7041
G3 X2.1688 Y1.6877 I0.025 J0. F13.3333
G1 X2.1707 Y1.6898 Z0.7197
X2.1724 Y1.6918 Z0.7188
X2.174 Y1.6936 Z0.7173
X2.1753 Y1.6951 Z0.7153
X2.1762 Y1.6962 Z0.7129
X2.1768 Y1.6969 Z0.7103
X2.177 Y1.6971 Z0.7075
X2.1773 Y1.6974 Z0.7047
X2.1779 Y1.698 Z0.7021
X2.1788 Y1.6992 Z0.6997
X2.1801 Y1.7007 Z0.6977
X2.1817 Y1.7024 Z0.6962
X2.1834 Y1.7044 Z0.6953
X2.1853 Y1.7065 Z0.695
X2.2962 Y1.8336
G3 X2.2773 Y1.875 I-0.0188 J0.0164
G1 X2.125 F20.
Y1.7041
G3 X2.1688 Y1.6877 I0.025 J0. F13.3333
G1 X2.1707 Y1.6898 Z0.6947
X2.1724 Y1.6918 Z0.6938
X2.174 Y1.6936 Z0.6923
X2.1753 Y1.6951 Z0.6903
X2.1762 Y1.6962 Z0.6879
X2.1768 Y1.6969 Z0.6853
X2.177 Y1.6971 Z0.6825
X2.1773 Y1.6974 Z0.6797
X2.1779 Y1.698 Z0.6771
X2.1788 Y1.6992 Z0.6747
X2.1801 Y1.7007 Z0.6727
X2.1817 Y1.7024 Z0.6712
X2.1834 Y1.7044 Z0.6703
X2.1853 Y1.7065 Z0.67
X2.2962 Y1.8336
G3 X2.2773 Y1.875 I-0.0188 J0.0164
G1 X2.125 F20.
Y1.7041
G3 X2.1688 Y1.6877 I0.025 J0. F13.3333
G1 X2.1707 Y1.6898 Z0.6697
X2.1724 Y1.6918 Z0.6688
X2.174 Y1.6936 Z0.6673
X2.1753 Y1.6951 Z0.6653
X2.1762 Y1.6962 Z0.6629
X2.1768 Y1.6969 Z0.6603
X2.177 Y1.6971 Z0.6575
X2.1773 Y1.6974 Z0.6547
X2.1779 Y1.698 Z0.6521
X2.1788 Y1.6992 Z0.6497
X2.1801 Y1.7007 Z0.6477
X2.1817 Y1.7024 Z0.6462
X2.1834 Y1.7044 Z0.6453
X2.1853 Y1.7065 Z0.645
X2.2962 Y1.8336
G3 X2.2773 Y1.875 I-0.0188 J0.0164
G1 X2.125 F20.
Y1.7041
G3 X2.1688 Y1.6877 I0.025 J0. F13.3333
G1 X2.1707 Y1.6898 Z0.6447
X2.1724 Y1.6918 Z0.6438
X2.174 Y1.6936 Z0.6423
X2.1753 Y1.6951 Z0.6403
X2.1762 Y1.6962 Z0.6379
X2.1768 Y1.6969 Z0.6353
X2.177 Y1.6971 Z0.6325
X2.1773 Y1.6974 Z0.6297
X2.1779 Y1.698 Z0.6271
X2.1788 Y1.6992 Z0.6247
X2.1801 Y1.7007 Z0.6227
X2.1817 Y1.7024 Z0.6212
X2.1834 Y1.7044 Z0.6203
X2.1853 Y1.7065 Z0.62
X2.2962 Y1.8336
G3 X2.2773 Y1.875 I-0.0188 J0.0164
G1 X2.125 F20.
Y1.7041
G3 X2.1688 Y1.6877 I0.025 J0. F13.3333
G1 X2.1707 Y1.6898 Z0.6197
X2.1724 Y1.6918 Z0.6188
X2.174 Y1.6936 Z0.6173
X2.1753 Y1.6951 Z0.6153
X2.1762 Y1.6962 Z0.6129
X2.1768 Y1.6969 Z0.6103
X2.177 Y1.6971 Z0.6075
X2.1773 Y1.6974 Z0.6047
X2.1779 Y1.698 Z0.6021
X2.1788 Y1.6992 Z0.5997
X2.1801 Y1.7007 Z0.5977
X2.1817 Y1.7024 Z0.5962
X2.1834 Y1.7044 Z0.5953
X2.1853 Y1.7065 Z0.595
X2.2962 Y1.8336
G3 X2.2773 Y1.875 I-0.0188 J0.0164
G1 X2.125 F20.
Y1.7041
G3 X2.1688 Y1.6877 I0.025 J0. F13.3333
G1 X2.1707 Y1.6898 Z0.5947
X2.1724 Y1.6918 Z0.5938
X2.174 Y1.6936 Z0.5923
X2.1753 Y1.6951 Z0.5903
X2.1762 Y1.6962 Z0.5879
X2.1768 Y1.6969 Z0.5853
X2.177 Y1.6971 Z0.5825
X2.1773 Y1.6974 Z0.5797
X2.1779 Y1.698 Z0.5771
X2.1788 Y1.6992 Z0.5747
X2.1801 Y1.7007 Z0.5727
X2.1817 Y1.7024 Z0.5712
X2.1834 Y1.7044 Z0.5703
X2.1853 Y1.7065 Z0.57
X2.2962 Y1.8336
G3 X2.2773 Y1.875 I-0.0188 J0.0164
G1 X2.125 F20.
Y1.7041
G3 X2.1688 Y1.6877 I0.025 J0. F13.3333
G1 X2.1707 Y1.6898 Z0.5697
X2.1724 Y1.6918 Z0.5688
X2.174 Y1.6936 Z0.5673
X2.1753 Y1.6951 Z0.5653
X2.1762 Y1.6962 Z0.5629
X2.1768 Y1.6969 Z0.5603
X2.177 Y1.6971 Z0.5575
X2.1773 Y1.6974 Z0.5547
X2.1779 Y1.698 Z0.5521
X2.1788 Y1.6992 Z0.5497
X2.1801 Y1.7007 Z0.5477
X2.1817 Y1.7024 Z0.5462
X2.1834 Y1.7044 Z0.5453
X2.1853 Y1.7065 Z0.545
X2.2962 Y1.8336
G3 X2.2773 Y1.875 I-0.0188 J0.0164
G1 X2.125 F20.
Y1.7041
G3 X2.1688 Y1.6877 I0.025 J0. F13.3333
G1 X2.1707 Y1.6898 Z0.5447
X2.1724 Y1.6918 Z0.5438
X2.174 Y1.6936 Z0.5423
X2.1753 Y1.6951 Z0.5403
X2.1762 Y1.6962 Z0.5379
X2.1768 Y1.6969 Z0.5353
X2.177 Y1.6971 Z0.5325
X2.1773 Y1.6974 Z0.5297
X2.1779 Y1.698 Z0.5271
X2.1788 Y1.6992 Z0.5247
X2.1801 Y1.7007 Z0.5227
X2.1817 Y1.7024 Z0.5212
X2.1834 Y1.7044 Z0.5203
X2.1853 Y1.7065 Z0.52
X2.2962 Y1.8336
G3 X2.2773 Y1.875 I-0.0188 J0.0164
G1 X2.125 F20.
Y1.7041
G3 X2.1688 Y1.6877 I0.025 J0. F13.3333
G1 X2.1707 Y1.6898 Z0.5197
X2.1724 Y1.6918 Z0.5188
X2.174 Y1.6936 Z0.5173
X2.1753 Y1.6951 Z0.5153
X2.1762 Y1.6962 Z0.5129
X2.1768 Y1.6969 Z0.5103
X2.177 Y1.6971 Z0.5075
X2.1773 Y1.6974 Z0.5047
X2.1779 Y1.698 Z0.5021
X2.1788 Y1.6992 Z0.4997
X2.1801 Y1.7007 Z0.4977
X2.1817 Y1.7024 Z0.4962
X2.1834 Y1.7044 Z0.4953
X2.1853 Y1.7065 Z0.495
X2.2962 Y1.8336
G3 X2.2773 Y1.875 I-0.0188 J0.0164
G1 X2.125 F20.
Y1.7041
G3 X2.1688 Y1.6877 I0.025 J0. F13.3333
G1 X2.1707 Y1.6898 Z0.4947
X2.1724 Y1.6918 Z0.4938
X2.174 Y1.6936 Z0.4923
X2.1753 Y1.6951 Z0.4903
X2.1762 Y1.6962 Z0.4879
X2.1768 Y1.6969 Z0.4853
X2.177 Y1.6971 Z0.4825
X2.1773 Y1.6974 Z0.4797
X2.1779 Y1.698 Z0.4771
X2.1788 Y1.6992 Z0.4747
X2.1801 Y1.7007 Z0.4727
X2.1817 Y1.7024 Z0.4712
X2.1834 Y1.7044 Z0.4703
X2.1853 Y1.7065 Z0.47
X2.2962 Y1.8336
G3 X2.2773 Y1.875 I-0.0188 J0.0164
G1 X2.125 F20.
Y1.7041
G3 X2.1688 Y1.6877 I0.025 J0. F13.3333
G1 X2.1707 Y1.6898 Z0.4697
X2.1724 Y1.6918 Z0.4688
X2.174 Y1.6936 Z0.4673
X2.1753 Y1.6951 Z0.4653
X2.1762 Y1.6962 Z0.4629
X2.1768 Y1.6969 Z0.4603
X2.177 Y1.6971 Z0.4575
X2.1773 Y1.6974 Z0.4547
X2.1779 Y1.698 Z0.4521
X2.1788 Y1.6992 Z0.4497
X2.1801 Y1.7007 Z0.4477
X2.1817 Y1.7024 Z0.4462
X2.1834 Y1.7044 Z0.4453
X2.1853 Y1.7065 Z0.445
X2.2962 Y1.8336
G3 X2.2773 Y1.875 I-0.0188 J0.0164
G1 X2.125 F20.
Y1.7041
G3 X2.1688 Y1.6877 I0.025 J0. F13.3333
G1 X2.1707 Y1.6898 Z0.4447
X2.1724 Y1.6918 Z0.4438
X2.174 Y1.6936 Z0.4423
X2.1753 Y1.6951 Z0.4403
X2.1762 Y1.6962 Z0.4379
X2.1768 Y1.6969 Z0.4353
X2.177 Y1.6971 Z0.4325
X2.1773 Y1.6974 Z0.4297
X2.1779 Y1.698 Z0.4271
X2.1788 Y1.6992 Z0.4247
X2.1801 Y1.7007 Z0.4227
X2.1817 Y1.7024 Z0.4212
X2.1834 Y1.7044 Z0.4203
X2.1853 Y1.7065 Z0.42
X2.2962 Y1.8336
G3 X2.2773 Y1.875 I-0.0188 J0.0164
G1 X2.125 F20.
Y1.7041
G3 X2.1688 Y1.6877 I0.025 J0. F13.3333
G1 X2.1707 Y1.6898 Z0.4197
X2.1724 Y1.6918 Z0.4188
X2.174 Y1.6936 Z0.4173
X2.1753 Y1.6951 Z0.4153
X2.1762 Y1.6962 Z0.4129
X2.1768 Y1.6969 Z0.4103
X2.177 Y1.6971 Z0.4075
X2.1773 Y1.6974 Z0.4047
X2.1779 Y1.698 Z0.4021
X2.1788 Y1.6992 Z0.3997
X2.1801 Y1.7007 Z0.3977
X2.1817 Y1.7024 Z0.3962
X2.1834 Y1.7044 Z0.3953
X2.1853 Y1.7065 Z0.395
X2.2962 Y1.8336
G3 X2.2773 Y1.875 I-0.0188 J0.0164
G1 X2.125 F20.
Y1.7041
G3 X2.1688 Y1.6877 I0.025 J0. F13.3333
G1 X2.1707 Y1.6898 Z0.3947
X2.1724 Y1.6918 Z0.3938
X2.174 Y1.6936 Z0.3923
X2.1753 Y1.6951 Z0.3903
X2.1762 Y1.6962 Z0.3879
X2.1768 Y1.6969 Z0.3853
X2.177 Y1.6971 Z0.3825
X2.1773 Y1.6974 Z0.3797
X2.1779 Y1.698 Z0.3771
X2.1788 Y1.6992 Z0.3747
X2.1801 Y1.7007 Z0.3727
X2.1817 Y1.7024 Z0.3712
X2.1834 Y1.7044 Z0.3703
X2.1853 Y1.7065 Z0.37
X2.2962 Y1.8336
G3 X2.2773 Y1.875 I-0.0188 J0.0164
G1 X2.125 F20.
Y1.7041
G3 X2.1688 Y1.6877 I0.025 J0. F13.3333
G1 X2.1707 Y1.6898 Z0.3697
X2.1724 Y1.6918 Z0.3688
X2.174 Y1.6936 Z0.3673
X2.1753 Y1.6951 Z0.3653
X2.1762 Y1.6962 Z0.3629
X2.1768 Y1.6969 Z0.3603
X2.177 Y1.6971 Z0.3575
X2.1773 Y1.6974 Z0.3547
X2.1779 Y1.698 Z0.3521
X2.1788 Y1.6992 Z0.3497
X2.1801 Y1.7007 Z0.3477
X2.1817 Y1.7024 Z0.3462
X2.1834 Y1.7044 Z0.3453
X2.1853 Y1.7065 Z0.345
X2.2962 Y1.8336
G3 X2.2773 Y1.875 I-0.0188 J0.0164
G1 X2.125 F20.
Y1.7041
G3 X2.1688 Y1.6877 I0.025 J0. F13.3333
G1 X2.1707 Y1.6898 Z0.3447
X2.1724 Y1.6918 Z0.3438
X2.174 Y1.6936 Z0.3423
X2.1753 Y1.6951 Z0.3403
X2.1762 Y1.6962 Z0.3379
X2.1768 Y1.6969 Z0.3353
X2.177 Y1.6971 Z0.3325
X2.1773 Y1.6974 Z0.3297
X2.1779 Y1.698 Z0.3271
X2.1788 Y1.6992 Z0.3247
X2.1801 Y1.7007 Z0.3227
X2.1817 Y1.7024 Z0.3212
X2.1834 Y1.7044 Z0.3203
X2.1853 Y1.7065 Z0.32
X2.2962 Y1.8336
G3 X2.2773 Y1.875 I-0.0188 J0.0164
G1 X2.125 F20.
Y1.7041
G3 X2.1688 Y1.6877 I0.025 J0. F13.3333
G1 X2.1707 Y1.6898 Z0.3197
X2.1724 Y1.6918 Z0.3188
X2.174 Y1.6936 Z0.3173
X2.1753 Y1.6951 Z0.3153
X2.1762 Y1.6962 Z0.3129
X2.1768 Y1.6969 Z0.3103
X2.177 Y1.6971 Z0.3075
X2.1773 Y1.6974 Z0.3047
X2.1779 Y1.698 Z0.3021
X2.1788 Y1.6992 Z0.2997
X2.1801 Y1.7007 Z0.2977
X2.1817 Y1.7024 Z0.2962
X2.1834 Y1.7044 Z0.2953
X2.1853 Y1.7065 Z0.295
X2.2962 Y1.8336
G3 X2.2773 Y1.875 I-0.0188 J0.0164
G1 X2.125 F20.
Y1.7041
G3 X2.1688 Y1.6877 I0.025 J0. F13.3333
G1 X2.1707 Y1.6898 Z0.2947
X2.1724 Y1.6918 Z0.2938
X2.174 Y1.6936 Z0.2923
X2.1753 Y1.6951 Z0.2903
X2.1762 Y1.6962 Z0.2879
X2.1768 Y1.6969 Z0.2853
X2.177 Y1.6971 Z0.2825
X2.1773 Y1.6974 Z0.2797
X2.1779 Y1.698 Z0.2771
X2.1788 Y1.6992 Z0.2747
X2.1801 Y1.7007 Z0.2727
X2.1817 Y1.7024 Z0.2712
X2.1834 Y1.7044 Z0.2703
X2.1853 Y1.7065 Z0.27
X2.2962 Y1.8336
G3 X2.2773 Y1.875 I-0.0188 J0.0164
G1 X2.125 F20.
Y1.7041
G3 X2.1688 Y1.6877 I0.025 J0. F13.3333
G1 X2.1707 Y1.6898 Z0.2697
X2.1724 Y1.6918 Z0.2688
X2.174 Y1.6936 Z0.2673
X2.1753 Y1.6951 Z0.2653
X2.1762 Y1.6962 Z0.2629
X2.1768 Y1.6969 Z0.2603
X2.177 Y1.6971 Z0.2575
X2.1773 Y1.6974 Z0.2547
X2.1779 Y1.698 Z0.2521
X2.1788 Y1.6992 Z0.2497
X2.1801 Y1.7007 Z0.2477
X2.1817 Y1.7024 Z0.2462
X2.1834 Y1.7044 Z0.2453
X2.1853 Y1.7065 Z0.245
X2.2962 Y1.8336
G3 X2.2773 Y1.875 I-0.0188 J0.0164
G1 X2.125 F20.
Y1.7041
G3 X2.1688 Y1.6877 I0.025 J0. F13.3333
G1 X2.1707 Y1.6898 Z0.2447
X2.1724 Y1.6918 Z0.2438
X2.174 Y1.6936 Z0.2423
X2.1753 Y1.6951 Z0.2403
X2.1762 Y1.6962 Z0.2379
X2.1768 Y1.6969 Z0.2353
X2.177 Y1.6971 Z0.2325
X2.1773 Y1.6974 Z0.2297
X2.1779 Y1.698 Z0.2271
X2.1788 Y1.6992 Z0.2247
X2.1801 Y1.7007 Z0.2227
X2.1817 Y1.7024 Z0.2212
X2.1834 Y1.7044 Z0.2203
X2.1853 Y1.7065 Z0.22
X2.2962 Y1.8336
G3 X2.2773 Y1.875 I-0.0188 J0.0164
G1 X2.125 F20.
Y1.7041
G3 X2.1688 Y1.6877 I0.025 J0. F13.3333
G1 X2.1707 Y1.6898 Z0.2197
X2.1724 Y1.6918 Z0.2188
X2.174 Y1.6936 Z0.2173
X2.1753 Y1.6951 Z0.2153
X2.1762 Y1.6962 Z0.2129
X2.1768 Y1.6969 Z0.2103
X2.177 Y1.6971 Z0.2075
X2.1773 Y1.6974 Z0.2047
X2.1779 Y1.698 Z0.2021
X2.1788 Y1.6992 Z0.1997
X2.1801 Y1.7007 Z0.1977
X2.1817 Y1.7024 Z0.1962
X2.1834 Y1.7044 Z0.1953
X2.1853 Y1.7065 Z0.195
X2.2962 Y1.8336
G3 X2.2773 Y1.875 I-0.0188 J0.0164
G1 X2.125 F20.
Y1.7041
G3 X2.1688 Y1.6877 I0.025 J0. F13.3333
G1 X2.1707 Y1.6898 Z0.1947
X2.1724 Y1.6918 Z0.1938
X2.174 Y1.6936 Z0.1923
X2.1753 Y1.6951 Z0.1903
X2.1762 Y1.6962 Z0.1879
X2.1768 Y1.6969 Z0.1853
X2.177 Y1.6971 Z0.1825
X2.1773 Y1.6974 Z0.1797
X2.1779 Y1.698 Z0.1771
X2.1788 Y1.6992 Z0.1747
X2.1801 Y1.7007 Z0.1727
X2.1817 Y1.7024 Z0.1712
X2.1834 Y1.7044 Z0.1703
X2.1853 Y1.7065 Z0.17
X2.2962 Y1.8336
G3 X2.2773 Y1.875 I-0.0188 J0.0164
G1 X2.125 F20.
Y1.7041
G3 X2.1688 Y1.6877 I0.025 J0. F13.3333
G1 X2.1707 Y1.6898 Z0.1697
X2.1724 Y1.6918 Z0.1688
X2.174 Y1.6936 Z0.1673
X2.1753 Y1.6951 Z0.1653
X2.1762 Y1.6962 Z0.1629
X2.1768 Y1.6969 Z0.1603
X2.177 Y1.6971 Z0.1575
X2.1773 Y1.6974 Z0.1547
X2.1779 Y1.698 Z0.1521
X2.1788 Y1.6992 Z0.1497
X2.1801 Y1.7007 Z0.1477
X2.1817 Y1.7024 Z0.1462
X2.1834 Y1.7044 Z0.1453
X2.1853 Y1.7065 Z0.145
X2.2962 Y1.8336
G3 X2.2773 Y1.875 I-0.0188 J0.0164
G1 X2.125 F20.
Y1.7041
G3 X2.1688 Y1.6877 I0.025 J0. F13.3333
G1 X2.1707 Y1.6898 Z0.1447
X2.1724 Y1.6918 Z0.1438
X2.174 Y1.6936 Z0.1423
X2.1753 Y1.6951 Z0.1403
X2.1762 Y1.6962 Z0.1379
X2.1768 Y1.6969 Z0.1353
X2.177 Y1.6971 Z0.1325
X2.1773 Y1.6974 Z0.1297
X2.1779 Y1.698 Z0.1271
X2.1788 Y1.6992 Z0.1247
X2.1801 Y1.7007 Z0.1227
X2.1817 Y1.7024 Z0.1212
X2.1834 Y1.7044 Z0.1203
X2.1853 Y1.7065 Z0.12
X2.2962 Y1.8336
G3 X2.2773 Y1.875 I-0.0188 J0.0164
G1 X2.125 F20.
Y1.7041
G3 X2.1688 Y1.6877 I0.025 J0. F13.3333
G1 X2.1707 Y1.6898 Z0.1197
X2.1724 Y1.6918 Z0.1188
X2.174 Y1.6936 Z0.1173
X2.1753 Y1.6951 Z0.1153
X2.1762 Y1.6962 Z0.1129
X2.1768 Y1.6969 Z0.1103
X2.177 Y1.6971 Z0.1075
X2.1773 Y1.6974 Z0.1047
X2.1779 Y1.698 Z0.1021
X2.1788 Y1.6992 Z0.0997
X2.1801 Y1.7007 Z0.0977
X2.1817 Y1.7024 Z0.0962
X2.1834 Y1.7044 Z0.0953
X2.1853 Y1.7065 Z0.095
X2.2962 Y1.8336
G3 X2.2773 Y1.875 I-0.0188 J0.0164
G1 X2.125 F20.
Y1.7041
G3 X2.1688 Y1.6877 I0.025 J0. F13.3333
G1 X2.1707 Y1.6898 Z0.0947
X2.1724 Y1.6918 Z0.0938
X2.174 Y1.6936 Z0.0923
X2.1753 Y1.6951 Z0.0903
X2.1762 Y1.6962 Z0.0879
X2.1768 Y1.6969 Z0.0853
X2.177 Y1.6971 Z0.0825
X2.1773 Y1.6974 Z0.0797
X2.1779 Y1.698 Z0.0771
X2.1788 Y1.6992 Z0.0747
X2.1801 Y1.7007 Z0.0727
X2.1817 Y1.7024 Z0.0712
X2.1834 Y1.7044 Z0.0703
X2.1853 Y1.7065 Z0.07
X2.2962 Y1.8336
G3 X2.2773 Y1.875 I-0.0188 J0.0164
G1 X2.125 F20.
Y1.7041
G3 X2.1688 Y1.6877 I0.025 J0. F13.3333
G1 X2.1707 Y1.6898 Z0.0697
X2.1724 Y1.6918 Z0.0688
X2.174 Y1.6936 Z0.0673
X2.1753 Y1.6951 Z0.0653
X2.1762 Y1.6962 Z0.0629
X2.1768 Y1.6969 Z0.0603
X2.177 Y1.6971 Z0.0575
X2.1773 Y1.6974 Z0.0547
X2.1779 Y1.698 Z0.0521
X2.1788 Y1.6992 Z0.0497
X2.1801 Y1.7007 Z0.0477
X2.1817 Y1.7024 Z0.0462
X2.1834 Y1.7044 Z0.0453
X2.1853 Y1.7065 Z0.045
X2.2962 Y1.8336
G3 X2.2773 Y1.875 I-0.0188 J0.0164
G1 X2.125 F20.
Y1.7041
G3 X2.1688 Y1.6877 I0.025 J0. F13.3333
G1 X2.1707 Y1.6898 Z0.0447
X2.1724 Y1.6918 Z0.0438
X2.174 Y1.6936 Z0.0423
X2.1753 Y1.6951 Z0.0403
X2.1762 Y1.6962 Z0.0379
X2.1768 Y1.6969 Z0.0353
X2.177 Y1.6971 Z0.0325
X2.1773 Y1.6974 Z0.0297
X2.1779 Y1.698 Z0.0271
X2.1788 Y1.6992 Z0.0247
X2.1801 Y1.7007 Z0.0227
X2.1817 Y1.7024 Z0.0212
X2.1834 Y1.7044 Z0.0203
X2.1853 Y1.7065 Z0.02
X2.2962 Y1.8336
G3 X2.2773 Y1.875 I-0.0188 J0.0164
G1 X2.125 F20.
Y1.7041
G3 X2.3435 Y1.6398 Z0.0102 I0.1188 J0. F13.3333
G1 X2.3772 Y1.6919 Z0.0082
G3 X2.2773 Y1.875 Z0. I-0.0998 J0.0644
G1 X2.125 F20.
Y1.7041
G3 X2.1323 Y1.6865 I0.025 J0.
G1 X2.1849 Y1.6339
X2.1876 Y1.6311 Z0.0003 F20.
X2.1903 Y1.6284 Z0.0012
X2.1929 Y1.6259 Z0.0027
X2.1953 Y1.6235 Z0.0048
X2.1974 Y1.6214 Z0.0073
X2.1992 Y1.6196 Z0.0103
X2.2006 Y1.6182 Z0.0137
X2.2017 Y1.6171 Z0.0173
X2.2023 Y1.6164 Z0.0211
X2.2025 Y1.6162 Z0.025
Z1.52
G53 Z
M5
G53 P10
