[test_tenon_t3]
[Machine]
[  vendor: Nova Labs]
[  model: ShopSaber]
[  description: Generic 3-axis]
[T3 D=0.125 CR=0. - ZMIN=0. - flat end mill]
G90
G20
[When using Fusion for Personal Use, the feedrate of rapid]
[moves is reduced to match the feedrate of cutting moves,]
[which can increase machining time. Unrestricted rapid moves]
[are available with a Fusion Subscription.]
G53 Z
[Adaptive4]
M0
[MANUAL TOOL CHANGE TO T3]
S10000
M3
G4 X4.
G90
G0 X2.2363 Y1.8442
Z1.52
G1 Z1.12 F10.
Z0.6325
Z0.62 F12.
X2.2362 Y1.8445 Z0.6172 F12.
X2.236 Y1.8454 Z0.6146
X2.2358 Y1.8469 Z0.6122
X2.2354 Y1.8488 Z0.6102
X2.235 Y1.8512 Z0.6087
X2.2345 Y1.8538 Z0.6078
X2.2341 Y1.8565 Z0.6075
G3 X2.1406 Y1.9375 I-0.0969 J-0.0174
G1 X2.0943 F10.
X2.0883 Y1.9372
X2.0799 Y1.9338
X2.0727 Y1.9283
X2.0672 Y1.9211
X2.0637 Y1.9127
X2.0625 Y1.9037
G3 X2.0754 Y1.8917 Z0.6155 I0.0125 J0.0004
G1 X2.0778 Y1.892
X2.0801 Y1.8928
X2.0822 Y1.894
X2.0841 Y1.8956
X2.0843 Y1.8958 F12.
X2.1025 Y1.9159
X2.1032 Y1.9166
X2.1045 Y1.9184
X2.1055 Y1.9203
X2.1061 Y1.9224
X2.1064 Y1.9246
Y1.925 Z0.6153
G3 X2.0943 Y1.9375 Z0.6075 I-0.0125 J0.
G1 X2.077 F10.
X2.0755
X2.0741 Y1.9373
X2.0726 Y1.9369
X2.0712 Y1.9364
X2.0702 Y1.9359
X2.0692 Y1.9352
X2.0681 Y1.9345
X2.0671 Y1.9335
X2.0662 Y1.9323
X2.0654 Y1.9311
X2.0646 Y1.9294
X2.0641 Y1.9277
X2.0634 Y1.9219
X2.0627 Y1.9161
X2.0625 Y1.9103
Y1.8724
G3 X2.0851 Y1.8655 I0.0125 J0.0004
G1 X2.0867 Y1.8677 Z0.6078 F10.
X2.0883 Y1.8698 Z0.6087
X2.0897 Y1.8718 Z0.6102
X2.0909 Y1.8734 Z0.6122
X2.0917 Y1.8746 Z0.6146
X2.0923 Y1.8753 Z0.6172
X2.0925 Y1.8755 Z0.62
Z1.12
X0.3442 Y1.7658
Z0.6325
Z0.62 F12.
X0.3445 Z0.6172 F12.
X0.3454 Y1.766 Z0.6146
X0.3469 Y1.7663 Z0.6122
X0.3488 Y1.7666 Z0.6102
X0.3512 Y1.767 Z0.6087
X0.3538 Y1.7675 Z0.6078
X0.3565 Y1.768 Z0.6075
G3 X0.4375 Y1.8614 I-0.0174 J0.0969
G1 Y1.9045 F10.
X0.4372 Y1.9105
X0.4359 Y1.9164
X0.4307 Y1.925
X0.4232 Y1.9317
X0.4141 Y1.936
X0.4041 Y1.9375
G3 X0.392 Y1.9246 Z0.6155 I0.0004 J-0.0125
G1 X0.3923 Y1.9222
X0.3931 Y1.92
X0.3943 Y1.9179
X0.3958 Y1.9161
X0.3959 Y1.9159
X0.4159 Y1.8964 F12.
X0.4163 Y1.896
X0.4181 Y1.8946
X0.4201 Y1.8935
X0.4223 Y1.8928
X0.4246 Y1.8925
G3 X0.4375 Y1.9045 Z0.6075 I0.0004 J0.0125
G1 Y1.9103 F10.
X0.4373 Y1.9161
X0.4366 Y1.9219
X0.436 Y1.9265
X0.4359 Y1.9277
X0.4354 Y1.9294
X0.4346 Y1.9311
X0.4338 Y1.9323
X0.4329 Y1.9335
X0.4319 Y1.9345
X0.4308 Y1.9352
X0.4298 Y1.9359
X0.4288 Y1.9364
X0.4274 Y1.9369
X0.4259 Y1.9373
X0.4245 Y1.9375
X0.4172
X0.371
G3 X0.3589 Y1.9258 I0.0004 J-0.0125
G1 Y1.925
X0.3594 Y1.9229 Z0.6079 F10.
X0.36 Y1.9209 Z0.6086
X0.3604 Y1.919 Z0.6096
X0.3616 Y1.9176 Z0.6112
X0.3627 Y1.9165 Z0.6131
X0.3634 Y1.9156 Z0.6152
X0.3639 Y1.9151 Z0.6176
X0.364 Y1.9149 Z0.62
Z1.12
X1.1558 Y0.7332
Z0.6325
Z0.62 F12.
X1.1555 Y0.7331 Z0.6172 F12.
X1.1546 Y0.733 Z0.6146
X1.1531 Y0.7327 Z0.6122
X1.1512 Y0.7323 Z0.6102
X1.1488 Y0.7319 Z0.6087
X1.1462 Y0.7315 Z0.6078
X1.1435 Y0.731 Z0.6075
G3 X1.0625 Y0.6375 I0.0174 J-0.0969
G1 Y0.597 F10.
X1.0628 Y0.591
X1.0636 Y0.5851
X1.0674 Y0.5776
X1.0729 Y0.5713
X1.0798 Y0.5665
X1.0876 Y0.5635
X1.0959 Y0.5625
G3 X1.1079 Y0.5754 Z0.6155 I-0.0004 J0.0125
G1 X1.1077 Y0.5777
X1.107 Y0.5798
X1.1059 Y0.5818
X1.1045 Y0.5836
X1.1041 Y0.5841
X1.0841 Y0.6052 F12.
X1.0822 Y0.6068
X1.0801 Y0.608
X1.0778 Y0.6087
X1.0754 Y0.6091
G3 X1.0625 Y0.597 Z0.6075 I-0.0004 J-0.0125
G1 Y0.5825 F10.
Y0.5811
X1.0627 Y0.5797
X1.0649 Y0.5719
X1.0656 Y0.57
X1.0666 Y0.5681
X1.0675 Y0.5669
X1.0687 Y0.5657
X1.0697 Y0.5649
X1.0707 Y0.5642
X1.0722 Y0.5635
X1.0736 Y0.563
X1.0751 Y0.5627
X1.0765 Y0.5625
X1.1286
X1.1305 Y0.5627 Z0.6083 F10.
G2 X1.1479 Y0.5658 Z0.6155 I0.1146 J-0.5895
G1 X1.1575 Y0.5673
G2 X1.1823 Y0.5705 I0.0876 J-0.5941 F12.
G1 X1.1836
X1.3066
X1.3079
G2 X1.3423 Y0.5658 I-0.0628 J-0.5972
G2 X1.3597 Y0.5627 Z0.6083 I-0.0972 J-0.5926
G1 X1.3616 Y0.5625 Z0.6075 F12.
X1.4035 F10.
X1.4095 Y0.5628
X1.4155 Y0.5638
X1.4227 Y0.5677
X1.4289 Y0.5732
X1.4336 Y0.58
X1.4365 Y0.5877
X1.4375 Y0.5959
G3 X1.4246 Y0.608 Z0.6155 I-0.0125 J-0.0004
G1 X1.4223 Y0.6077
X1.4201 Y0.607
X1.4181 Y0.6059
X1.4163 Y0.6044
X1.4159 Y0.6041
X1.3954 Y0.5841 F12.
X1.3953 Y0.5839
X1.3937 Y0.5821
X1.3925 Y0.58
X1.3918 Y0.5778
X1.3915 Y0.5754
G3 X1.4035 Y0.5625 Z0.6075 I0.0125 J-0.0004
G1 X1.4235 F10.
X1.4249 Y0.5627
X1.4264 Y0.563
X1.4278 Y0.5635
X1.4293 Y0.5642
X1.4303 Y0.5649
X1.4313 Y0.5657
X1.4325 Y0.5669
X1.4334 Y0.5681
X1.4344 Y0.57
X1.4351 Y0.5719
X1.4373 Y0.5797
X1.4375 Y0.5811
Y0.5825
Y0.6277
X1.4373 Y0.6296 Z0.6083 F10.
G2 X1.4341 Y0.647 Z0.6155 I0.9051 J0.1759
G1 X1.4325 Y0.6566
G2 X1.4254 Y0.7092 I0.91 J0.149 F12.
G1 X1.4253 Y0.7105
Y0.9007
X1.4254 Y0.902
G2 X1.4341 Y0.9642 I0.917 J-0.0964
G2 X1.4373 Y0.9815 Z0.6083 I0.9083 J-0.1586
G1 X1.4375 Y0.9835 Z0.6075 F12.
Y1.0309 F10.
X1.4372 Y1.0369
X1.4337 Y1.0452
X1.4282 Y1.0524
X1.421 Y1.0579
X1.4127 Y1.0613
X1.4037 Y1.0625
G3 X1.3916 Y1.0496 Z0.6155 I0.0004 J-0.0125
G1 X1.392 Y1.0472
X1.3927 Y1.0449
X1.394 Y1.0428
X1.3955 Y1.0409
X1.3958 Y1.0407 F12.
X1.4159 Y1.0227
X1.4167 Y1.022
X1.4184 Y1.0207
X1.4204 Y1.0198
X1.4224 Y1.0191
X1.4246 Y1.0189
G3 X1.4375 Y1.0309 Z0.6075 I0.0004 J0.0125
G1 Y1.0454 F10.
X1.4374 Y1.0468
X1.4371 Y1.0483
X1.4348 Y1.0541
X1.4342 Y1.0555
X1.4333 Y1.057
X1.4322 Y1.0584
X1.4306 Y1.0599
X1.4293 Y1.0608
X1.4278 Y1.0615
X1.4264 Y1.062
X1.4249 Y1.0623
X1.4235 Y1.0625
X1.3726
X1.3707 Y1.0623 Z0.6083 F10.
G2 X1.3533 Y1.0592 Z0.6155 I-0.1152 J0.5925
G1 X1.3437 Y1.0577
G2 X1.3186 Y1.0545 I-0.0882 J0.5971 F12.
G1 X1.3173 Y1.0544
X1.1937
X1.1924 Y1.0545
G2 X1.1577 Y1.0592 I0.0631 J0.6003
G2 X1.1403 Y1.0623 Z0.6083 I0.0978 J0.5956
G1 X1.1384 Y1.0625 Z0.6075 F12.
X1.0965 F10.
X1.0905 Y1.0622
X1.0845 Y1.0612
X1.0773 Y1.0574
X1.0711 Y1.0519
X1.0664 Y1.0451
X1.0635 Y1.0373
X1.0625 Y1.0291
G3 X1.0754 Y1.0171 Z0.6155 I0.0125 J0.0004
G1 X1.0777 Y1.0174
X1.0799 Y1.0181
X1.0819 Y1.0192
X1.0837 Y1.0206
X1.0841 Y1.021
X1.1046 Y1.0409 F12.
X1.1047 Y1.041
X1.1063 Y1.0429
X1.1075 Y1.0449
X1.1082 Y1.0472
X1.1085 Y1.0496
G3 X1.0965 Y1.0625 Z0.6075 I-0.0125 J0.0004
G1 X1.0765 F10.
X1.0751 Y1.0623
X1.0736 Y1.062
X1.0722 Y1.0615
X1.0707 Y1.0608
X1.0694 Y1.0599
X1.0678 Y1.0584
X1.0667 Y1.057
X1.0658 Y1.0555
X1.0649 Y1.0534
X1.0629 Y1.0483
X1.0626 Y1.0468
X1.0625 Y1.0454
Y0.9962
G3 X1.0742 Y0.9842 I0.0125 J0.0004
G1 X1.075 Y0.9841
X1.0771 Y0.9847 Z0.6079 F10.
X1.0791 Y0.9852 Z0.6086
X1.081 Y0.9857 Z0.6096
X1.0824 Y0.9869 Z0.6112
X1.0835 Y0.9879 Z0.6131
X1.0844 Y0.9886 Z0.6152
X1.0849 Y0.9891 Z0.6176
X1.0851 Y0.9893 Z0.62
Z1.12
X2.2363 Y1.8442
Z0.32
Z0.3075 F12.
X2.2362 Y1.8445 Z0.3047 F12.
X2.236 Y1.8454 Z0.3021
X2.2358 Y1.8469 Z0.2997
X2.2354 Y1.8488 Z0.2977
X2.235 Y1.8512 Z0.2962
X2.2345 Y1.8538 Z0.2953
X2.2341 Y1.8565 Z0.295
G3 X2.1406 Y1.9375 I-0.0969 J-0.0174
G1 X2.0943 F10.
X2.0883 Y1.9372
X2.0799 Y1.9338
X2.0727 Y1.9283
X2.0672 Y1.9211
X2.0637 Y1.9127
X2.0625 Y1.9037
G3 X2.0754 Y1.8917 Z0.303 I0.0125 J0.0004
G1 X2.0778 Y1.892
X2.0801 Y1.8928
X2.0822 Y1.894
X2.0841 Y1.8956
X2.0843 Y1.8958 F12.
X2.1025 Y1.9159
X2.1032 Y1.9166
X2.1045 Y1.9184
X2.1055 Y1.9203
X2.1061 Y1.9224
X2.1064 Y1.9246
Y1.925 Z0.3028
G3 X2.0943 Y1.9375 Z0.295 I-0.0125 J0.
G1 X2.077 F10.
X2.0755
X2.0741 Y1.9373
X2.0726 Y1.9369
X2.0712 Y1.9364
X2.0702 Y1.9359
X2.0692 Y1.9352
X2.0681 Y1.9345
X2.0671 Y1.9335
X2.0662 Y1.9323
X2.0654 Y1.9311
X2.0646 Y1.9294
X2.0641 Y1.9277
X2.0634 Y1.9219
X2.0627 Y1.9161
X2.0625 Y1.9103
Y1.8724
G3 X2.0851 Y1.8655 I0.0125 J0.0004
G1 X2.0867 Y1.8677 Z0.2953 F10.
X2.0883 Y1.8698 Z0.2962
X2.0897 Y1.8718 Z0.2977
X2.0909 Y1.8734 Z0.2997
X2.0917 Y1.8746 Z0.3021
X2.0923 Y1.8753 Z0.3047
X2.0925 Y1.8755 Z0.3075
Z1.12
X0.3442 Y1.7658
Z0.32
Z0.3075 F12.
X0.3445 Z0.3047 F12.
X0.3454 Y1.766 Z0.3021
X0.3469 Y1.7663 Z0.2997
X0.3488 Y1.7666 Z0.2977
X0.3512 Y1.767 Z0.2962
X0.3538 Y1.7675 Z0.2953
X0.3565 Y1.768 Z0.295
G3 X0.4375 Y1.8614 I-0.0174 J0.0969
G1 Y1.9045 F10.
X0.4372 Y1.9105
X0.4359 Y1.9164
X0.4307 Y1.925
X0.4232 Y1.9317
X0.4141 Y1.936
X0.4041 Y1.9375
G3 X0.392 Y1.9246 Z0.303 I0.0004 J-0.0125
G1 X0.3923 Y1.9222
X0.3931 Y1.92
X0.3943 Y1.9179
X0.3958 Y1.9161
X0.3959 Y1.9159
X0.4159 Y1.8964 F12.
X0.4163 Y1.896
X0.4181 Y1.8946
X0.4201 Y1.8935
X0.4223 Y1.8928
X0.4246 Y1.8925
G3 X0.4375 Y1.9045 Z0.295 I0.0004 J0.0125
G1 Y1.9103 F10.
X0.4373 Y1.9161
X0.4366 Y1.9219
X0.436 Y1.9265
X0.4359 Y1.9277
X0.4354 Y1.9294
X0.4346 Y1.9311
X0.4338 Y1.9323
X0.4329 Y1.9335
X0.4319 Y1.9345
X0.4308 Y1.9352
X0.4298 Y1.9359
X0.4288 Y1.9364
X0.4274 Y1.9369
X0.4259 Y1.9373
X0.4245 Y1.9375
X0.4172
X0.371
G3 X0.3589 Y1.9258 I0.0004 J-0.0125
G1 Y1.925
X0.3594 Y1.9229 Z0.2954 F10.
X0.36 Y1.9209 Z0.2961
X0.3604 Y1.919 Z0.2971
X0.3616 Y1.9176 Z0.2987
X0.3627 Y1.9165 Z0.3006
X0.3634 Y1.9156 Z0.3027
X0.3639 Y1.9151 Z0.3051
X0.364 Y1.9149 Z0.3075
Z1.12
X1.1558 Y0.7332
Z0.32
Z0.3075 F12.
X1.1555 Y0.7331 Z0.3047 F12.
X1.1546 Y0.733 Z0.3021
X1.1531 Y0.7327 Z0.2997
X1.1512 Y0.7323 Z0.2977
X1.1488 Y0.7319 Z0.2962
X1.1462 Y0.7315 Z0.2953
X1.1435 Y0.731 Z0.295
G3 X1.0625 Y0.6375 I0.0174 J-0.0969
G1 Y0.597 F10.
X1.0628 Y0.591
X1.0636 Y0.5851
X1.0674 Y0.5776
X1.0729 Y0.5713
X1.0798 Y0.5665
X1.0876 Y0.5635
X1.0959 Y0.5625
G3 X1.1079 Y0.5754 Z0.303 I-0.0004 J0.0125
G1 X1.1077 Y0.5777
X1.107 Y0.5798
X1.1059 Y0.5818
X1.1045 Y0.5836
X1.1041 Y0.5841
X1.0841 Y0.6052 F12.
X1.0822 Y0.6068
X1.0801 Y0.608
X1.0778 Y0.6087
X1.0754 Y0.6091
G3 X1.0625 Y0.597 Z0.295 I-0.0004 J-0.0125
G1 Y0.5825 F10.
Y0.5811
X1.0627 Y0.5797
X1.0649 Y0.5719
X1.0656 Y0.57
X1.0666 Y0.5681
X1.0675 Y0.5669
X1.0687 Y0.5657
X1.0697 Y0.5649
X1.0707 Y0.5642
X1.0722 Y0.5635
X1.0736 Y0.563
X1.0751 Y0.5627
X1.0765 Y0.5625
X1.1286
X1.1305 Y0.5627 Z0.2958 F10.
G2 X1.1479 Y0.5658 Z0.303 I0.1146 J-0.5895
G1 X1.1575 Y0.5673
G2 X1.1823 Y0.5705 I0.0876 J-0.5941 F12.
G1 X1.1836
X1.3066
X1.3079
G2 X1.3423 Y0.5658 I-0.0628 J-0.5972
G2 X1.3597 Y0.5627 Z0.2958 I-0.0972 J-0.5926
G1 X1.3616 Y0.5625 Z0.295 F12.
X1.4035 F10.
X1.4095 Y0.5628
X1.4155 Y0.5638
X1.4227 Y0.5677
X1.4289 Y0.5732
X1.4336 Y0.58
X1.4365 Y0.5877
X1.4375 Y0.5959
G3 X1.4246 Y0.608 Z0.303 I-0.0125 J-0.0004
G1 X1.4223 Y0.6077
X1.4201 Y0.607
X1.4181 Y0.6059
X1.4163 Y0.6044
X1.4159 Y0.6041
X1.3954 Y0.5841 F12.
X1.3953 Y0.5839
X1.3937 Y0.5821
X1.3925 Y0.58
X1.3918 Y0.5778
X1.3915 Y0.5754
G3 X1.4035 Y0.5625 Z0.295 I0.0125 J-0.0004
G1 X1.4235 F10.
X1.4249 Y0.5627
X1.4264 Y0.563
X1.4278 Y0.5635
X1.4293 Y0.5642
X1.4303 Y0.5649
X1.4313 Y0.5657
X1.4325 Y0.5669
X1.4334 Y0.5681
X1.4344 Y0.57
X1.4351 Y0.5719
X1.4373 Y0.5797
X1.4375 Y0.5811
Y0.5825
Y0.6277
X1.4373 Y0.6296 Z0.2958 F10.
G2 X1.4341 Y0.647 Z0.303 I0.9051 J0.1759
G1 X1.4325 Y0.6566
G2 X1.4254 Y0.7092 I0.91 J0.149 F12.
G1 X1.4253 Y0.7105
Y0.9007
X1.4254 Y0.902
G2 X1.4341 Y0.9642 I0.917 J-0.0964
G2 X1.4373 Y0.9815 Z0.2958 I0.9083 J-0.1586
G1 X1.4375 Y0.9835 Z0.295 F12.
Y1.0309 F10.
X1.4372 Y1.0369
X1.4337 Y1.0452
X1.4282 Y1.0524
X1.421 Y1.0579
X1.4127 Y1.0613
X1.4037 Y1.0625
G3 X1.3916 Y1.0496 Z0.303 I0.0004 J-0.0125
G1 X1.392 Y1.0472
X1.3927 Y1.0449
X1.394 Y1.0428
X1.3955 Y1.0409
X1.3958 Y1.0407 F12.
X1.4159 Y1.0227
X1.4167 Y1.022
X1.4184 Y1.0207
X1.4204 Y1.0198
X1.4224 Y1.0191
X1.4246 Y1.0189
G3 X1.4375 Y1.0309 Z0.295 I0.0004 J0.0125
G1 Y1.0454 F10.
X1.4374 Y1.0468
X1.4371 Y1.0483
X1.4348 Y1.0541
X1.4342 Y1.0555
X1.4333 Y1.057
X1.4322 Y1.0584
X1.4306 Y1.0599
X1.4293 Y1.0608
X1.4278 Y1.0615
X1.4264 Y1.062
X1.4249 Y1.0623
X1.4235 Y1.0625
X1.3726
X1.3707 Y1.0623 Z0.2958 F10.
G2 X1.3533 Y1.0592 Z0.303 I-0.1152 J0.5925
G1 X1.3437 Y1.0577
G2 X1.3186 Y1.0545 I-0.0882 J0.5971 F12.
G1 X1.3173 Y1.0544
X1.1937
X1.1924 Y1.0545
G2 X1.1577 Y1.0592 I0.0631 J0.6003
G2 X1.1403 Y1.0623 Z0.2958 I0.0978 J0.5956
G1 X1.1384 Y1.0625 Z0.295 F12.
X1.0965 F10.
X1.0905 Y1.0622
X1.0845 Y1.0612
X1.0773 Y1.0574
X1.0711 Y1.0519
X1.0664 Y1.0451
X1.0635 Y1.0373
X1.0625 Y1.0291
G3 X1.0754 Y1.0171 Z0.303 I0.0125 J0.0004
G1 X1.0777 Y1.0174
X1.0799 Y1.0181
X1.0819 Y1.0192
X1.0837 Y1.0206
X1.0841 Y1.021
X1.1046 Y1.0409 F12.
X1.1047 Y1.041
X1.1063 Y1.0429
X1.1075 Y1.0449
X1.1082 Y1.0472
X1.1085 Y1.0496
G3 X1.0965 Y1.0625 Z0.295 I-0.0125 J0.0004
G1 X1.0765 F10.
X1.0751 Y1.0623
X1.0736 Y1.062
X1.0722 Y1.0615
X1.0707 Y1.0608
X1.0694 Y1.0599
X1.0678 Y1.0584
X1.0667 Y1.057
X1.0658 Y1.0555
X1.0649 Y1.0534
X1.0629 Y1.0483
X1.0626 Y1.0468
X1.0625 Y1.0454
Y0.9962
G3 X1.0742 Y0.9842 I0.0125 J0.0004
G1 X1.075 Y0.9841
X1.0771 Y0.9847 Z0.2954 F10.
X1.0791 Y0.9852 Z0.2961
X1.081 Y0.9857 Z0.2971
X1.0824 Y0.9869 Z0.2987
X1.0835 Y0.9879 Z0.3006
X1.0844 Y0.9886 Z0.3027
X1.0849 Y0.9891 Z0.3051
X1.0851 Y0.9893 Z0.3075
Z1.12
X2.2363 Y1.8442
Z0.025
Z0.0125 F12.
X2.2362 Y1.8445 Z0.0097 F12.
X2.236 Y1.8454 Z0.0071
X2.2358 Y1.8469 Z0.0047
X2.2354 Y1.8488 Z0.0027
X2.235 Y1.8512 Z0.0012
X2.2345 Y1.8538 Z0.0003
X2.2341 Y1.8565 Z0.
G3 X2.1406 Y1.9375 I-0.0969 J-0.0174
G1 X2.0943 F10.
X2.0883 Y1.9372
X2.0799 Y1.9338
X2.0727 Y1.9283
X2.0672 Y1.9211
X2.0637 Y1.9127
X2.0625 Y1.9037
G3 X2.0754 Y1.8917 Z0.008 I0.0125 J0.0004
G1 X2.0778 Y1.892
X2.0801 Y1.8928
X2.0822 Y1.894
X2.0841 Y1.8956
X2.0843 Y1.8958 F12.
X2.1025 Y1.9159
X2.1032 Y1.9166
X2.1045 Y1.9184
X2.1055 Y1.9203
X2.1061 Y1.9224
X2.1064 Y1.9246
Y1.925 Z0.0078
G3 X2.0943 Y1.9375 Z0. I-0.0125 J0.
G1 X2.077 F10.
X2.0755
X2.0741 Y1.9373
X2.0726 Y1.9369
X2.0712 Y1.9364
X2.0702 Y1.9359
X2.0692 Y1.9352
X2.0681 Y1.9345
X2.0671 Y1.9335
X2.0662 Y1.9323
X2.0654 Y1.9311
X2.0646 Y1.9294
X2.0641 Y1.9277
X2.0634 Y1.9219
X2.0627 Y1.9161
X2.0625 Y1.9103
Y1.8724
G3 X2.0851 Y1.8655 I0.0125 J0.0004
G1 X2.0867 Y1.8677 Z0.0003 F10.
X2.0883 Y1.8698 Z0.0012
X2.0897 Y1.8718 Z0.0027
X2.0909 Y1.8734 Z0.0047
X2.0917 Y1.8746 Z0.0071
X2.0923 Y1.8753 Z0.0097
X2.0925 Y1.8755 Z0.0125
Z1.12
X0.3442 Y1.7658
Z0.025
Z0.0125 F12.
X0.3445 Z0.0097 F12.
X0.3454 Y1.766 Z0.0071
X0.3469 Y1.7663 Z0.0047
X0.3488 Y1.7666 Z0.0027
X0.3512 Y1.767 Z0.0012
X0.3538 Y1.7675 Z0.0003
X0.3565 Y1.768 Z0.
G3 X0.4375 Y1.8614 I-0.0174 J0.0969
G1 Y1.9045 F10.
X0.4372 Y1.9105
X0.4359 Y1.9164
X0.4307 Y1.925
X0.4232 Y1.9317
X0.4141 Y1.936
X0.4041 Y1.9375
G3 X0.392 Y1.9246 Z0.008 I0.0004 J-0.0125
G1 X0.3923 Y1.9222
X0.3931 Y1.92
X0.3943 Y1.9179
X0.3958 Y1.9161
X0.3959 Y1.9159
X0.4159 Y1.8964 F12.
X0.4163 Y1.896
X0.4181 Y1.8946
X0.4201 Y1.8935
X0.4223 Y1.8928
X0.4246 Y1.8925
G3 X0.4375 Y1.9045 Z0. I0.0004 J0.0125
G1 Y1.9103 F10.
X0.4373 Y1.9161
X0.4366 Y1.9219
X0.436 Y1.9265
X0.4359 Y1.9277
X0.4354 Y1.9294
X0.4346 Y1.9311
X0.4338 Y1.9323
X0.4329 Y1.9335
X0.4319 Y1.9345
X0.4308 Y1.9352
X0.4298 Y1.9359
X0.4288 Y1.9364
X0.4274 Y1.9369
X0.4259 Y1.9373
X0.4245 Y1.9375
X0.4172
X0.371
G3 X0.3589 Y1.9258 I0.0004 J-0.0125
G1 Y1.925
X0.3594 Y1.9229 Z0.0004 F10.
X0.36 Y1.9209 Z0.0011
X0.3604 Y1.919 Z0.0021
X0.3616 Y1.9176 Z0.0037
X0.3627 Y1.9165 Z0.0056
X0.3634 Y1.9156 Z0.0077
X0.3639 Y1.9151 Z0.0101
X0.364 Y1.9149 Z0.0125
Z1.12
X1.1558 Y0.7332
Z0.025
Z0.0125 F12.
X1.1555 Y0.7331 Z0.0097 F12.
X1.1546 Y0.733 Z0.0071
X1.1531 Y0.7327 Z0.0047
X1.1512 Y0.7323 Z0.0027
X1.1488 Y0.7319 Z0.0012
X1.1462 Y0.7315 Z0.0003
X1.1435 Y0.731 Z0.
G3 X1.0625 Y0.6375 I0.0174 J-0.0969
G1 Y0.597 F10.
X1.0628 Y0.591
X1.0636 Y0.5851
X1.0674 Y0.5776
X1.0729 Y0.5713
X1.0798 Y0.5665
X1.0876 Y0.5635
X1.0959 Y0.5625
G3 X1.1079 Y0.5754 Z0.008 I-0.0004 J0.0125
G1 X1.1077 Y0.5777
X1.107 Y0.5798
X1.1059 Y0.5818
X1.1045 Y0.5836
X1.1041 Y0.5841
X1.0841 Y0.6052 F12.
X1.0822 Y0.6068
X1.0801 Y0.608
X1.0778 Y0.6087
X1.0754 Y0.6091
G3 X1.0625 Y0.597 Z0. I-0.0004 J-0.0125
G1 Y0.5825 F10.
Y0.5811
X1.0627 Y0.5797
X1.0649 Y0.5719
X1.0656 Y0.57
X1.0666 Y0.5681
X1.0675 Y0.5669
X1.0687 Y0.5657
X1.0697 Y0.5649
X1.0707 Y0.5642
X1.0722 Y0.5635
X1.0736 Y0.563
X1.0751 Y0.5627
X1.0765 Y0.5625
X1.1286
X1.1305 Y0.5627 Z0.0008 F10.
G2 X1.1479 Y0.5658 Z0.008 I0.1146 J-0.5895
G1 X1.1575 Y0.5673
G2 X1.1823 Y0.5705 I0.0876 J-0.5941 F12.
G1 X1.1836
X1.3066
X1.3079
G2 X1.3423 Y0.5658 I-0.0628 J-0.5972
G2 X1.3597 Y0.5627 Z0.0008 I-0.0972 J-0.5926
G1 X1.3616 Y0.5625 Z0. F12.
X1.4035 F10.
X1.4095 Y0.5628
X1.4155 Y0.5638
X1.4227 Y0.5677
X1.4289 Y0.5732
X1.4336 Y0.58
X1.4365 Y0.5877
X1.4375 Y0.5959
G3 X1.4246 Y0.608 Z0.008 I-0.0125 J-0.0004
G1 X1.4223 Y0.6077
X1.4201 Y0.607
X1.4181 Y0.6059
X1.4163 Y0.6044
X1.4159 Y0.6041
X1.3954 Y0.5841 F12.
X1.3953 Y0.5839
X1.3937 Y0.5821
X1.3925 Y0.58
X1.3918 Y0.5778
X1.3915 Y0.5754
G3 X1.4035 Y0.5625 Z0. I0.0125 J-0.0004
G1 X1.4235 F10.
X1.4249 Y0.5627
X1.4264 Y0.563
X1.4278 Y0.5635
X1.4293 Y0.5642
X1.4303 Y0.5649
X1.4313 Y0.5657
X1.4325 Y0.5669
X1.4334 Y0.5681
X1.4344 Y0.57
X1.4351 Y0.5719
X1.4373 Y0.5797
X1.4375 Y0.5811
Y0.5825
Y0.6277
X1.4373 Y0.6296 Z0.0008 F10.
G2 X1.4341 Y0.647 Z0.008 I0.9051 J0.1759
G1 X1.4325 Y0.6566
G2 X1.4254 Y0.7092 I0.91 J0.149 F12.
G1 X1.4253 Y0.7105
Y0.9007
X1.4254 Y0.902
G2 X1.4341 Y0.9642 I0.917 J-0.0964
G2 X1.4373 Y0.9815 Z0.0008 I0.9083 J-0.1586
G1 X1.4375 Y0.9835 Z0. F12.
Y1.0309 F10.
X1.4372 Y1.0369
X1.4337 Y1.0452
X1.4282 Y1.0524
X1.421 Y1.0579
X1.4127 Y1.0613
X1.4037 Y1.0625
G3 X1.3916 Y1.0496 Z0.008 I0.0004 J-0.0125
G1 X1.392 Y1.0472
X1.3927 Y1.0449
X1.394 Y1.0428
X1.3955 Y1.0409
X1.3958 Y1.0407 F12.
X1.4159 Y1.0227
X1.4167 Y1.022
X1.4184 Y1.0207
X1.4204 Y1.0198
X1.4224 Y1.0191
X1.4246 Y1.0189
G3 X1.4375 Y1.0309 Z0. I0.0004 J0.0125
G1 Y1.0454 F10.
X1.4374 Y1.0468
X1.4371 Y1.0483
X1.4348 Y1.0541
X1.4342 Y1.0555
X1.4333 Y1.057
X1.4322 Y1.0584
X1.4306 Y1.0599
X1.4293 Y1.0608
X1.4278 Y1.0615
X1.4264 Y1.062
X1.4249 Y1.0623
X1.4235 Y1.0625
X1.3726
X1.3707 Y1.0623 Z0.0008 F10.
G2 X1.3533 Y1.0592 Z0.008 I-0.1152 J0.5925
G1 X1.3437 Y1.0577
G2 X1.3186 Y1.0545 I-0.0882 J0.5971 F12.
G1 X1.3173 Y1.0544
X1.1937
X1.1924 Y1.0545
G2 X1.1577 Y1.0592 I0.0631 J0.6003
G2 X1.1403 Y1.0623 Z0.0008 I0.0978 J0.5956
G1 X1.1384 Y1.0625 Z0. F12.
X1.0965 F10.
X1.0905 Y1.0622
X1.0845 Y1.0612
X1.0773 Y1.0574
X1.0711 Y1.0519
X1.0664 Y1.0451
X1.0635 Y1.0373
X1.0625 Y1.0291
G3 X1.0754 Y1.0171 Z0.008 I0.0125 J0.0004
G1 X1.0777 Y1.0174
X1.0799 Y1.0181
X1.0819 Y1.0192
X1.0837 Y1.0206
X1.0841 Y1.021
X1.1046 Y1.0409 F12.
X1.1047 Y1.041
X1.1063 Y1.0429
X1.1075 Y1.0449
X1.1082 Y1.0472
X1.1085 Y1.0496
G3 X1.0965 Y1.0625 Z0. I-0.0125 J0.0004
G1 X1.0765 F10.
X1.0751 Y1.0623
X1.0736 Y1.062
X1.0722 Y1.0615
X1.0707 Y1.0608
X1.0694 Y1.0599
X1.0678 Y1.0584
X1.0667 Y1.057
X1.0658 Y1.0555
X1.0649 Y1.0534
X1.0629 Y1.0483
X1.0626 Y1.0468
X1.0625 Y1.0454
Y0.9962
G3 X1.0851 Y0.9893 I0.0125 J0.0004
G1 X1.0867 Y0.9915 Z0.0003 F10.
X1.0883 Y0.9936 Z0.0012
X1.0897 Y0.9955 Z0.0027
X1.0909 Y0.9971 Z0.0047
X1.0917 Y0.9983 Z0.0071
X1.0923 Y0.9991 Z0.0097
X1.0925 Y0.9993 Z0.0125
Z1.52
G53 Z
M5
G53 P10
