[test_tenon_t4]
[Machine]
[  vendor: Nova Labs]
[  model: ShopSaber]
[  description: Generic 3-axis]
[T4 D=0.125 CR=0. - ZMIN=0. - flat end mill]
G90
G20
[When using Fusion for Personal Use, the feedrate of rapid]
[moves is reduced to match the feedrate of cutting moves,]
[which can increase machining time. Unrestricted rapid moves]
[are available with a Fusion Subscription.]
G53 Z
[Adaptive7]
M0
[MANUAL TOOL CHANGE TO T4]
S14000
M3
G4 X4.
G90
G0 X2.338 Y2.0701
Z1.26
G1 Z0.86 F9.
Z0.3725
Z0.36
X2.3379 Y2.0698 Z0.3572 F9.
X2.3375 Y2.069 Z0.3546
X2.3369 Y2.0676 Z0.3522
X2.3361 Y2.0658 Z0.3502
X2.3351 Y2.0636 Z0.3487
X2.3341 Y2.0612 Z0.3478
X2.3329 Y2.0587 Z0.3475
G3 X2.312 Y1.9932 I0.2918 J-0.1292
G1 X2.3111 Y1.9874
X2.3096 Y1.9816
X2.3075 Y1.9758
X2.3047 Y1.97
X2.301 Y1.9642
X2.3005 Y1.9635
X2.2966 Y1.9584
X2.2947 Y1.9564
X2.2907 Y1.9526
X2.2889 Y1.9512
X2.2826 Y1.9468
X2.28 Y1.9452
X2.2773 Y1.9439
X2.2715 Y1.9414
X2.2657 Y1.9396
X2.26 Y1.9384
X2.2542 Y1.9378
X2.2484 Y1.9375
X2.0225
X2.0127 Y1.937
X2.0047 Y1.936
X1.9962 Y1.9341
X1.9905 Y1.9324
X1.9849 Y1.9301
X1.9786 Y1.9268
X1.9711 Y1.9222
X1.9622 Y1.9156
X1.9555 Y1.9097
X1.951 Y1.9052
X1.946 Y1.8992
X1.9428 Y1.8945
X1.9399 Y1.8893
X1.9381 Y1.8837
X1.9375 Y1.8778
G3 X1.9504 Y1.8657 Z0.3555 I0.0125 J0.0004
G1 X1.9527 Y1.866
X1.9548 Y1.8667
X1.9568 Y1.8677
X1.9593 Y1.8693
X2.0289 Y1.9145
G3 X2.0346 Y1.9246 I-0.0068 J0.0105
G3 X2.0225 Y1.9375 Z0.3475 I-0.0125 J0.0004
G1 X1.9672
X1.9613 Y1.9372
X1.9537 Y1.9349
X1.947 Y1.9305
X1.9419 Y1.9245
X1.9386 Y1.9173
X1.9375 Y1.9095
G3 X1.9504 Y1.8974 Z0.3555 I0.0125 J0.0004
G1 X1.9526 Y1.8977
X1.9547 Y1.8983
X1.9566 Y1.8993
X1.9583 Y1.9006
X1.9591 Y1.9013
X1.9752 Y1.9157
X1.9769 Y1.9176
X1.9781 Y1.9197
X1.979 Y1.9221
X1.9793 Y1.9246
G3 X1.9672 Y1.9375 Z0.3475 I-0.0125 J0.0004
G1 X1.9502
X1.9487 Y1.9373
X1.9473 Y1.937
X1.9454 Y1.9363
X1.9436 Y1.9353
X1.9425 Y1.9345
X1.9415 Y1.9335
X1.9398 Y1.9315
X1.9391 Y1.9305
X1.9386 Y1.9295
X1.9381 Y1.928
X1.9377 Y1.9266
X1.9375 Y1.9251
Y1.9237
Y0.0073
X1.9374 Y0.0015
Y-0.0002
G3 X1.9598 Y-0.0078 I0.0125 J0.0001
G1 X1.9615 Y-0.0056 Z0.3478
X1.9631 Y-0.0035 Z0.3487
X1.9646 Y-0.0016 Z0.3502
X1.9658 Y-0.0001 Z0.3522
X1.9667 Y0.0011 Z0.3546
X1.9672 Y0.0019 Z0.3572
X1.9674 Y0.0021 Z0.36
Z0.86
X0.4478 Y-0.0912
Z0.3725
Z0.36
X0.4475 Y-0.091 Z0.3572
X0.4467 Y-0.0905 Z0.3546
X0.4455 Y-0.0897 Z0.3522
X0.4438 Y-0.0886 Z0.3502
X0.4418 Y-0.0873 Z0.3487
X0.4396 Y-0.0858 Z0.3478
X0.4373 Y-0.0843 Z0.3475
G3 X0.3722 Y-0.0621 I-0.0758 J-0.1159
G1 X0.3664 Y-0.0619
X0.3606 Y-0.0607
X0.3549 Y-0.0591
X0.3491 Y-0.0567
X0.3433 Y-0.0538
X0.3375 Y-0.0498
X0.3346 Y-0.0476
X0.3316 Y-0.0448
X0.3259 Y-0.0384
X0.3223 Y-0.0332
X0.3201 Y-0.0297
X0.319 Y-0.0274
X0.3164 Y-0.0216
X0.3143 Y-0.0145
X0.3135 Y-0.0101
X0.3127 Y-0.0043
X0.3126 Y0.0015
X0.3125 Y0.0073
Y1.8542
X0.312 Y1.8635
X0.3109 Y1.8719
X0.3097 Y1.8779
X0.3079 Y1.8836
X0.3056 Y1.8892
X0.3023 Y1.8956
X0.2977 Y1.9031
X0.291 Y1.9121
X0.2848 Y1.9193
X0.2802 Y1.9238
X0.2741 Y1.9289
X0.2695 Y1.9322
X0.2643 Y1.9351
X0.2586 Y1.9369
X0.2526 Y1.9375
G3 X0.2406 Y1.9246 Z0.3555 I0.0004 J-0.0125
G1 X0.2409 Y1.9223
X0.2416 Y1.9201
X0.2427 Y1.9181
X0.2442 Y1.9157
X0.2896 Y1.8477
G3 X0.2996 Y1.8422 I0.0104 J0.0069
G3 X0.3125 Y1.8542 Z0.3475 I0.0004 J0.0125
G1 Y1.9063
X0.3122 Y1.9125
X0.31 Y1.9204
X0.3056 Y1.9274
X0.2993 Y1.9329
X0.2918 Y1.9363
X0.2837 Y1.9375
G3 X0.2716 Y1.9246 Z0.3555 I0.0004 J-0.0125
G1 X0.2719 Y1.9225
X0.2725 Y1.9204
X0.2734 Y1.9185
X0.2747 Y1.9168
X0.2755 Y1.9159
X0.2906 Y1.8985
G3 X0.2996 Y1.8943 I0.0094 J0.0082
G3 X0.3125 Y1.9063 Z0.3475 I0.0004 J0.0125
G1 Y1.9237
Y1.9251
X0.3123 Y1.9266
X0.3119 Y1.928
X0.3114 Y1.9295
X0.3109 Y1.9305
X0.3102 Y1.9315
X0.3085 Y1.9335
X0.3075 Y1.9345
X0.3064 Y1.9353
X0.3046 Y1.9363
X0.3027 Y1.937
X0.3013 Y1.9373
X0.2998 Y1.9375
X0.0016
X-0.0016 Y1.9377
G3 X-0.0142 Y1.9265 I-0.0002 J-0.0125
G1 Y1.9252 Z0.3476
X-0.0137 Y1.923 Z0.348
X-0.0132 Y1.921 Z0.3489
X-0.0127 Y1.9192 Z0.3501
X-0.0117 Y1.9179 Z0.3516
X-0.0108 Y1.9169 Z0.3535
X-0.0101 Y1.9161 Z0.3555
X-0.0098 Y1.9156 Z0.3577
X-0.0096 Y1.9155 Z0.36
Z0.86
X1.0393 Y0.8571
Z0.3725
Z0.36
X1.039 Y0.8572 Z0.3572
X1.0381 Y0.8574 Z0.3546
X1.0367 Y0.8578 Z0.3522
X1.0347 Y0.8583 Z0.3502
X1.0324 Y0.8588 Z0.3487
X1.0299 Y0.8595 Z0.3478
X1.0272 Y0.8602 Z0.3475
G3 X0.9591 Y0.87 I-0.0792 J-0.3091
G1 X0.9531
X0.9483 Y0.8664
X0.9441 Y0.8622
X0.9438 Y0.8618
X0.9403 Y0.8563
X0.9382 Y0.8502
X0.9375 Y0.8438
Y0.6442
X0.9378 Y0.638
X0.9388 Y0.6301
X0.9407 Y0.6213
X0.9424 Y0.6156
X0.9447 Y0.61
X0.948 Y0.6036
X0.9527 Y0.596
X0.9594 Y0.587
X0.9647 Y0.5808
X0.9693 Y0.5764
X0.9752 Y0.5714
X0.9802 Y0.5678
X0.9854 Y0.5649
X0.9911 Y0.5631
X0.9971 Y0.5625
G3 X1.0091 Y0.5754 Z0.3555 I-0.0004 J0.0125
G1 X1.0088 Y0.5777
X1.0081 Y0.58
X1.007 Y0.582
X1.0055 Y0.5842
X0.9603 Y0.6508
G3 X0.9504 Y0.6562 I-0.0103 J-0.007
G3 X0.9375 Y0.6442 Z0.3475 I-0.0004 J-0.0125
G1 Y0.5921
X0.9378 Y0.5861
X0.9401 Y0.5786
X0.9444 Y0.572
X0.9504 Y0.5669
X0.9576 Y0.5636
X0.9653 Y0.5625
G3 X0.9774 Y0.5754 Z0.3555 I-0.0004 J0.0125
G1 X0.9771 Y0.5776
X0.9765 Y0.5797
X0.9755 Y0.5816
X0.9742 Y0.5833
X0.9735 Y0.5841
X0.9593 Y0.6
X0.9574 Y0.6017
X0.9553 Y0.603
X0.9529 Y0.6038
X0.9504 Y0.6041
G3 X0.9375 Y0.5921 Z0.3475 I-0.0004 J-0.0125
G1 Y0.5747
X0.9377 Y0.5733
X0.938 Y0.5718
X0.9386 Y0.5704
X0.9394 Y0.5689
X0.9397 Y0.5684
X0.9409 Y0.5669
X0.9418 Y0.5661
X0.9426 Y0.5654
X0.944 Y0.5644
X0.9455 Y0.5637
X0.9468 Y0.5631
X0.9479 Y0.5628
X0.9491 Y0.5626
X0.9513 Y0.5625
X1.2292
X1.2368 Y0.5629
X1.2447 Y0.5639
X1.2538 Y0.5659
X1.2596 Y0.5676
X1.2651 Y0.5699
X1.2714 Y0.5732
X1.2788 Y0.5778
X1.2876 Y0.5843
X1.2947 Y0.5905
X1.299 Y0.595
X1.3039 Y0.6009
X1.3072 Y0.6057
X1.3101 Y0.6109
X1.3119 Y0.6165
X1.3125 Y0.6224
G3 X1.2996 Y0.6345 Z0.3555 I-0.0125 J-0.0004
G1 X1.2973 Y0.6342
X1.2951 Y0.6335
X1.2931 Y0.6324
X1.2907 Y0.6308
X1.2227 Y0.5854
G3 X1.2172 Y0.5754 I0.0069 J-0.0104
G3 X1.2292 Y0.5625 Z0.3475 I0.0125 J-0.0004
G1 X1.2813
X1.2875 Y0.5628
X1.2954 Y0.565
X1.3024 Y0.5694
X1.3079 Y0.5757
X1.3113 Y0.5832
X1.3125 Y0.5913
G3 X1.2996 Y0.6034 Z0.3555 I-0.0125 J-0.0004
G1 X1.2975 Y0.6031
X1.2954 Y0.6025
X1.2935 Y0.6016
X1.2918 Y0.6003
X1.2909 Y0.5995
X1.2736 Y0.5844
G3 X1.2693 Y0.5754 I0.0082 J-0.0094
G3 X1.2813 Y0.5625 Z0.3475 I0.0125 J-0.0004
G1 X1.2987
X1.3009 Y0.5626
X1.3021 Y0.5628
X1.3032 Y0.5631
X1.3045 Y0.5637
X1.306 Y0.5644
X1.3074 Y0.5654
X1.3082 Y0.5661
X1.3091 Y0.5669
X1.3103 Y0.5684
X1.3106 Y0.5689
X1.3114 Y0.5704
X1.312 Y0.5718
X1.3123 Y0.5733
X1.3125 Y0.5747
Y0.6152
Y0.98
X1.3121 Y0.9875
X1.3111 Y0.9955
X1.3093 Y1.0037
X1.3076 Y1.0094
X1.3053 Y1.0149
X1.302 Y1.0213
X1.2974 Y1.0287
X1.2908 Y1.0376
X1.2848 Y1.0445
X1.2802 Y1.0489
X1.2742 Y1.0539
X1.2695 Y1.0572
X1.2643 Y1.0601
X1.2587 Y1.0619
X1.2528 Y1.0625
G3 X1.2407 Y1.0496 Z0.3555 I0.0004 J-0.0125
G1 X1.241 Y1.0473
X1.2417 Y1.0451
X1.2428 Y1.043
X1.2444 Y1.0407
X1.2896 Y0.9734
G3 X1.2996 Y0.9679 I0.0104 J0.007
G3 X1.3125 Y0.98 Z0.3475 I0.0004 J0.0125
G1 Y1.0321
X1.3122 Y1.0381
X1.3099 Y1.0458
X1.3056 Y1.0527
X1.2995 Y1.058
X1.2921 Y1.0613
X1.2841 Y1.0625
G3 X1.272 Y1.0496 Z0.3555 I0.0004 J-0.0125
G1 X1.2723 Y1.0474
X1.2729 Y1.0454
X1.2739 Y1.0434
X1.2752 Y1.0417
X1.2759 Y1.0409
X1.2907 Y1.0242
G3 X1.2996 Y1.02 I0.0094 J0.0083
G3 X1.3125 Y1.0321 Z0.3475 I0.0004 J0.0125
G1 Y1.0495
X1.3124 Y1.0509
X1.3122 Y1.0523
X1.3117 Y1.0538
X1.3111 Y1.0552
X1.3103 Y1.0565
X1.3092 Y1.0579
X1.3077 Y1.0593
X1.3064 Y1.0602
X1.3051 Y1.061
X1.3045 Y1.0613
X1.3031 Y1.0619
X1.3016 Y1.0623
X1.3002 Y1.0625
X1.2987
X1.0208
X1.013 Y1.0621
X1.0051 Y1.0611
X0.9963 Y1.0592
X0.9906 Y1.0575
X0.985 Y1.0552
X0.9787 Y1.0519
X0.9712 Y1.0472
X0.9624 Y1.0407
X0.9555 Y1.0347
X0.9509 Y1.0299
X0.9457 Y1.0237
X0.9428 Y1.0195
X0.9399 Y1.0143
X0.9381 Y1.0087
X0.9375 Y1.0027
G3 X0.9504 Y0.9907 Z0.3555 I0.0125 J0.0004
G1 X0.9527 Y0.991
X0.9549 Y0.9917
X0.9569 Y0.9928
X0.9593 Y0.9943
X1.0273 Y1.0396
G3 X1.0328 Y1.0496 I-0.0069 J0.0104
G3 X1.0208 Y1.0625 Z0.3475 I-0.0125 J0.0004
G1 X0.9687
X0.9625 Y1.0622
X0.9545 Y1.06
X0.9476 Y1.0556
X0.9421 Y1.0494
X0.9387 Y1.0419
X0.9375 Y1.0337
G3 X0.9504 Y1.0217 Z0.3555 I0.0125 J0.0004
G1 X0.9525 Y1.0219
X0.9546 Y1.0225
X0.9565 Y1.0235
X0.9582 Y1.0247
X0.9591 Y1.0255
X0.9764 Y1.0406
G3 X0.9807 Y1.0496 I-0.0082 J0.0094
G3 X0.9687 Y1.0625 Z0.3475 I-0.0125 J0.0004
G1 X0.9513
X0.9498
X0.9484 Y1.0623
X0.9469 Y1.0619
X0.9455 Y1.0613
X0.9449 Y1.061
X0.9436 Y1.0602
X0.9423 Y1.0593
X0.9408 Y1.0579
X0.9397 Y1.0565
X0.9389 Y1.0552
X0.9383 Y1.0538
X0.9378 Y1.0523
X0.9376 Y1.0509
X0.9375 Y1.0495
Y0.8438
G3 X0.9492 Y0.8317 I0.0125 J0.0004
G1 X0.95
X0.9521 Y0.8322 Z0.3479
X0.9541 Y0.8327 Z0.3486
X0.956 Y0.8332 Z0.3496
X0.9574 Y0.8344 Z0.3512
X0.9585 Y0.8354 Z0.3531
X0.9594 Y0.8362 Z0.3552
X0.9599 Y0.8366 Z0.3576
X0.9601 Y0.8368 Z0.36
Z0.86
X2.338 Y2.0701
Z0.06
Z0.0475
X2.3379 Y2.0698 Z0.0447
X2.3375 Y2.069 Z0.0421
X2.3369 Y2.0676 Z0.0397
X2.3361 Y2.0658 Z0.0377
X2.3351 Y2.0636 Z0.0362
X2.3341 Y2.0612 Z0.0353
X2.3329 Y2.0587 Z0.035
G3 X2.312 Y1.9932 I0.2918 J-0.1292
G1 X2.3111 Y1.9874
X2.3096 Y1.9816
X2.3075 Y1.9758
X2.3047 Y1.97
X2.301 Y1.9642
X2.3005 Y1.9635
X2.2966 Y1.9584
X2.2947 Y1.9564
X2.2907 Y1.9526
X2.2889 Y1.9512
X2.2826 Y1.9468
X2.28 Y1.9452
X2.2773 Y1.9439
X2.2715 Y1.9414
X2.2657 Y1.9396
X2.26 Y1.9384
X2.2542 Y1.9378
X2.2484 Y1.9375
X2.0225
X2.0127 Y1.937
X2.0047 Y1.936
X1.9962 Y1.9341
X1.9905 Y1.9324
X1.9849 Y1.9301
X1.9786 Y1.9268
X1.9711 Y1.9222
X1.9622 Y1.9156
X1.9555 Y1.9097
X1.951 Y1.9052
X1.946 Y1.8992
X1.9428 Y1.8945
X1.9399 Y1.8893
X1.9381 Y1.8837
X1.9375 Y1.8778
G3 X1.9504 Y1.8657 Z0.043 I0.0125 J0.0004
G1 X1.9527 Y1.866
X1.9548 Y1.8667
X1.9568 Y1.8677
X1.9593 Y1.8693
X2.0289 Y1.9145
G3 X2.0346 Y1.9246 I-0.0068 J0.0105
G3 X2.0225 Y1.9375 Z0.035 I-0.0125 J0.0004
G1 X1.9672
X1.9613 Y1.9372
X1.9537 Y1.9349
X1.947 Y1.9305
X1.9419 Y1.9245
X1.9386 Y1.9173
X1.9375 Y1.9095
G3 X1.9504 Y1.8974 Z0.043 I0.0125 J0.0004
G1 X1.9526 Y1.8977
X1.9547 Y1.8983
X1.9566 Y1.8993
X1.9583 Y1.9006
X1.9591 Y1.9013
X1.9752 Y1.9157
X1.9769 Y1.9176
X1.9781 Y1.9197
X1.979 Y1.9221
X1.9793 Y1.9246
G3 X1.9672 Y1.9375 Z0.035 I-0.0125 J0.0004
G1 X1.9502
X1.9487 Y1.9373
X1.9473 Y1.937
X1.9454 Y1.9363
X1.9436 Y1.9353
X1.9425 Y1.9345
X1.9415 Y1.9335
X1.9398 Y1.9315
X1.9391 Y1.9305
X1.9386 Y1.9295
X1.9381 Y1.928
X1.9377 Y1.9266
X1.9375 Y1.9251
Y1.9237
Y0.0073
X1.9374 Y0.0015
Y-0.0002
G3 X1.9598 Y-0.0078 I0.0125 J0.0001
G1 X1.9615 Y-0.0056 Z0.0353
X1.9631 Y-0.0035 Z0.0362
X1.9646 Y-0.0016 Z0.0377
X1.9658 Y-0.0001 Z0.0397
X1.9667 Y0.0011 Z0.0421
X1.9672 Y0.0019 Z0.0447
X1.9674 Y0.0021 Z0.0475
Z0.86
X0.4478 Y-0.0912
Z0.06
Z0.0475
X0.4475 Y-0.091 Z0.0447
X0.4467 Y-0.0905 Z0.0421
X0.4455 Y-0.0897 Z0.0397
X0.4438 Y-0.0886 Z0.0377
X0.4418 Y-0.0873 Z0.0362
X0.4396 Y-0.0858 Z0.0353
X0.4373 Y-0.0843 Z0.035
G3 X0.3722 Y-0.0621 I-0.0758 J-0.1159
G1 X0.3664 Y-0.0619
X0.3606 Y-0.0607
X0.3549 Y-0.0591
X0.3491 Y-0.0567
X0.3433 Y-0.0538
X0.3375 Y-0.0498
X0.3346 Y-0.0476
X0.3316 Y-0.0448
X0.3259 Y-0.0384
X0.3223 Y-0.0332
X0.3201 Y-0.0297
X0.319 Y-0.0274
X0.3164 Y-0.0216
X0.3143 Y-0.0145
X0.3135 Y-0.0101
X0.3127 Y-0.0043
X0.3126 Y0.0015
X0.3125 Y0.0073
Y1.8542
X0.312 Y1.8635
X0.3109 Y1.8719
X0.3097 Y1.8779
X0.3079 Y1.8836
X0.3056 Y1.8892
X0.3023 Y1.8956
X0.2977 Y1.9031
X0.291 Y1.9121
X0.2848 Y1.9193
X0.2802 Y1.9238
X0.2741 Y1.9289
X0.2695 Y1.9322
X0.2643 Y1.9351
X0.2586 Y1.9369
X0.2526 Y1.9375
G3 X0.2406 Y1.9246 Z0.043 I0.0004 J-0.0125
G1 X0.2409 Y1.9223
X0.2416 Y1.9201
X0.2427 Y1.9181
X0.2442 Y1.9157
X0.2896 Y1.8477
G3 X0.2996 Y1.8422 I0.0104 J0.0069
G3 X0.3125 Y1.8542 Z0.035 I0.0004 J0.0125
G1 Y1.9063
X0.3122 Y1.9125
X0.31 Y1.9204
X0.3056 Y1.9274
X0.2993 Y1.9329
X0.2918 Y1.9363
X0.2837 Y1.9375
G3 X0.2716 Y1.9246 Z0.043 I0.0004 J-0.0125
G1 X0.2719 Y1.9225
X0.2725 Y1.9204
X0.2734 Y1.9185
X0.2747 Y1.9168
X0.2755 Y1.9159
X0.2906 Y1.8985
G3 X0.2996 Y1.8943 I0.0094 J0.0082
G3 X0.3125 Y1.9063 Z0.035 I0.0004 J0.0125
G1 Y1.9237
Y1.9251
X0.3123 Y1.9266
X0.3119 Y1.928
X0.3114 Y1.9295
X0.3109 Y1.9305
X0.3102 Y1.9315
X0.3085 Y1.9335
X0.3075 Y1.9345
X0.3064 Y1.9353
X0.3046 Y1.9363
X0.3027 Y1.937
X0.3013 Y1.9373
X0.2998 Y1.9375
X0.0016
X-0.0016 Y1.9377
G3 X-0.0142 Y1.9265 I-0.0002 J-0.0125
G1 Y1.9252 Z0.0351
X-0.0137 Y1.923 Z0.0355
X-0.0132 Y1.921 Z0.0364
X-0.0127 Y1.9192 Z0.0376
X-0.0117 Y1.9179 Z0.0391
X-0.0108 Y1.9169 Z0.041
X-0.0101 Y1.9161 Z0.043
X-0.0098 Y1.9156 Z0.0452
X-0.0096 Y1.9155 Z0.0475
Z0.86
X1.0393 Y0.8571
Z0.06
Z0.0475
X1.039 Y0.8572 Z0.0447
X1.0381 Y0.8574 Z0.0421
X1.0367 Y0.8578 Z0.0397
X1.0347 Y0.8583 Z0.0377
X1.0324 Y0.8588 Z0.0362
X1.0299 Y0.8595 Z0.0353
X1.0272 Y0.8602 Z0.035
G3 X0.9591 Y0.87 I-0.0792 J-0.3091
G1 X0.9531
X0.9483 Y0.8664
X0.9441 Y0.8622
X0.9438 Y0.8618
X0.9403 Y0.8563
X0.9382 Y0.8502
X0.9375 Y0.8438
Y0.6442
X0.9378 Y0.638
X0.9388 Y0.6301
X0.9407 Y0.6213
X0.9424 Y0.6156
X0.9447 Y0.61
X0.948 Y0.6036
X0.9527 Y0.596
X0.9594 Y0.587
X0.9647 Y0.5808
X0.9693 Y0.5764
X0.9752 Y0.5714
X0.9802 Y0.5678
X0.9854 Y0.5649
X0.9911 Y0.5631
X0.9971 Y0.5625
G3 X1.0091 Y0.5754 Z0.043 I-0.0004 J0.0125
G1 X1.0088 Y0.5777
X1.0081 Y0.58
X1.007 Y0.582
X1.0055 Y0.5842
X0.9603 Y0.6508
G3 X0.9504 Y0.6562 I-0.0103 J-0.007
G3 X0.9375 Y0.6442 Z0.035 I-0.0004 J-0.0125
G1 Y0.5921
X0.9378 Y0.5861
X0.9401 Y0.5786
X0.9444 Y0.572
X0.9504 Y0.5669
X0.9576 Y0.5636
X0.9653 Y0.5625
G3 X0.9774 Y0.5754 Z0.043 I-0.0004 J0.0125
G1 X0.9771 Y0.5776
X0.9765 Y0.5797
X0.9755 Y0.5816
X0.9742 Y0.5833
X0.9735 Y0.5841
X0.9593 Y0.6
X0.9574 Y0.6017
X0.9553 Y0.603
X0.9529 Y0.6038
X0.9504 Y0.6041
G3 X0.9375 Y0.5921 Z0.035 I-0.0004 J-0.0125
G1 Y0.5747
X0.9377 Y0.5733
X0.938 Y0.5718
X0.9386 Y0.5704
X0.9394 Y0.5689
X0.9397 Y0.5684
X0.9409 Y0.5669
X0.9418 Y0.5661
X0.9426 Y0.5654
X0.944 Y0.5644
X0.9455 Y0.5637
X0.9468 Y0.5631
X0.9479 Y0.5628
X0.9491 Y0.5626
X0.9513 Y0.5625
X1.2292
X1.2368 Y0.5629
X1.2447 Y0.5639
X1.2538 Y0.5659
X1.2596 Y0.5676
X1.2651 Y0.5699
X1.2714 Y0.5732
X1.2788 Y0.5778
X1.2876 Y0.5843
X1.2947 Y0.5905
X1.299 Y0.595
X1.3039 Y0.6009
X1.3072 Y0.6057
X1.3101 Y0.6109
X1.3119 Y0.6165
X1.3125 Y0.6224
G3 X1.2996 Y0.6345 Z0.043 I-0.0125 J-0.0004
G1 X1.2973 Y0.6342
X1.2951 Y0.6335
X1.2931 Y0.6324
X1.2907 Y0.6308
X1.2227 Y0.5854
G3 X1.2172 Y0.5754 I0.0069 J-0.0104
G3 X1.2292 Y0.5625 Z0.035 I0.0125 J-0.0004
G1 X1.2813
X1.2875 Y0.5628
X1.2954 Y0.565
X1.3024 Y0.5694
X1.3079 Y0.5757
X1.3113 Y0.5832
X1.3125 Y0.5913
G3 X1.2996 Y0.6034 Z0.043 I-0.0125 J-0.0004
G1 X1.2975 Y0.6031
X1.2954 Y0.6025
X1.2935 Y0.6016
X1.2918 Y0.6003
X1.2909 Y0.5995
X1.2736 Y0.5844
G3 X1.2693 Y0.5754 I0.0082 J-0.0094
G3 X1.2813 Y0.5625 Z0.035 I0.0125 J-0.0004
G1 X1.2987
X1.3009 Y0.5626
X1.3021 Y0.5628
X1.3032 Y0.5631
X1.3045 Y0.5637
X1.306 Y0.5644
X1.3074 Y0.5654
X1.3082 Y0.5661
X1.3091 Y0.5669
X1.3103 Y0.5684
X1.3106 Y0.5689
X1.3114 Y0.5704
X1.312 Y0.5718
X1.3123 Y0.5733
X1.3125 Y0.5747
Y0.6152
Y0.98
X1.3121 Y0.9875
X1.3111 Y0.9955
X1.3093 Y1.0037
X1.3076 Y1.0094
X1.3053 Y1.0149
X1.302 Y1.0213
X1.2974 Y1.0287
X1.2908 Y1.0376
X1.2848 Y1.0445
X1.2802 Y1.0489
X1.2742 Y1.0539
X1.2695 Y1.0572
X1.2643 Y1.0601
X1.2587 Y1.0619
X1.2528 Y1.0625
G3 X1.2407 Y1.0496 Z0.043 I0.0004 J-0.0125
G1 X1.241 Y1.0473
X1.2417 Y1.0451
X1.2428 Y1.043
X1.2444 Y1.0407
X1.2896 Y0.9734
G3 X1.2996 Y0.9679 I0.0104 J0.007
G3 X1.3125 Y0.98 Z0.035 I0.0004 J0.0125
G1 Y1.0321
X1.3122 Y1.0381
X1.3099 Y1.0458
X1.3056 Y1.0527
X1.2995 Y1.058
X1.2921 Y1.0613
X1.2841 Y1.0625
G3 X1.272 Y1.0496 Z0.043 I0.0004 J-0.0125
G1 X1.2723 Y1.0474
X1.2729 Y1.0454
X1.2739 Y1.0434
X1.2752 Y1.0417
X1.2759 Y1.0409
X1.2907 Y1.0242
G3 X1.2996 Y1.02 I0.0094 J0.0083
G3 X1.3125 Y1.0321 Z0.035 I0.0004 J0.0125
G1 Y1.0495
X1.3124 Y1.0509
X1.3122 Y1.0523
X1.3117 Y1.0538
X1.3111 Y1.0552
X1.3103 Y1.0565
X1.3092 Y1.0579
X1.3077 Y1.0593
X1.3064 Y1.0602
X1.3051 Y1.061
X1.3045 Y1.0613
X1.3031 Y1.0619
X1.3016 Y1.0623
X1.3002 Y1.0625
X1.2987
X1.0208
X1.013 Y1.0621
X1.0051 Y1.0611
X0.9963 Y1.0592
X0.9906 Y1.0575
X0.985 Y1.0552
X0.9787 Y1.0519
X0.9712 Y1.0472
X0.9624 Y1.0407
X0.9555 Y1.0347
X0.9509 Y1.0299
X0.9457 Y1.0237
X0.9428 Y1.0195
X0.9399 Y1.0143
X0.9381 Y1.0087
X0.9375 Y1.0027
G3 X0.9504 Y0.9907 Z0.043 I0.0125 J0.0004
G1 X0.9527 Y0.991
X0.9549 Y0.9917
X0.9569 Y0.9928
X0.9593 Y0.9943
X1.0273 Y1.0396
G3 X1.0328 Y1.0496 I-0.0069 J0.0104
G3 X1.0208 Y1.0625 Z0.035 I-0.0125 J0.0004
G1 X0.9687
X0.9625 Y1.0622
X0.9545 Y1.06
X0.9476 Y1.0556
X0.9421 Y1.0494
X0.9387 Y1.0419
X0.9375 Y1.0337
G3 X0.9504 Y1.0217 Z0.043 I0.0125 J0.0004
G1 X0.9525 Y1.0219
X0.9546 Y1.0225
X0.9565 Y1.0235
X0.9582 Y1.0247
X0.9591 Y1.0255
X0.9764 Y1.0406
G3 X0.9807 Y1.0496 I-0.0082 J0.0094
G3 X0.9687 Y1.0625 Z0.035 I-0.0125 J0.0004
G1 X0.9513
X0.9498
X0.9484 Y1.0623
X0.9469 Y1.0619
X0.9455 Y1.0613
X0.9449 Y1.061
X0.9436 Y1.0602
X0.9423 Y1.0593
X0.9408 Y1.0579
X0.9397 Y1.0565
X0.9389 Y1.0552
X0.9383 Y1.0538
X0.9378 Y1.0523
X0.9376 Y1.0509
X0.9375 Y1.0495
Y0.8438
G3 X0.9492 Y0.8317 I0.0125 J0.0004
G1 X0.95
X0.9521 Y0.8322 Z0.0354
X0.9541 Y0.8327 Z0.0361
X0.956 Y0.8332 Z0.0371
X0.9574 Y0.8344 Z0.0387
X0.9585 Y0.8354 Z0.0406
X0.9594 Y0.8362 Z0.0427
X0.9599 Y0.8366 Z0.0451
X0.9601 Y0.8368 Z0.0475
Z0.86
X2.338 Y2.0701
Z0.025
Z0.0125
X2.3379 Y2.0698 Z0.0097
X2.3375 Y2.069 Z0.0071
X2.3369 Y2.0676 Z0.0047
X2.3361 Y2.0658 Z0.0027
X2.3351 Y2.0636 Z0.0012
X2.3341 Y2.0612 Z0.0003
X2.3329 Y2.0587 Z0.
G3 X2.312 Y1.9932 I0.2918 J-0.1292
G1 X2.3111 Y1.9874
X2.3096 Y1.9816
X2.3075 Y1.9758
X2.3047 Y1.97
X2.301 Y1.9642
X2.3005 Y1.9635
X2.2966 Y1.9584
X2.2947 Y1.9564
X2.2907 Y1.9526
X2.2889 Y1.9512
X2.2826 Y1.9468
X2.28 Y1.9452
X2.2773 Y1.9439
X2.2715 Y1.9414
X2.2657 Y1.9396
X2.26 Y1.9384
X2.2542 Y1.9378
X2.2484 Y1.9375
X2.0225
X2.0127 Y1.937
X2.0047 Y1.936
X1.9962 Y1.9341
X1.9905 Y1.9324
X1.9849 Y1.9301
X1.9786 Y1.9268
X1.9711 Y1.9222
X1.9622 Y1.9156
X1.9555 Y1.9097
X1.951 Y1.9052
X1.946 Y1.8992
X1.9428 Y1.8945
X1.9399 Y1.8893
X1.9381 Y1.8837
X1.9375 Y1.8778
G3 X1.9504 Y1.8657 Z0.008 I0.0125 J0.0004
G1 X1.9527 Y1.866
X1.9548 Y1.8667
X1.9568 Y1.8677
X1.9593 Y1.8693
X2.0289 Y1.9145
G3 X2.0346 Y1.9246 I-0.0068 J0.0105
G3 X2.0225 Y1.9375 Z0. I-0.0125 J0.0004
G1 X1.9672
X1.9613 Y1.9372
X1.9537 Y1.9349
X1.947 Y1.9305
X1.9419 Y1.9245
X1.9386 Y1.9173
X1.9375 Y1.9095
G3 X1.9504 Y1.8974 Z0.008 I0.0125 J0.0004
G1 X1.9526 Y1.8977
X1.9547 Y1.8983
X1.9566 Y1.8993
X1.9583 Y1.9006
X1.9591 Y1.9013
X1.9752 Y1.9157
X1.9769 Y1.9176
X1.9781 Y1.9197
X1.979 Y1.9221
X1.9793 Y1.9246
G3 X1.9672 Y1.9375 Z0. I-0.0125 J0.0004
G1 X1.9502
X1.9487 Y1.9373
X1.9473 Y1.937
X1.9454 Y1.9363
X1.9436 Y1.9353
X1.9425 Y1.9345
X1.9415 Y1.9335
X1.9398 Y1.9315
X1.9391 Y1.9305
X1.9386 Y1.9295
X1.9381 Y1.928
X1.9377 Y1.9266
X1.9375 Y1.9251
Y1.9237
Y0.0073
X1.9374 Y0.0015
Y-0.0002
G3 X1.9598 Y-0.0078 I0.0125 J0.0001
G1 X1.9615 Y-0.0056 Z0.0003
X1.9631 Y-0.0035 Z0.0012
X1.9646 Y-0.0016 Z0.0027
X1.9658 Y-0.0001 Z0.0047
X1.9667 Y0.0011 Z0.0071
X1.9672 Y0.0019 Z0.0097
X1.9674 Y0.0021 Z0.0125
Z0.86
X0.4478 Y-0.0912
Z0.025
Z0.0125
X0.4475 Y-0.091 Z0.0097
X0.4467 Y-0.0905 Z0.0071
X0.4455 Y-0.0897 Z0.0047
X0.4438 Y-0.0886 Z0.0027
X0.4418 Y-0.0873 Z0.0012
X0.4396 Y-0.0858 Z0.0003
X0.4373 Y-0.0843 Z0.
G3 X0.3722 Y-0.0621 I-0.0758 J-0.1159
G1 X0.3664 Y-0.0619
X0.3606 Y-0.0607
X0.3549 Y-0.0591
X0.3491 Y-0.0567
X0.3433 Y-0.0538
X0.3375 Y-0.0498
X0.3346 Y-0.0476
X0.3316 Y-0.0448
X0.3259 Y-0.0384
X0.3223 Y-0.0332
X0.3201 Y-0.0297
X0.319 Y-0.0274
X0.3164 Y-0.0216
X0.3143 Y-0.0145
X0.3135 Y-0.0101
X0.3127 Y-0.0043
X0.3126 Y0.0015
X0.3125 Y0.0073
Y1.8542
X0.312 Y1.8635
X0.3109 Y1.8719
X0.3097 Y1.8779
X0.3079 Y1.8836
X0.3056 Y1.8892
X0.3023 Y1.8956
X0.2977 Y1.9031
X0.291 Y1.9121
X0.2848 Y1.9193
X0.2802 Y1.9238
X0.2741 Y1.9289
X0.2695 Y1.9322
X0.2643 Y1.9351
X0.2586 Y1.9369
X0.2526 Y1.9375
G3 X0.2406 Y1.9246 Z0.008 I0.0004 J-0.0125
G1 X0.2409 Y1.9223
X0.2416 Y1.9201
X0.2427 Y1.9181
X0.2442 Y1.9157
X0.2896 Y1.8477
G3 X0.2996 Y1.8422 I0.0104 J0.0069
G3 X0.3125 Y1.8542 Z0. I0.0004 J0.0125
G1 Y1.9063
X0.3122 Y1.9125
X0.31 Y1.9204
X0.3056 Y1.9274
X0.2993 Y1.9329
X0.2918 Y1.9363
X0.2837 Y1.9375
G3 X0.2716 Y1.9246 Z0.008 I0.0004 J-0.0125
G1 X0.2719 Y1.9225
X0.2725 Y1.9204
X0.2734 Y1.9185
X0.2747 Y1.9168
X0.2755 Y1.9159
X0.2906 Y1.8985
G3 X0.2996 Y1.8943 I0.0094 J0.0082
G3 X0.3125 Y1.9063 Z0. I0.0004 J0.0125
G1 Y1.9237
Y1.9251
X0.3123 Y1.9266
X0.3119 Y1.928
X0.3114 Y1.9295
X0.3109 Y1.9305
X0.3102 Y1.9315
X0.3085 Y1.9335
X0.3075 Y1.9345
X0.3064 Y1.9353
X0.3046 Y1.9363
X0.3027 Y1.937
X0.3013 Y1.9373
X0.2998 Y1.9375
X0.0016
X-0.0016 Y1.9377
G3 X-0.0142 Y1.9265 I-0.0002 J-0.0125
G1 Y1.9252 Z0.0001
X-0.0137 Y1.923 Z0.0005
X-0.0132 Y1.921 Z0.0014
X-0.0127 Y1.9192 Z0.0026
X-0.0117 Y1.9179 Z0.0041
X-0.0108 Y1.9169 Z0.006
X-0.0101 Y1.9161 Z0.008
X-0.0098 Y1.9156 Z0.0102
X-0.0096 Y1.9155 Z0.0125
Z0.86
X1.0393 Y0.8571
Z0.025
Z0.0125
X1.039 Y0.8572 Z0.0097
X1.0381 Y0.8574 Z0.0071
X1.0367 Y0.8578 Z0.0047
X1.0347 Y0.8583 Z0.0027
X1.0324 Y0.8588 Z0.0012
X1.0299 Y0.8595 Z0.0003
X1.0272 Y0.8602 Z0.
G3 X0.9591 Y0.87 I-0.0792 J-0.3091
G1 X0.9531
X0.9483 Y0.8664
X0.9441 Y0.8622
X0.9438 Y0.8618
X0.9403 Y0.8563
X0.9382 Y0.8502
X0.9375 Y0.8438
Y0.6442
X0.9378 Y0.638
X0.9388 Y0.6301
X0.9407 Y0.6213
X0.9424 Y0.6156
X0.9447 Y0.61
X0.948 Y0.6036
X0.9527 Y0.596
X0.9594 Y0.587
X0.9647 Y0.5808
X0.9693 Y0.5764
X0.9752 Y0.5714
X0.9802 Y0.5678
X0.9854 Y0.5649
X0.9911 Y0.5631
X0.9971 Y0.5625
G3 X1.0091 Y0.5754 Z0.008 I-0.0004 J0.0125
G1 X1.0088 Y0.5777
X1.0081 Y0.58
X1.007 Y0.582
X1.0055 Y0.5842
X0.9603 Y0.6508
G3 X0.9504 Y0.6562 I-0.0103 J-0.007
G3 X0.9375 Y0.6442 Z0. I-0.0004 J-0.0125
G1 Y0.5921
X0.9378 Y0.5861
X0.9401 Y0.5786
X0.9444 Y0.572
X0.9504 Y0.5669
X0.9576 Y0.5636
X0.9653 Y0.5625
G3 X0.9774 Y0.5754 Z0.008 I-0.0004 J0.0125
G1 X0.9771 Y0.5776
X0.9765 Y0.5797
X0.9755 Y0.5816
X0.9742 Y0.5833
X0.9735 Y0.5841
X0.9593 Y0.6
X0.9574 Y0.6017
X0.9553 Y0.603
X0.9529 Y0.6038
X0.9504 Y0.6041
G3 X0.9375 Y0.5921 Z0. I-0.0004 J-0.0125
G1 Y0.5747
X0.9377 Y0.5733
X0.938 Y0.5718
X0.9386 Y0.5704
X0.9394 Y0.5689
X0.9397 Y0.5684
X0.9409 Y0.5669
X0.9418 Y0.5661
X0.9426 Y0.5654
X0.944 Y0.5644
X0.9455 Y0.5637
X0.9468 Y0.5631
X0.9479 Y0.5628
X0.9491 Y0.5626
X0.9513 Y0.5625
X1.2292
X1.2368 Y0.5629
X1.2447 Y0.5639
X1.2538 Y0.5659
X1.2596 Y0.5676
X1.2651 Y0.5699
X1.2714 Y0.5732
X1.2788 Y0.5778
X1.2876 Y0.5843
X1.2947 Y0.5905
X1.299 Y0.595
X1.3039 Y0.6009
X1.3072 Y0.6057
X1.3101 Y0.6109
X1.3119 Y0.6165
X1.3125 Y0.6224
G3 X1.2996 Y0.6345 Z0.008 I-0.0125 J-0.0004
G1 X1.2973 Y0.6342
X1.2951 Y0.6335
X1.2931 Y0.6324
X1.2907 Y0.6308
X1.2227 Y0.5854
G3 X1.2172 Y0.5754 I0.0069 J-0.0104
G3 X1.2292 Y0.5625 Z0. I0.0125 J-0.0004
G1 X1.2813
X1.2875 Y0.5628
X1.2954 Y0.565
X1.3024 Y0.5694
X1.3079 Y0.5757
X1.3113 Y0.5832
X1.3125 Y0.5913
G3 X1.2996 Y0.6034 Z0.008 I-0.0125 J-0.0004
G1 X1.2975 Y0.6031
X1.2954 Y0.6025
X1.2935 Y0.6016
X1.2918 Y0.6003
X1.2909 Y0.5995
X1.2736 Y0.5844
G3 X1.2693 Y0.5754 I0.0082 J-0.0094
G3 X1.2813 Y0.5625 Z0. I0.0125 J-0.0004
G1 X1.2987
X1.3009 Y0.5626
X1.3021 Y0.5628
X1.3032 Y0.5631
X1.3045 Y0.5637
X1.306 Y0.5644
X1.3074 Y0.5654
X1.3082 Y0.5661
X1.3091 Y0.5669
X1.3103 Y0.5684
X1.3106 Y0.5689
X1.3114 Y0.5704
X1.312 Y0.5718
X1.3123 Y0.5733
X1.3125 Y0.5747
Y0.6152
Y0.98
X1.3121 Y0.9875
X1.3111 Y0.9955
X1.3093 Y1.0037
X1.3076 Y1.0094
X1.3053 Y1.0149
X1.302 Y1.0213
X1.2974 Y1.0287
X1.2908 Y1.0376
X1.2848 Y1.0445
X1.2802 Y1.0489
X1.2742 Y1.0539
X1.2695 Y1.0572
X1.2643 Y1.0601
X1.2587 Y1.0619
X1.2528 Y1.0625
G3 X1.2407 Y1.0496 Z0.008 I0.0004 J-0.0125
G1 X1.241 Y1.0473
X1.2417 Y1.0451
X1.2428 Y1.043
X1.2444 Y1.0407
X1.2896 Y0.9734
G3 X1.2996 Y0.9679 I0.0104 J0.007
G3 X1.3125 Y0.98 Z0. I0.0004 J0.0125
G1 Y1.0321
X1.3122 Y1.0381
X1.3099 Y1.0458
X1.3056 Y1.0527
X1.2995 Y1.058
X1.2921 Y1.0613
X1.2841 Y1.0625
G3 X1.272 Y1.0496 Z0.008 I0.0004 J-0.0125
G1 X1.2723 Y1.0474
X1.2729 Y1.0454
X1.2739 Y1.0434
X1.2752 Y1.0417
X1.2759 Y1.0409
X1.2907 Y1.0242
G3 X1.2996 Y1.02 I0.0094 J0.0083
G3 X1.3125 Y1.0321 Z0. I0.0004 J0.0125
G1 Y1.0495
X1.3124 Y1.0509
X1.3122 Y1.0523
X1.3117 Y1.0538
X1.3111 Y1.0552
X1.3103 Y1.0565
X1.3092 Y1.0579
X1.3077 Y1.0593
X1.3064 Y1.0602
X1.3051 Y1.061
X1.3045 Y1.0613
X1.3031 Y1.0619
X1.3016 Y1.0623
X1.3002 Y1.0625
X1.2987
X1.0208
X1.013 Y1.0621
X1.0051 Y1.0611
X0.9963 Y1.0592
X0.9906 Y1.0575
X0.985 Y1.0552
X0.9787 Y1.0519
X0.9712 Y1.0472
X0.9624 Y1.0407
X0.9555 Y1.0347
X0.9509 Y1.0299
X0.9457 Y1.0237
X0.9428 Y1.0195
X0.9399 Y1.0143
X0.9381 Y1.0087
X0.9375 Y1.0027
G3 X0.9504 Y0.9907 Z0.008 I0.0125 J0.0004
G1 X0.9527 Y0.991
X0.9549 Y0.9917
X0.9569 Y0.9928
X0.9593 Y0.9943
X1.0273 Y1.0396
G3 X1.0328 Y1.0496 I-0.0069 J0.0104
G3 X1.0208 Y1.0625 Z0. I-0.0125 J0.0004
G1 X0.9687
X0.9625 Y1.0622
X0.9545 Y1.06
X0.9476 Y1.0556
X0.9421 Y1.0494
X0.9387 Y1.0419
X0.9375 Y1.0337
G3 X0.9504 Y1.0217 Z0.008 I0.0125 J0.0004
G1 X0.9525 Y1.0219
X0.9546 Y1.0225
X0.9565 Y1.0235
X0.9582 Y1.0247
X0.9591 Y1.0255
X0.9764 Y1.0406
G3 X0.9807 Y1.0496 I-0.0082 J0.0094
G3 X0.9687 Y1.0625 Z0. I-0.0125 J0.0004
G1 X0.9513
X0.9498
X0.9484 Y1.0623
X0.9469 Y1.0619
X0.9455 Y1.0613
X0.9449 Y1.061
X0.9436 Y1.0602
X0.9423 Y1.0593
X0.9408 Y1.0579
X0.9397 Y1.0565
X0.9389 Y1.0552
X0.9383 Y1.0538
X0.9378 Y1.0523
X0.9376 Y1.0509
X0.9375 Y1.0495
Y0.8438
G3 X0.9601 Y0.8368 I0.0125 J0.0004
G1 X0.9617 Y0.839 Z0.0003
X0.9633 Y0.8412 Z0.0012
X0.9647 Y0.8431 Z0.0027
X0.9659 Y0.8447 Z0.0047
X0.9667 Y0.8459 Z0.0071
X0.9673 Y0.8466 Z0.0097
X0.9675 Y0.8469 Z0.0125
Z1.26
G53 Z
M5
G53 P10
