[test_tenon_t3]
[Machine]
[  vendor: Nova Labs]
[  model: ShopSaber]
[  description: Generic 3-axis]
[T1 D=0.5 CR=0. - ZMIN=0. - flat end mill]
G90
G20
[When using Fusion for Personal Use, the feedrate of rapid]
[moves is reduced to match the feedrate of cutting moves,]
[which can increase machining time. Unrestricted rapid moves]
[are available with a Fusion Subscription.]
G53 Z
[Adaptive6]
M0
[MANUAL TOOL CHANGE TO T1]
S10000
M3
G4 X4.
G90
G0 X2.6632 Y2.1819
Z1.26
G1 Z0.86 F40.
Z0.1
Z0.05 F20.
X2.663 Y2.1817 Z0.0444 F20.
X2.6625 Y2.1809 Z0.0389
X2.6616 Y2.1796 Z0.0335
X2.6603 Y2.1779 Z0.0283
X2.6588 Y2.1757 Z0.0234
X2.6569 Y2.173 Z0.0188
X2.6547 Y2.17 Z0.0146
X2.6523 Y2.1666 Z0.0109
X2.6497 Y2.1628 Z0.0077
X2.6468 Y2.1588 Z0.005
X2.6438 Y2.1546 Z0.0028
X2.6407 Y2.1502 Z0.0013
X2.6375 Y2.1457 Z0.0003
X2.6343 Y2.1411 Z0.
G3 X2.5004 Y1.9009 I1.0417 J-0.7378
G1 X2.4968 Y1.8915 F40.
X2.4897 Y1.8772
X2.4816 Y1.8623
X2.4718 Y1.8473
X2.4519 Y1.8207
X2.4488 Y1.8174
X2.4398 Y1.8076
X2.4261 Y1.79
X2.4113 Y1.7674
X2.3954 Y1.7385
X2.3786 Y1.7009
X2.3615 Y1.6526
X2.3483 Y1.603
X2.3379 Y1.5528
X2.3298 Y1.5022
X2.3234 Y1.4513
X2.3184 Y1.4003
X2.3144 Y1.3492
X2.3113 Y1.298
X2.3089 Y1.2468
X2.3069 Y1.1956
X2.3054 Y1.1443
X2.3042 Y1.093
X2.3032 Y1.0418
X2.3024 Y0.9905
X2.3018 Y0.9392
X2.3013 Y0.888
X2.3009 Y0.8367
X2.3006 Y0.7854
X2.3004 Y0.7342
X2.3 Y0.6316
X2.2998 Y0.5291
X2.2995 Y0.3753
X2.2994 Y0.2214
X2.2852 Y0.1722
X2.2558 Y0.1302
X2.2182 Y0.0952
X2.1956 Y0.08
X2.1815 Y0.0688
X2.1692 Y0.0556
X2.1592 Y0.0407
X2.1516 Y0.0244
X2.1465 Y0.0071
X2.1442 Y-0.0108
Y-0.0116 F20.
X2.1447 Y-0.0159 Z0.0004
X2.1453 Y-0.02 Z0.0014
X2.1458 Y-0.024 Z0.003
X2.1471 Y-0.0274 Z0.0051
X2.1483 Y-0.0305 Z0.0076
X2.1494 Y-0.0333 Z0.0106
X2.1504 Y-0.0356 Z0.014
X2.1513 Y-0.0372 Z0.0171
X2.152 Y-0.0384 Z0.0204
X2.1526 Y-0.0392 Z0.0238
X2.1529 Y-0.0398 Z0.0273
X2.153 Y-0.0399 Z0.0309
Z0.86 F40.
X2.5249 Y1.8428 F40.
Z0.1
Z0.05 F20.
X2.5246 Y1.8427 Z0.0444 F20.
X2.5237 Y1.8425 Z0.0389
X2.5222 Y1.8422 Z0.0335
X2.5201 Y1.8417 Z0.0283
X2.5175 Y1.8411 Z0.0234
X2.5143 Y1.8404 Z0.0188
X2.5107 Y1.8395 Z0.0146
X2.5066 Y1.8386 Z0.0109
X2.5021 Y1.8376 Z0.0077
X2.4974 Y1.8364 Z0.005
X2.4923 Y1.8353 Z0.0028
X2.4871 Y1.8341 Z0.0013
X2.4817 Y1.8328 Z0.0003
X2.4762 Y1.8316 Z0.
G3 X2.4488 Y1.8174 I0.014 J-0.0607
G1 X2.4369 Y1.806 F40.
X2.4219 Y1.7923
X2.4164 Y1.7874
X2.4069 Y1.7809
X2.3919 Y1.7712
X2.3769 Y1.7618
X2.3685 Y1.7575
X2.3619 Y1.7545
X2.3537 Y1.751
X2.3424 Y1.7455
X2.3294 Y1.7379
X2.3148 Y1.7276
X2.2992 Y1.7147
X2.2824 Y1.6983
X2.2648 Y1.6781
X2.246 Y1.6528
X2.2266 Y1.6214
X2.2064 Y1.5824
X2.1866 Y1.5351
X2.1705 Y1.4864
X2.1573 Y1.4368
X2.1476 Y1.3913
X2.1461 Y1.3832
X2.1453 Y1.3751
X2.145 Y1.3669
Y0.0062
X2.1442 Y-0.0108
G3 X2.1529 Y-0.0398 Z0.0031 I0.05 J-0.0008 F20.
G3 X2.1934 Y-0.0616 Z0.008 I0.0413 J0.0282 F40.
G3 X2.2439 Y-0.0168 I0.0009 J0.05
G1 X2.4213 Y1.6992
G3 X2.4182 Y1.7223 I-0.0497 J0.0051
G3 X2.3839 Y1.7528 Z0.0031 I-0.0467 J-0.018
G3 X2.3537 Y1.751 Z0. I-0.0123 J-0.0485 F20.
G1 X2.3469 Y1.7481 F40.
X2.3169 Y1.7387
X2.3019 Y1.7356
X2.2869 Y1.7329
X2.2719 Y1.7314
X2.2637 Y1.7309
X2.2529 Y1.7298
X2.2408 Y1.7275
X2.2267 Y1.7236
X2.2123 Y1.7184
X2.1979 Y1.7105
X2.1848 Y1.7007
X2.1731 Y1.689
X2.1633 Y1.6759
X2.1554 Y1.6615
X2.1497 Y1.6461
X2.1462 Y1.63
X2.145 Y1.6136
G3 X2.1552 Y1.5851 Z0.0031 I0.05 J0.0017 F20.
G3 X2.1967 Y1.5654 Z0.008 I0.0398 J0.0303 F40.
G3 X2.2292 Y1.5789 I-0.0017 J0.05
G1 X2.299 Y1.6445
G3 X2.3148 Y1.6821 I-0.0342 J0.0364
G3 X2.2927 Y1.7224 Z0.0031 I-0.05 J-0.0011
G3 X2.2637 Y1.7309 Z0. I-0.0279 J-0.0415 F20.
G1 X2.2569 Y1.7305 F40.
X2.242 Y1.73
X2.197
X2.1895 Y1.7296
X2.182 Y1.7281
X2.18 Y1.7275
X2.1735 Y1.7249
X2.167 Y1.7211
X2.1622 Y1.7174
X2.1575 Y1.7126
X2.1545 Y1.7088
X2.152 Y1.705
X2.1484 Y1.6976
X2.1461 Y1.6901
X2.1451 Y1.6826
X2.145 Y1.6677
Y1.3669
G3 X2.1553 Y1.3382 I0.05 J0.0017 F20.
G1 X2.1587 Y1.3338 Z0.0003
X2.162 Y1.3294 Z0.0013
X2.1653 Y1.3251 Z0.0028
X2.1685 Y1.321 Z0.005
X2.1714 Y1.3171 Z0.0077
X2.1742 Y1.3135 Z0.0109
X2.1768 Y1.3102 Z0.0146
X2.179 Y1.3072 Z0.0188
X2.181 Y1.3046 Z0.0234
X2.1826 Y1.3025 Z0.0283
X2.184 Y1.3008 Z0.0335
X2.1849 Y1.2995 Z0.0389
X2.1855 Y1.2988 Z0.0444
X2.1857 Y1.2985 Z0.05
Z0.86 F40.
X0.5524 Y-0.4205 F40.
Z0.1
Z0.05 F20.
X0.5521 Y-0.4203 Z0.0444 F20.
X0.5514 Y-0.4197 Z0.0389
X0.5501 Y-0.4188 Z0.0335
X0.5484 Y-0.4175 Z0.0283
X0.5463 Y-0.4159 Z0.0234
X0.5437 Y-0.4139 Z0.0188
X0.5407 Y-0.4117 Z0.0146
X0.5373 Y-0.4092 Z0.0109
X0.5337 Y-0.4064 Z0.0077
X0.5297 Y-0.4035 Z0.005
X0.5256 Y-0.4004 Z0.0028
X0.5213 Y-0.3972 Z0.0013
X0.5168 Y-0.3939 Z0.0003
X0.5124 Y-0.3905 Z0.
G3 X0.2757 Y-0.2504 I-0.7649 J-1.0219
G1 X0.2629 Y-0.2451 F40.
X0.2479 Y-0.2377
X0.2329 Y-0.2292
X0.2179 Y-0.2189
X0.1986 Y-0.2034
X0.188 Y-0.1947
X0.187 Y-0.1937
X0.1826 Y-0.1895
X0.1422 Y-0.158
X0.1054 Y-0.1223
X0.0751 Y-0.0809
X0.0504 Y-0.036
X0.0305 Y0.0112
X0.0144 Y0.0599
X0.0014 Y0.1095
X-0.0089 Y0.1598
X-0.0172 Y0.2104
X-0.0238 Y0.2612
X-0.029 Y0.3122
X-0.0332 Y0.3633
X-0.0365 Y0.4145
X-0.0392 Y0.4657
X-0.0413 Y0.5169
X-0.0429 Y0.5682
X-0.0443 Y0.6194
X-0.0453 Y0.6707
X-0.0462 Y0.7219
X-0.0468 Y0.7732
X-0.0474 Y0.8245
X-0.0478 Y0.8757
X-0.0482 Y0.927
X-0.0484 Y0.9783
X-0.0487 Y1.0296
X-0.049 Y1.1321
X-0.0494 Y1.2859
X-0.0496 Y1.491
X-0.0498 Y1.6512
X-0.051 Y1.6678
X-0.0545 Y1.6841
X-0.0603 Y1.6997
X-0.0683 Y1.7143
X-0.0783 Y1.7276
X-0.0901 Y1.7394
X-0.1034 Y1.7493
X-0.1181 Y1.7573
G3 X-0.1484 Y1.7598 I-0.0191 J-0.0462 F20.
G1 X-0.1538 Y1.7586 Z0.0003
X-0.1592 Y1.7573 Z0.0013
X-0.1645 Y1.7561 Z0.0028
X-0.1695 Y1.755 Z0.005
X-0.1743 Y1.7539 Z0.0077
X-0.1788 Y1.7528 Z0.0109
X-0.1828 Y1.7519 Z0.0146
X-0.1865 Y1.7511 Z0.0188
X-0.1896 Y1.7503 Z0.0234
X-0.1923 Y1.7497 Z0.0283
X-0.1944 Y1.7492 Z0.0335
X-0.1959 Y1.7489 Z0.0389
X-0.1968 Y1.7487 Z0.0444
X-0.1971 Y1.7486 Z0.05
Z0.86 F40.
X0.2123 Y-0.2699 F40.
Z0.1
Z0.05 F20.
X0.2122 Y-0.2696 Z0.0444 F20.
X0.212 Y-0.2687 Z0.0389
X0.2117 Y-0.2672 Z0.0335
X0.2112 Y-0.2651 Z0.0283
X0.2106 Y-0.2624 Z0.0234
X0.2098 Y-0.2593 Z0.0188
X0.209 Y-0.2556 Z0.0146
X0.2081 Y-0.2515 Z0.0109
X0.2071 Y-0.2471 Z0.0077
X0.206 Y-0.2423 Z0.005
X0.2048 Y-0.2372 Z0.0028
X0.2036 Y-0.232 Z0.0013
X0.2024 Y-0.2266 Z0.0003
X0.2011 Y-0.2211 Z0.
G3 X0.187 Y-0.1937 I-0.0607 J-0.0139
G1 X0.173 Y-0.1789 F40.
X0.1683 Y-0.1735
X0.158 Y-0.1605
X0.1377 Y-0.1286
X0.1306 Y-0.1136
X0.128 Y-0.1081
X0.1237 Y-0.0986
X0.1189 Y-0.0836
X0.113 Y-0.0644
X0.1109 Y-0.0537
X0.1083 Y-0.0387
X0.1064 Y-0.0238
X0.1057 Y-0.0088
X0.105 Y0.0062
Y1.5928
X0.1032 Y1.6292
X0.0997 Y1.6554
X0.0996 Y1.6559
X0.095 Y1.6711
X0.0879 Y1.6854
X0.0784 Y1.6981
X0.0669 Y1.7092
X0.0538 Y1.7181
X0.0393 Y1.7246
X0.0239 Y1.7286
X0.008 Y1.73
G3 X-0.0208 Y1.7209 Z0.0031 I-0.0001 J-0.05 F20.
G3 X-0.042 Y1.6801 Z0.008 I0.0288 J-0.0409 F40.
G3 X-0.0358 Y1.6559 I0.05 J-0.0001
G1 X0.0112 Y1.5704
G3 X0.0533 Y1.5446 I0.0438 J0.0241
G3 X0.0948 Y1.5643 Z0.0031 I0.0017 J0.05
G3 X0.105 Y1.5928 Z0. I-0.0398 J0.0303 F20.
G1 Y1.6677 F40.
X0.1049 Y1.6826
X0.1039 Y1.6901
X0.1016 Y1.6976
X0.098 Y1.705
X0.0955 Y1.7088
X0.0925 Y1.7126
X0.0878 Y1.7174
X0.083 Y1.7211
X0.0765 Y1.7249
X0.07 Y1.7275
X0.068 Y1.7281
X0.0605 Y1.7296
X0.053 Y1.73
X0.008
X-0.0069 Y1.7305
G3 X-0.0359 Y1.7213 I-0.0001 J-0.05 F20.
G1 X-0.0405 Y1.7181 Z0.0003
X-0.045 Y1.7149 Z0.0013
X-0.0494 Y1.7118 Z0.0028
X-0.0536 Y1.7088 Z0.005
X-0.0576 Y1.7059 Z0.0077
X-0.0614 Y1.7033 Z0.0109
X-0.0648 Y1.7009 Z0.0146
X-0.0678 Y1.6987 Z0.0188
X-0.0705 Y1.6968 Z0.0234
X-0.0727 Y1.6953 Z0.0283
X-0.0744 Y1.694 Z0.0335
X-0.0757 Y1.6931 Z0.0389
X-0.0765 Y1.6926 Z0.0444
X-0.0767 Y1.6924 Z0.05
Z1.26 F40.
G53 Z
M5
G53 P10
