[test_tenon_t3]
[Machine]
[  vendor: Nova Labs]
[  model: ShopSaber]
[  description: Generic 3-axis]
[T3 D=0.25 CR=0. - ZMIN=0. - flat end mill]
G90
G20
[When using Fusion for Personal Use, the feedrate of rapid]
[moves is reduced to match the feedrate of cutting moves,]
[which can increase machining time. Unrestricted rapid moves]
[are available with a Fusion Subscription.]
G53 Z
[Adaptive6]
M0
[MANUAL TOOL CHANGE TO T3]
S10000
M3
G4 X4.
G90
G0 X2.475 Y2.0554
Z1.26
G1 Z0.86 F20.
Z0.105
Z0.08
X2.4748 Y2.0551 Z0.0761 F20.
X2.4741 Y2.0545 Z0.0723
X2.4731 Y2.0534 Z0.0687
X2.4717 Y2.0519 Z0.0653
X2.47 Y2.05 Z0.0623
X2.4679 Y2.0478 Z0.0598
X2.4656 Y2.0454 Z0.0577
X2.4631 Y2.0428 Z0.0562
X2.4605 Y2.04 Z0.0553
X2.4579 Y2.0371 Z0.055
G3 X2.3751 Y1.9273 I0.4653 J-0.4369
G1 X2.3735 Y1.9245
X2.3653 Y1.9128
X2.3605 Y1.9061
X2.3571 Y1.9024
X2.3527 Y1.8979
X2.3439 Y1.8881
X2.337 Y1.879
X2.3295 Y1.8673
X2.3215 Y1.8523
X2.3131 Y1.8327
X2.3042 Y1.8067
X2.2953 Y1.7716
X2.2892 Y1.7359
X2.2849 Y1.7
X2.2819 Y1.6639
X2.2798 Y1.6278
X2.2784 Y1.5917
X2.2773 Y1.5555
X2.2766 Y1.5193
X2.2761 Y1.4831
X2.2757 Y1.447
X2.2755 Y1.4108
X2.2753 Y1.3746
X2.275 Y1.3022
X2.2749 Y1.1937
X2.2747 Y0.9404
X2.2745 Y0.1082
X2.2687 Y0.0911
X2.2497 Y0.0603
X2.2221 Y0.0369
X2.1904 Y0.0195
X2.1565 Y0.0068
X2.1215 Y-0.0023
X2.0859 Y-0.0089
X2.0576 Y-0.0126
X2.0456 Y-0.0155
X2.0345 Y-0.0208
X2.0248 Y-0.0283
X2.0169 Y-0.0377
X2.0111 Y-0.0486
G3 X2.0188 Y-0.0765 I0.0235 J-0.0086
G1 X2.0218 Y-0.079 Z0.0553
X2.0248 Y-0.0814 Z0.0562
X2.0276 Y-0.0837 Z0.0577
X2.0302 Y-0.0858 Z0.0598
X2.0325 Y-0.0877 Z0.0623
X2.0345 Y-0.0893 Z0.0653
X2.036 Y-0.0906 Z0.0687
X2.0372 Y-0.0915 Z0.0723
X2.0379 Y-0.0921 Z0.0761
X2.0382 Y-0.0923 Z0.08
Z0.86
X0.4248 Y-0.2317
Z0.105
Z0.08
X0.4246 Y-0.2315 Z0.0761
X0.424 Y-0.2309 Z0.0723
X0.423 Y-0.2298 Z0.0687
X0.4215 Y-0.2283 Z0.0653
X0.4198 Y-0.2265 Z0.0623
X0.4177 Y-0.2243 Z0.0598
X0.4154 Y-0.2219 Z0.0577
X0.4129 Y-0.2193 Z0.0562
X0.4103 Y-0.2165 Z0.0553
X0.4075 Y-0.2137 Z0.055
G3 X0.3022 Y-0.1253 I-0.4607 J-0.4417
G1 X0.2954 Y-0.121
X0.2871 Y-0.1151
X0.279 Y-0.1082
X0.2707 Y-0.1005
X0.2633 Y-0.0939
X0.2543 Y-0.087
X0.2426 Y-0.0795
X0.2276 Y-0.0715
X0.2081 Y-0.063
X0.1822 Y-0.0541
X0.1471 Y-0.0452
X0.1115 Y-0.039
X0.0941 Y-0.0339
X0.0627 Y-0.016
X0.0386 Y0.011
X0.0208 Y0.0425
X0.0078 Y0.0763
X-0.0017 Y0.1112
X-0.0084 Y0.1468
X-0.0133 Y0.1826
X-0.0167 Y0.2186
X-0.0191 Y0.2547
X-0.0209 Y0.2909
X-0.0221 Y0.327
X-0.0229 Y0.3632
X-0.0235 Y0.3994
X-0.024 Y0.4356
X-0.0243 Y0.4717
X-0.0245 Y0.5079
X-0.0246 Y0.5441
X-0.0248 Y0.6165
X-0.0249 Y0.725
X-0.025 Y1.0145
Y1.7381
Y1.8151
X-0.0261 Y1.8264
X-0.0294 Y1.8374
X-0.0348 Y1.8475
X-0.0421 Y1.8563
X-0.0509 Y1.8636
X-0.061 Y1.869
G3 X-0.089 Y1.8615 I-0.0088 J-0.0234
G1 X-0.0915 Y1.8585 Z0.0553
X-0.0939 Y1.8555 Z0.0562
X-0.0962 Y1.8528 Z0.0577
X-0.0984 Y1.8502 Z0.0598
X-0.1003 Y1.8479 Z0.0623
X-0.1019 Y1.8459 Z0.0653
X-0.1032 Y1.8443 Z0.0687
X-0.1042 Y1.8432 Z0.0723
X-0.1048 Y1.8425 Z0.0761
X-0.105 Y1.8422 Z0.08
Z0.86
X0.2919 Y-0.1518
Z0.105
Z0.08
X0.2918 Y-0.1515 Z0.0761
X0.2916 Y-0.1507 Z0.0723
X0.2912 Y-0.1492 Z0.0687
X0.2907 Y-0.1472 Z0.0653
X0.2901 Y-0.1448 Z0.0623
X0.2893 Y-0.1419 Z0.0598
X0.2885 Y-0.1386 Z0.0577
X0.2876 Y-0.1351 Z0.0562
X0.2866 Y-0.1314 Z0.0553
X0.2856 Y-0.1276 Z0.055
G3 X0.2707 Y-0.1005 I-0.0603 J-0.0156
G1 X0.2689 Y-0.0987
X0.2618 Y-0.0905
X0.2558 Y-0.0823
X0.2543 Y-0.0801
X0.2505 Y-0.074
X0.2461 Y-0.0663
X0.2408 Y-0.0531
X0.2382 Y-0.0477
X0.2341 Y-0.0406
X0.2288 Y-0.0329
X0.2225 Y-0.0252
X0.1722 Y0.0268
X0.1508 Y0.056
X0.1334 Y0.0878
X0.1196 Y0.1212
X0.1087 Y0.1557
X0.1004 Y0.1909
X0.094 Y0.2265
X0.0892 Y0.2624
X0.0855 Y0.2984
X0.0828 Y0.3345
X0.0807 Y0.3706
X0.0792 Y0.4067
X0.0781 Y0.4429
X0.0773 Y0.4791
X0.0767 Y0.5152
X0.0762 Y0.5514
X0.0759 Y0.5876
X0.0756 Y0.6238
X0.0755 Y0.66
X0.0752 Y0.7323
X0.0751 Y0.8409
X0.075 Y1.058
Y1.7092
X0.0747 Y1.7454
X0.0728 Y1.7737
X0.0695 Y1.796
X0.0653 Y1.8143
X0.0604 Y1.8255
X0.0532 Y1.8355
X0.0441 Y1.8437
X0.0335 Y1.8499
X0.0219 Y1.8537
X0.0097 Y1.855
X0.0079
X-0.0003 Y1.8553
X-0.0048 Y1.8556
X-0.0052
X-0.008 Y1.8554
X-0.0107 Y1.855
X-0.0135 Y1.8538 Z0.0552
X-0.0162 Y1.8527 Z0.0557
X-0.0188 Y1.8516 Z0.0566
X-0.0212 Y1.8494 Z0.0581
X-0.0233 Y1.8474 Z0.06
X-0.0253 Y1.8456 Z0.0623
X-0.0265 Y1.8433 Z0.0653
X-0.0274 Y1.8415 Z0.0686
X-0.0282 Y1.8402 Z0.0723
X-0.0286 Y1.8394 Z0.0761
X-0.0287 Y1.8391 Z0.08
Z0.86
X0.24 Y-0.1086
Z0.105
Z0.08
X0.2401 Y-0.1083 Z0.0761
X0.2402 Y-0.1074 Z0.0723
X0.2404 Y-0.1059 Z0.0687
X0.2407 Y-0.1039 Z0.0653
X0.2411 Y-0.1013 Z0.0623
X0.2416 Y-0.0984 Z0.0598
X0.2421 Y-0.0951 Z0.0577
X0.2426 Y-0.0915 Z0.0562
X0.2432 Y-0.0877 Z0.0553
X0.2438 Y-0.0839 Z0.055
G3 X0.2408 Y-0.0531 I-0.0616 J0.0094
G1 X0.2379 Y-0.046
X0.2362 Y-0.0412
X0.2326 Y-0.0247
X0.2312 Y-0.0165
X0.2303 Y-0.0001
X0.23 Y0.0081
Y0.0163
X0.2289 Y0.0377
X0.2242 Y0.0736
X0.2178 Y0.1092
X0.2111 Y0.1448
X0.2048 Y0.1804
X0.1991 Y0.2161
X0.1943 Y0.252
X0.1903 Y0.288
X0.187 Y0.324
X0.1844 Y0.3601
X0.1823 Y0.3962
X0.1806 Y0.4323
X0.1793 Y0.4685
X0.1783 Y0.5047
X0.1775 Y0.5408
X0.1769 Y0.577
X0.1764 Y0.6132
X0.1761 Y0.6494
X0.1758 Y0.6856
X0.1756 Y0.7217
X0.1753 Y0.7941
X0.1752 Y0.8665
X0.1751 Y1.0112
X0.175 Y1.373
Y1.6263
X0.1749 Y1.6625
X0.1741 Y1.6986
X0.1719 Y1.7348
X0.1684 Y1.7635
X0.164 Y1.785
X0.1587 Y1.8034
X0.1525 Y1.8197
X0.1516 Y1.8217
X0.1446 Y1.8328
X0.1354 Y1.8421
X0.1243 Y1.8492
X0.1119 Y1.8535
X0.0989 Y1.855
X0.0097
G3 X-0.0133 Y1.8374 I0.0009 J-0.025
G1 X-0.0145 Y1.8336 Z0.0553
X-0.0156 Y1.83 Z0.0562
X-0.0167 Y1.8265 Z0.0577
X-0.0177 Y1.8233 Z0.0598
X-0.0186 Y1.8205 Z0.0623
X-0.0193 Y1.8181 Z0.0653
X-0.0199 Y1.8161 Z0.0687
X-0.0204 Y1.8147 Z0.0723
X-0.0206 Y1.8138 Z0.0761
X-0.0207 Y1.8135 Z0.08
Z0.86
X0.2085 Y-0.0348
Z0.105
Z0.08
X0.2087 Y-0.0346 Z0.0761
X0.2091 Y-0.0338 Z0.0723
X0.2099 Y-0.0325 Z0.0687
X0.211 Y-0.0307 Z0.0653
X0.2123 Y-0.0285 Z0.0623
X0.2138 Y-0.026 Z0.0598
X0.2155 Y-0.0231 Z0.0577
X0.2173 Y-0.02 Z0.0562
X0.2193 Y-0.0167 Z0.0553
X0.2213 Y-0.0133 Z0.055
G3 X0.23 Y0.0163 I-0.0536 J0.0318
G1 Y1.7746
X0.2292 Y1.7912
X0.2276 Y1.8028
X0.2264 Y1.8089
X0.2222 Y1.8214
X0.2152 Y1.8326
X0.206 Y1.842
X0.1949 Y1.8491
X0.1824 Y1.8535
X0.1693 Y1.855
G3 X0.1452 Y1.8292 Z0.063 I0.0009 J-0.025
G3 X0.1491 Y1.8166 I0.025 J0.0009
G1 X0.184 Y1.7621
G3 X0.2042 Y1.7505 I0.0211 J0.0135
G3 X0.23 Y1.7746 Z0.055 I0.0009 J0.025
G1 Y1.8239
X0.2299 Y1.8322
X0.2297 Y1.8337
X0.2289 Y1.837
X0.2276 Y1.8404
X0.2265 Y1.8424
X0.2251 Y1.8444
X0.2235 Y1.8464
X0.2213 Y1.8486
X0.2172 Y1.8515
X0.2152 Y1.8526
X0.2132 Y1.8534
X0.2091 Y1.8546
X0.205 Y1.855
X0.0989
G3 X0.0758 Y1.8374 I0.0009 J-0.025
G1 X0.0747 Y1.8336 Z0.0553
X0.0736 Y1.83 Z0.0562
X0.0725 Y1.8265 Z0.0577
X0.0715 Y1.8233 Z0.0598
X0.0706 Y1.8205 Z0.0623
X0.0699 Y1.8181 Z0.0653
X0.0693 Y1.8161 Z0.0687
X0.0688 Y1.8147 Z0.0723
X0.0686 Y1.8138 Z0.0761
X0.0685 Y1.8135 Z0.08
Z0.86
X2.4039 Y1.9192
Z0.105
Z0.08
X2.4036 Y1.9191 Z0.0761
X2.4028 Y1.9188 Z0.0723
X2.4013 Y1.9185 Z0.0687
X2.3993 Y1.918 Z0.0653
X2.3968 Y1.9173 Z0.0623
X2.394 Y1.9166 Z0.0598
X2.3907 Y1.9157 Z0.0577
X2.3872 Y1.9148 Z0.0562
X2.3835 Y1.9138 Z0.0553
X2.3797 Y1.9129 Z0.055
G3 X2.3527 Y1.8979 I0.0157 J-0.0603
G1 X2.3489 Y1.8941
X2.3438 Y1.8897
X2.3407 Y1.887
X2.3334 Y1.8815
X2.3325 Y1.8808
X2.3243 Y1.8759
X2.316 Y1.871
X2.3078 Y1.8676
X2.3042 Y1.8662
X2.2988 Y1.8637
X2.2919 Y1.8598
X2.2842 Y1.8545
X2.2766 Y1.8485
X2.2681 Y1.8405
X2.2591 Y1.8304
X2.2499 Y1.8184
X2.24 Y1.8031
X2.23 Y1.7844
X2.2196 Y1.7607
X2.209 Y1.7299
X2.2 Y1.6948
X2.1934 Y1.6593
X2.1885 Y1.6234
X2.1848 Y1.5874
X2.1822 Y1.5513
X2.1802 Y1.5152
X2.1788 Y1.479
X2.1777 Y1.4429
X2.1769 Y1.4067
X2.1764 Y1.3705
X2.1759 Y1.3343
X2.1756 Y1.2982
X2.1754 Y1.262
X2.1752 Y1.2258
X2.175 Y1.1534
X2.1748 Y1.0449
X2.1747 Y0.8278
X2.1746 Y0.2489
X2.172 Y0.231
X2.1601 Y0.1968
X2.1382 Y0.168
X2.1104 Y0.1449
X2.0802 Y0.125
X2.0494 Y0.1059
X2.0455 Y0.1033
X2.0368 Y0.096
X2.0297 Y0.0872
X2.0244 Y0.0772
X2.0211 Y0.0663
X2.02 Y0.055
Y0.0081
X2.0197 Y-0.0001
X2.0194 Y-0.0046
G3 X2.0358 Y-0.0286 I0.025 J-0.0005
G1 X2.0394 Y-0.0299 Z0.0553
X2.043 Y-0.0313 Z0.0562
X2.0464 Y-0.0325 Z0.0577
X2.0495 Y-0.0337 Z0.0598
X2.0523 Y-0.0347 Z0.0623
X2.0547 Y-0.0356 Z0.0653
X2.0567 Y-0.0363 Z0.0687
X2.0581 Y-0.0368 Z0.0723
X2.0589 Y-0.0371 Z0.0761
X2.0592 Y-0.0373 Z0.08
Z0.86
X2.3597 Y1.8652
Z0.105
Z0.08
X2.3594 Z0.0761
X2.3585 Y1.8654 Z0.0723
X2.357 Y1.8656 Z0.0687
X2.355 Y1.8659 Z0.0653
X2.3525 Y1.8663 Z0.0623
X2.3495 Y1.8668 Z0.0598
X2.3462 Y1.8673 Z0.0577
X2.3426 Y1.8679 Z0.0562
X2.3389 Y1.8685 Z0.0553
X2.335 Y1.8691 Z0.055
X2.3302 Y1.8697
X2.3253 Y1.8699
G3 X2.3042 Y1.8662 I0. J-0.0623
G1 X2.2914 Y1.8611
X2.272 Y1.8568
X2.2668 Y1.8562
X2.2585 Y1.8558
X2.2524 Y1.8551
X2.2462 Y1.854
X2.2393 Y1.8521
X2.232 Y1.8496
X2.2235 Y1.8457
X2.2151 Y1.8411
X2.2056 Y1.8349
X2.1953 Y1.8268
X2.1853 Y1.8176
X2.1739 Y1.8053
X2.1629 Y1.7913
X2.151 Y1.7734
X2.1394 Y1.7524
X2.1273 Y1.7257
X2.1151 Y1.6918
X2.1057 Y1.6569
X2.0984 Y1.6214
X2.0928 Y1.5857
X2.0885 Y1.5498
X2.0852 Y1.5137
X2.0827 Y1.4776
X2.0807 Y1.4415
X2.0793 Y1.4054
X2.0782 Y1.3692
X2.0773 Y1.333
X2.0767 Y1.2969
X2.0762 Y1.2607
X2.0758 Y1.2245
X2.0756 Y1.1883
X2.0754 Y1.1521
X2.0751 Y1.0798
X2.0749 Y0.9712
X2.0747 Y0.7903
X2.0746 Y0.3561
X2.068 Y0.3205
X2.0532 Y0.2876
X2.0333 Y0.2573
X2.0318 Y0.2553
X2.0253 Y0.2445
X2.0213 Y0.2326
X2.02 Y0.2201
Y0.055
G3 X2.0376 Y0.032 I0.025 J0.0009
G1 X2.0414 Y0.0309 Z0.0553
X2.045 Y0.0297 Z0.0562
X2.0485 Y0.0287 Z0.0577
X2.0517 Y0.0277 Z0.0598
X2.0545 Y0.0268 Z0.0623
X2.0569 Y0.0261 Z0.0653
X2.0589 Y0.0254 Z0.0687
X2.0603 Y0.025 Z0.0723
X2.0612 Y0.0247 Z0.0761
X2.0615 Y0.0246 Z0.08
Z0.86
X2.3107 Y1.8369
Z0.105
Z0.08
X2.3105 Y1.837 Z0.0761
X2.3096 Y1.8375 Z0.0723
X2.3083 Y1.8382 Z0.0687
X2.3065 Y1.8391 Z0.0653
X2.3043 Y1.8403 Z0.0623
X2.3016 Y1.8417 Z0.0598
X2.2987 Y1.8433 Z0.0577
X2.2954 Y1.845 Z0.0562
X2.2921 Y1.8467 Z0.0553
X2.2886 Y1.8486 Z0.055
G3 X2.2585 Y1.8558 I-0.0291 J-0.0551
G1 X2.2503 Y1.8553
X2.2421 Y1.855
X2.1928
X2.1856 Y1.8546
X2.1785 Y1.8537
X2.1702 Y1.8519
X2.1617 Y1.8494
X2.1521 Y1.8456
X2.142 Y1.8408
X2.1313 Y1.8344
X2.1196 Y1.8262
X2.1079 Y1.8165
X2.0948 Y1.8037
X2.0824 Y1.7895
X2.0688 Y1.7712
X2.0555 Y1.7497
X2.0419 Y1.7235
X2.0282 Y1.6906
X2.0229 Y1.6743
X2.0213 Y1.6684
X2.0203 Y1.6623
X2.02 Y1.6562
G3 X2.0458 Y1.6321 Z0.063 I0.025 J0.0009
G3 X2.064 Y1.6409 I-0.0009 J0.025
G1 X2.211 Y1.8138
G3 X2.2169 Y1.8292 I-0.0191 J0.0162
G3 X2.1928 Y1.855 Z0.055 I-0.025 J0.0009
G1 X2.1144
X2.1063 Y1.8546
X2.0984 Y1.8536
X2.0893 Y1.8516
X2.08 Y1.8488
X2.0692 Y1.8446
X2.0584 Y1.8394
X2.0462 Y1.8322
X2.0448 Y1.8312
X2.0363 Y1.824
X2.0294 Y1.8152
X2.0242 Y1.8053
X2.0211 Y1.7946
X2.02 Y1.7835
G3 X2.0458 Y1.7594 Z0.063 I0.025 J0.0009
G3 X2.0588 Y1.7636 I-0.0009 J0.025
G1 X2.1274 Y1.8092
G3 X2.1385 Y1.8292 I-0.0139 J0.0208
G3 X2.1144 Y1.855 Z0.055 I-0.025 J0.0009
G1 X2.045
X2.0409 Y1.8546
X2.0368 Y1.8534
X2.0348 Y1.8526
X2.0328 Y1.8515
X2.0287 Y1.8486
X2.0265 Y1.8464
X2.0249 Y1.8444
X2.0235 Y1.8424
X2.0224 Y1.8404
X2.0211 Y1.837
X2.0203 Y1.8337
X2.0201 Y1.8322
X2.02 Y1.8239
Y0.2201
X2.0203 Y0.2172
X2.0209 Y0.2143
X2.0222 Y0.2116 Z0.0552
X2.0235 Y0.209 Z0.0557
X2.0247 Y0.2064 Z0.0566
X2.027 Y0.2042 Z0.0581
X2.0291 Y0.2021 Z0.06
X2.031 Y0.2003 Z0.0623
X2.0333 Y0.1992 Z0.0653
X2.0352 Y0.1983 Z0.0686
X2.0365 Y0.1977 Z0.0723
X2.0373 Y0.1973 Z0.0761
X2.0376 Y0.1971 Z0.08
Z0.86
X1.1683 Y0.7904
Z0.78
G3 X1.1766 Y0.9462 Z0.7735 I-0.0433 J0.0805 F13.3333
G3 X1.0345 Y0.8822 Z0.7669 I-0.0516 J-0.0753
G3 X1.1564 Y0.7854 Z0.7604 I0.0904 J-0.0113
G3 X1.1864 Y0.938 Z0.7539 I-0.0314 J0.0854
G3 X1.0373 Y0.8947 Z0.7473 I-0.0614 J-0.067
G3 X1.1441 Y0.7822 Z0.7408 I0.0876 J-0.0237
G3 X1.195 Y0.9285 Z0.7343 I-0.0191 J0.0886
G3 X1.0419 Y0.9066 Z0.7277 I-0.0699 J-0.0576
G3 X1.1314 Y0.7808 Z0.7212 I0.0831 J-0.0357
G3 X1.2021 Y0.9179 Z0.7147 I-0.0064 J0.0901
G3 X1.048 Y0.9178 Z0.7082 I-0.077 J-0.047
G3 X1.1187 Y0.7811 Z0.7016 I0.077 J-0.0468
G3 X1.2076 Y0.9065 Z0.6951 I0.0062 J0.0898
G3 X1.0556 Y0.9279 Z0.6886 I-0.0825 J-0.0356
G3 X1.1063 Y0.7832 Z0.682 I0.0694 J-0.0569
G3 X1.2114 Y0.8945 Z0.6755 I0.0187 J0.0877
G3 X1.0645 Y0.9368 Z0.669 I-0.0864 J-0.0236
G3 X1.0943 Y0.787 Z0.6624 I0.0605 J-0.0658
G3 X1.2135 Y0.8821 Z0.6559 I0.0307 J0.0839
G3 X1.0745 Y0.9444 Z0.6494 I-0.0885 J-0.0112
G3 X1.083 Y0.7924 Z0.6428 I0.0505 J-0.0734
G3 X1.2139 Y0.8696 Z0.6363 I0.042 J0.0784
G3 X1.0855 Y0.9504 Z0.6298 I-0.0888 J0.0013
G3 X1.0726 Y0.7994 Z0.6232 I0.0395 J-0.0794
G3 X1.2125 Y0.8572 Z0.6167 I0.0524 J0.0715
G3 X1.0971 Y0.9548 Z0.6102 I-0.0874 J0.0137
G3 X1.0633 Y0.8077 Z0.6036 I0.0279 J-0.0839
G3 X1.2094 Y0.8451 Z0.5971 I0.0616 J0.0632
G3 X1.1092 Y0.9576 Z0.5906 I-0.0843 J0.0257
G3 X1.0553 Y0.8172 Z0.5841 I0.0158 J-0.0866
G3 X1.2046 Y0.8337 Z0.5775 I0.0696 J0.0537
G3 X1.1215 Y0.9586 Z0.571 I-0.0796 J0.0372
G3 X1.0488 Y0.8277 Z0.5645 I0.0035 J-0.0876
G3 X1.1983 Y0.8231 Z0.5579 I0.0762 J0.0433
G3 X1.1338 Y0.9579 Z0.5514 I-0.0733 J0.0478
G3 X1.0438 Y0.8389 Z0.5449 I-0.0088 J-0.0869
G3 X1.1906 Y0.8135 Z0.5383 I0.0812 J0.032
G3 X1.1459 Y0.9554 Z0.5318 I-0.0656 J0.0573
G3 X1.0404 Y0.8507 Z0.5253 I-0.0208 J-0.0845
G3 X1.1817 Y0.8051 Z0.5187 I0.0845 J0.0202
G3 X1.1574 Y0.9514 Z0.5122 I-0.0567 J0.0657
G3 X1.0388 Y0.8628 Z0.5057 I-0.0323 J-0.0804
G3 X1.1717 Y0.7981 Z0.4991 I0.0862 J0.0082
G3 X1.1682 Y0.9457 Z0.4926 I-0.0467 J0.0727
G3 X1.0388 Y0.8749 Z0.4861 I-0.0431 J-0.0748
G3 X1.1609 Y0.7926 Z0.4795 I0.0861 J-0.004
G3 X1.178 Y0.9387 Z0.473 I-0.0359 J0.0783
G3 X1.0406 Y0.8869 Z0.4665 I-0.053 J-0.0677
G3 X1.1495 Y0.7887 Z0.46 I0.0844 J-0.016
G3 X1.1868 Y0.9303 Z0.4534 I-0.0245 J0.0822
G3 X1.044 Y0.8985 Z0.4469 I-0.0617 J-0.0594
G3 X1.1377 Y0.7864 Z0.4404 I0.081 J-0.0275
G3 X1.1942 Y0.9209 Z0.4338 I-0.0127 J0.0845
G3 X1.0489 Y0.9094 Z0.4273 I-0.0691 J-0.05
G3 X1.1257 Y0.7858 Z0.4208 I0.076 J-0.0385
G3 X1.2002 Y0.9105 Z0.4142 I-0.0007 J0.0851
G3 X1.0554 Y0.9195 Z0.4077 I-0.0752 J-0.0396
G3 X1.1138 Y0.7869 Z0.4012 I0.0696 J-0.0485
G3 X1.2047 Y0.8995 Z0.3946 I0.0112 J0.084
G3 X1.0631 Y0.9286 Z0.3881 I-0.0797 J-0.0286
G3 X1.1022 Y0.7896 Z0.3816 I0.0619 J-0.0576
G3 X1.2076 Y0.8879 Z0.375 I0.0228 J0.0813
G3 X1.072 Y0.9364 Z0.3685 I-0.0825 J-0.017
G3 X1.0912 Y0.7939 Z0.362 I0.0529 J-0.0654
G3 X1.2088 Y0.8762 Z0.3555 I0.0338 J0.077
G3 X1.0819 Y0.9429 Z0.3489 I-0.0838 J-0.0053
G3 X1.0809 Y0.7997 Z0.3424 I0.0431 J-0.0719
G3 X1.2084 Y0.8644 Z0.3359 I0.0441 J0.0712
G3 X1.0926 Y0.9479 Z0.3293 I-0.0833 J0.0065
G3 X1.0715 Y0.8069 Z0.3228 I0.0324 J-0.0769
G3 X1.2063 Y0.8528 Z0.3163 I0.0534 J0.064
G3 X1.1038 Y0.9514 Z0.3097 I-0.0813 J0.018
G3 X1.0633 Y0.8152 Z0.3032 I0.0212 J-0.0804
G3 X1.2027 Y0.8417 Z0.2967 I0.0616 J0.0557
G3 X1.1153 Y0.9532 Z0.2901 I-0.0776 J0.0291
G3 X1.0564 Y0.8246 Z0.2836 I0.0097 J-0.0822
G3 X1.1975 Y0.8313 Z0.2771 I0.0685 J0.0463
G3 X1.1269 Y0.9534 Z0.2705 I-0.0725 J0.0396
G3 X1.0509 Y0.8348 Z0.264 I-0.0019 J-0.0824
G3 X1.191 Y0.8217 Z0.2575 I0.074 J0.0361
G3 X1.1384 Y0.952 Z0.2509 I-0.0659 J0.0491
G3 X1.0469 Y0.8457 Z0.2444 I-0.0134 J-0.081
G3 X1.1832 Y0.8132 Z0.2379 I0.078 J0.0252
G3 X1.1496 Y0.949 Z0.2314 I-0.0581 J0.0577
G3 X1.0445 Y0.8569 Z0.2248 I-0.0245 J-0.078
G3 X1.1743 Y0.8059 Z0.2183 I0.0805 J0.014
G3 X1.1601 Y0.9444 Z0.2118 I-0.0493 J0.065
G3 X1.0437 Y0.8684 Z0.2052 I-0.0351 J-0.0735
G3 X1.1645 Y0.7999 Z0.1987 I0.0813 J0.0026
G3 X1.1699 Y0.9385 Z0.1922 I-0.0395 J0.0709
G3 X1.0445 Y0.8798 Z0.1856 I-0.0448 J-0.0676
G3 X1.154 Y0.7954 Z0.1791 I0.0805 J-0.0088
G3 X1.1787 Y0.9313 Z0.1726 I-0.0291 J0.0755
G3 X1.0468 Y0.8909 Z0.166 I-0.0536 J-0.0604
G3 X1.1431 Y0.7924 Z0.1595 I0.0781 J-0.0199
G3 X1.1864 Y0.9229 Z0.153 I-0.0181 J0.0785
G3 X1.0507 Y0.9015 Z0.1464 I-0.0613 J-0.052
G3 X1.1319 Y0.791 Z0.1399 I0.0742 J-0.0306
G3 X1.1928 Y0.9136 Z0.1334 I-0.0069 J0.0799
G3 X1.056 Y0.9115 Z0.1268 I-0.0677 J-0.0427
G3 X1.1206 Y0.7911 Z0.1203 I0.0689 J-0.0405
G3 X1.1978 Y0.9036 Z0.1138 I0.0044 J0.0797
G3 X1.0627 Y0.9205 Z0.1073 I-0.0727 J-0.0327
G3 X1.1095 Y0.7929 Z0.1007 I0.0623 J-0.0496
G3 X1.2013 Y0.8929 Z0.0942 I0.0154 J0.078
G3 X1.0705 Y0.9285 Z0.0877 I-0.0763 J-0.022
G3 X1.0989 Y0.7961 Z0.0811 I0.0545 J-0.0576
G3 X1.2033 Y0.882 Z0.0746 I0.0261 J0.0747
G3 X1.0793 Y0.9353 Z0.0681 I-0.0783 J-0.0111
G3 X1.0888 Y0.8009 Z0.0615 I0.0457 J-0.0644
G3 X1.2038 Y0.8709 Z0.055 I0.0362 J0.07
G3 X1.0461 I-0.0788 J0.
G3 X1.2038 I0.0788 J0.
G1 X1.2046 Y0.907 F20.
X1.2062 Y0.9113
X1.2076 Y0.9171
X1.2081 Y0.9231
X1.2079 Y0.9291
X1.207 Y0.935
X1.2055 Y0.9408
X1.2054 Y0.9412
X1.2003 Y0.9519
X1.1931 Y0.9615
X1.1841 Y0.9693
X1.1737 Y0.9752
X1.1623 Y0.9788
X1.1504 Y0.98
X1.0921
X1.0831 Y0.9795
X1.0762 Y0.9786
X1.0692 Y0.9771
X1.062 Y0.975
X1.0548 Y0.9722
X1.0529 Y0.9713
X1.0419 Y0.9643
X1.0327 Y0.9551
X1.0257 Y0.944
X1.0215 Y0.9317
X1.02 Y0.9188
G3 X1.0458 Y0.8947 Z0.063 I0.025 J0.0009
G3 X1.0602 Y0.8998 I-0.0009 J0.025
G1 X1.1065 Y0.9352
G3 X1.1163 Y0.9542 I-0.0152 J0.0199
G3 X1.0921 Y0.98 Z0.055 I-0.025 J0.0009
G1 X1.0511
X1.0429 Y0.9799
X1.0388 Y0.9791
X1.0346 Y0.9776
X1.0326 Y0.9765
X1.0305 Y0.9751
X1.0285 Y0.9734
X1.0264 Y0.9713
X1.025 Y0.9694
X1.0226 Y0.9653
X1.0217 Y0.9633
X1.021 Y0.9612
X1.0202 Y0.9571
X1.02 Y0.953
Y0.8335
X1.0204 Y0.8262
X1.0212 Y0.8197
X1.0226 Y0.8131
X1.0247 Y0.8062
X1.0274 Y0.7994
X1.0307 Y0.7925
X1.0347 Y0.7857
X1.0394 Y0.779
X1.0447 Y0.7726
X1.0507 Y0.7664
X1.0574 Y0.7606
X1.0646 Y0.7553
X1.0724 Y0.7504
X1.0807 Y0.7461
X1.0895 Y0.7425
X1.0987 Y0.7395
X1.1083 Y0.7372
X1.1181 Y0.7356
X1.1282 Y0.7349
X1.1384
X1.1487 Y0.7358
X1.159 Y0.7375
X1.1691 Y0.7401
X1.1792 Y0.7435
X1.189 Y0.7477
X1.1984 Y0.7528
X1.2031 Y0.7557
X1.2122 Y0.7629
X1.2198 Y0.7719
X1.2254 Y0.7821
X1.2288 Y0.7933
X1.23 Y0.8049
Y0.953
X1.2298 Y0.9571
X1.229 Y0.9612
X1.2283 Y0.9633
X1.2274 Y0.9653
X1.225 Y0.9694
X1.2236 Y0.9713
X1.2215 Y0.9734
X1.2195 Y0.9751
X1.2174 Y0.9765
X1.2152 Y0.9777
X1.2112 Y0.9791
X1.2071 Y0.9799
X1.1989 Y0.98
X1.1504
G3 X1.1324 Y0.9714 Z0.0592 I0.0009 J-0.025
G1 X1.126 Y0.964 Z0.0612
X1.1201 Y0.9573 Z0.063
X1.0407 Y0.8658
X1.0348 Y0.859 Z0.0612
X1.0261 Y0.849 Z0.0585
G3 X1.02 Y0.8335 Z0.055 I0.0189 J-0.0164
G1 Y0.7722
X1.0203 Y0.766
X1.0211 Y0.76
X1.0224 Y0.7542
X1.0243 Y0.748
X1.0269 Y0.7417
X1.0301 Y0.7351
X1.0342 Y0.7283
X1.039 Y0.7217
X1.0446 Y0.715
X1.0512 Y0.7084
X1.0586 Y0.7021
X1.0668 Y0.6962
X1.0759 Y0.6907
X1.0858 Y0.6857
X1.0966 Y0.6813
X1.108 Y0.6777
X1.12 Y0.675
X1.1326 Y0.6731
X1.1458 Y0.6723
X1.1585 Y0.6725
X1.1716 Y0.6738
X1.1834 Y0.6759
X1.1865 Y0.6767
X1.1984 Y0.6813
X1.209 Y0.6883
X1.2179 Y0.6975
X1.2245 Y0.7084
X1.2286 Y0.7204
X1.23 Y0.7331
Y0.8049
G3 X1.2042 Y0.829 Z0.063 I-0.025 J-0.0009
G1 X1.2021 Y0.8288
X1.2 Y0.8285
X1.0458 Y0.797
X1.04 Y0.7959 Z0.0618
G3 X1.02 Y0.7722 Z0.055 I0.005 J-0.0245
G1 Y0.7147
X1.0203 Y0.7082
X1.0211 Y0.7023
X1.0225 Y0.6961
X1.0244 Y0.6898
X1.0271 Y0.683
X1.0306 Y0.676
X1.0321 Y0.6734
X1.0393 Y0.6638
X1.0483 Y0.6558
X1.0588 Y0.6499
X1.0702 Y0.6462
X1.0822 Y0.645
G3 X1.1063 Y0.6708 Z0.063 I-0.0009 J0.025
G3 X1.1006 Y0.6859 I-0.025 J-0.0009
G1 X1.0642 Y0.7298
G3 X1.0458 Y0.7388 I-0.0193 J-0.0159
G3 X1.02 Y0.7147 Z0.055 I-0.0009 J-0.025
G1 Y0.6695
X1.0205 Y0.6654
X1.0217 Y0.6613
X1.0227 Y0.6593
X1.0238 Y0.6572
X1.0264 Y0.6537
X1.0291 Y0.651
X1.0318 Y0.649
X1.0346 Y0.6474
X1.0367 Y0.6466
X1.0388 Y0.6459
X1.0429 Y0.6451
X1.0511 Y0.645
X1.1989
X1.2003
X1.2014
X1.2074 Y0.6454
X1.2077 Y0.6455
X1.2148 Y0.6478
X1.221 Y0.6518
X1.2262 Y0.6572
G3 X1.2265 Y0.6844 Z0.0608 I-0.0267 J0.0139
G3 X1.2197 Y0.6931 Z0.063 I-0.0245 J-0.0121
G3 X1.1748 Y0.6692 I-0.0178 J-0.0207
G3 X1.2014 Y0.645 Z0.055 I0.0271 J0.0031
G1 X1.2071 Y0.6451
X1.2112 Y0.6459
X1.2133 Y0.6466
X1.2154 Y0.6474
X1.2182 Y0.649
X1.2209 Y0.651
X1.2236 Y0.6537
X1.2262 Y0.6572
X1.2273 Y0.6593
X1.2283 Y0.6613
X1.2295 Y0.6654
X1.23 Y0.6695
Y0.7331
X1.2297 Y0.736
X1.2291 Y0.7389
X1.2278 Y0.7416 Z0.0552
X1.2265 Y0.7443 Z0.0557
X1.2253 Y0.7469 Z0.0566
X1.223 Y0.7491 Z0.0581
X1.2209 Y0.7511 Z0.06
X1.219 Y0.753 Z0.0623
X1.2167 Y0.7541 Z0.0653
X1.2148 Y0.7549 Z0.0686
X1.2135 Y0.7556 Z0.0723
X1.2127 Y0.756 Z0.0761
X1.2124 Y0.7561 Z0.08
Z0.86
X2.475 Y2.0554
Z0.05
Z0.025
X2.4748 Y2.0551 Z0.0211
X2.4741 Y2.0545 Z0.0173
X2.4731 Y2.0534 Z0.0137
X2.4717 Y2.0519 Z0.0103
X2.47 Y2.05 Z0.0073
X2.4679 Y2.0478 Z0.0048
X2.4656 Y2.0454 Z0.0027
X2.4631 Y2.0428 Z0.0012
X2.4605 Y2.04 Z0.0003
X2.4579 Y2.0371 Z0.
G3 X2.3751 Y1.9273 I0.4653 J-0.4369
G1 X2.3735 Y1.9245
X2.3653 Y1.9128
X2.3605 Y1.9061
X2.3571 Y1.9024
X2.3527 Y1.8979
X2.3439 Y1.8881
X2.337 Y1.879
X2.3295 Y1.8673
X2.3215 Y1.8523
X2.3131 Y1.8327
X2.3042 Y1.8067
X2.2953 Y1.7716
X2.2892 Y1.7359
X2.2849 Y1.7
X2.2819 Y1.6639
X2.2798 Y1.6278
X2.2784 Y1.5917
X2.2773 Y1.5555
X2.2766 Y1.5193
X2.2761 Y1.4831
X2.2757 Y1.447
X2.2755 Y1.4108
X2.2753 Y1.3746
X2.275 Y1.3022
X2.2749 Y1.1937
X2.2747 Y0.9404
X2.2745 Y0.1082
X2.2687 Y0.0911
X2.2497 Y0.0603
X2.2221 Y0.0369
X2.1904 Y0.0195
X2.1565 Y0.0068
X2.1215 Y-0.0023
X2.0859 Y-0.0089
X2.0576 Y-0.0126
X2.0456 Y-0.0155
X2.0345 Y-0.0208
X2.0248 Y-0.0283
X2.0169 Y-0.0377
X2.0111 Y-0.0486
G3 X2.0188 Y-0.0765 I0.0235 J-0.0086
G1 X2.0218 Y-0.079 Z0.0003
X2.0248 Y-0.0814 Z0.0012
X2.0276 Y-0.0837 Z0.0027
X2.0302 Y-0.0858 Z0.0048
X2.0325 Y-0.0877 Z0.0073
X2.0345 Y-0.0893 Z0.0103
X2.036 Y-0.0906 Z0.0137
X2.0372 Y-0.0915 Z0.0173
X2.0379 Y-0.0921 Z0.0211
X2.0382 Y-0.0923 Z0.025
Z0.86
X0.4248 Y-0.2317
Z0.05
Z0.025
X0.4246 Y-0.2315 Z0.0211
X0.424 Y-0.2309 Z0.0173
X0.423 Y-0.2298 Z0.0137
X0.4215 Y-0.2283 Z0.0103
X0.4198 Y-0.2265 Z0.0073
X0.4177 Y-0.2243 Z0.0048
X0.4154 Y-0.2219 Z0.0027
X0.4129 Y-0.2193 Z0.0012
X0.4103 Y-0.2165 Z0.0003
X0.4075 Y-0.2137 Z0.
G3 X0.3022 Y-0.1253 I-0.4607 J-0.4417
G1 X0.2954 Y-0.121
X0.2871 Y-0.1151
X0.279 Y-0.1082
X0.2707 Y-0.1005
X0.2633 Y-0.0939
X0.2543 Y-0.087
X0.2426 Y-0.0795
X0.2276 Y-0.0715
X0.2081 Y-0.063
X0.1822 Y-0.0541
X0.1471 Y-0.0452
X0.1115 Y-0.039
X0.0941 Y-0.0339
X0.0627 Y-0.016
X0.0386 Y0.011
X0.0208 Y0.0425
X0.0078 Y0.0763
X-0.0017 Y0.1112
X-0.0084 Y0.1468
X-0.0133 Y0.1826
X-0.0167 Y0.2186
X-0.0191 Y0.2547
X-0.0209 Y0.2909
X-0.0221 Y0.327
X-0.0229 Y0.3632
X-0.0235 Y0.3994
X-0.024 Y0.4356
X-0.0243 Y0.4717
X-0.0245 Y0.5079
X-0.0246 Y0.5441
X-0.0248 Y0.6165
X-0.0249 Y0.725
X-0.025 Y1.0145
Y1.7381
Y1.8151
X-0.0261 Y1.8264
X-0.0294 Y1.8374
X-0.0348 Y1.8475
X-0.0421 Y1.8563
X-0.0509 Y1.8636
X-0.061 Y1.869
G3 X-0.089 Y1.8615 I-0.0088 J-0.0234
G1 X-0.0915 Y1.8585 Z0.0003
X-0.0939 Y1.8555 Z0.0012
X-0.0962 Y1.8528 Z0.0027
X-0.0984 Y1.8502 Z0.0048
X-0.1003 Y1.8479 Z0.0073
X-0.1019 Y1.8459 Z0.0103
X-0.1032 Y1.8443 Z0.0137
X-0.1042 Y1.8432 Z0.0173
X-0.1048 Y1.8425 Z0.0211
X-0.105 Y1.8422 Z0.025
Z0.86
X0.2919 Y-0.1518
Z0.05
Z0.025
X0.2918 Y-0.1515 Z0.0211
X0.2916 Y-0.1507 Z0.0173
X0.2912 Y-0.1492 Z0.0137
X0.2907 Y-0.1472 Z0.0103
X0.2901 Y-0.1448 Z0.0073
X0.2893 Y-0.1419 Z0.0048
X0.2885 Y-0.1386 Z0.0027
X0.2876 Y-0.1351 Z0.0012
X0.2866 Y-0.1314 Z0.0003
X0.2856 Y-0.1276 Z0.
G3 X0.2707 Y-0.1005 I-0.0603 J-0.0156
G1 X0.2689 Y-0.0987
X0.2618 Y-0.0905
X0.2558 Y-0.0823
X0.2543 Y-0.0801
X0.2505 Y-0.074
X0.2461 Y-0.0663
X0.2408 Y-0.0531
X0.2382 Y-0.0477
X0.2341 Y-0.0406
X0.2288 Y-0.0329
X0.2225 Y-0.0252
X0.1722 Y0.0268
X0.1508 Y0.056
X0.1334 Y0.0878
X0.1196 Y0.1212
X0.1087 Y0.1557
X0.1004 Y0.1909
X0.094 Y0.2265
X0.0892 Y0.2624
X0.0855 Y0.2984
X0.0828 Y0.3345
X0.0807 Y0.3706
X0.0792 Y0.4067
X0.0781 Y0.4429
X0.0773 Y0.4791
X0.0767 Y0.5152
X0.0762 Y0.5514
X0.0759 Y0.5876
X0.0756 Y0.6238
X0.0755 Y0.66
X0.0752 Y0.7323
X0.0751 Y0.8409
X0.075 Y1.058
Y1.7092
X0.0747 Y1.7454
X0.0728 Y1.7737
X0.0695 Y1.796
X0.0653 Y1.8143
X0.0604 Y1.8255
X0.0532 Y1.8355
X0.0441 Y1.8437
X0.0335 Y1.8499
X0.0219 Y1.8537
X0.0097 Y1.855
X0.0079
X-0.0003 Y1.8553
X-0.0048 Y1.8556
X-0.0052
X-0.008 Y1.8554
X-0.0107 Y1.855
X-0.0135 Y1.8538 Z0.0002
X-0.0162 Y1.8527 Z0.0007
X-0.0188 Y1.8516 Z0.0016
X-0.0212 Y1.8494 Z0.0031
X-0.0233 Y1.8474 Z0.005
X-0.0253 Y1.8456 Z0.0073
X-0.0265 Y1.8433 Z0.0103
X-0.0274 Y1.8415 Z0.0136
X-0.0282 Y1.8402 Z0.0173
X-0.0286 Y1.8394 Z0.0211
X-0.0287 Y1.8391 Z0.025
Z0.86
X0.24 Y-0.1086
Z0.05
Z0.025
X0.2401 Y-0.1083 Z0.0211
X0.2402 Y-0.1074 Z0.0173
X0.2404 Y-0.1059 Z0.0137
X0.2407 Y-0.1039 Z0.0103
X0.2411 Y-0.1013 Z0.0073
X0.2416 Y-0.0984 Z0.0048
X0.2421 Y-0.0951 Z0.0027
X0.2426 Y-0.0915 Z0.0012
X0.2432 Y-0.0877 Z0.0003
X0.2438 Y-0.0839 Z0.
G3 X0.2408 Y-0.0531 I-0.0616 J0.0094
G1 X0.2379 Y-0.046
X0.2362 Y-0.0412
X0.2326 Y-0.0247
X0.2312 Y-0.0165
X0.2303 Y-0.0001
X0.23 Y0.0081
Y0.0163
X0.2289 Y0.0377
X0.2242 Y0.0736
X0.2178 Y0.1092
X0.2111 Y0.1448
X0.2048 Y0.1804
X0.1991 Y0.2161
X0.1943 Y0.252
X0.1903 Y0.288
X0.187 Y0.324
X0.1844 Y0.3601
X0.1823 Y0.3962
X0.1806 Y0.4323
X0.1793 Y0.4685
X0.1783 Y0.5047
X0.1775 Y0.5408
X0.1769 Y0.577
X0.1764 Y0.6132
X0.1761 Y0.6494
X0.1758 Y0.6856
X0.1756 Y0.7217
X0.1753 Y0.7941
X0.1752 Y0.8665
X0.1751 Y1.0112
X0.175 Y1.373
Y1.6263
X0.1749 Y1.6625
X0.1741 Y1.6986
X0.1719 Y1.7348
X0.1684 Y1.7635
X0.164 Y1.785
X0.1587 Y1.8034
X0.1525 Y1.8197
X0.1516 Y1.8217
X0.1446 Y1.8328
X0.1354 Y1.8421
X0.1243 Y1.8492
X0.1119 Y1.8535
X0.0989 Y1.855
X0.0097
G3 X-0.0133 Y1.8374 I0.0009 J-0.025
G1 X-0.0145 Y1.8336 Z0.0003
X-0.0156 Y1.83 Z0.0012
X-0.0167 Y1.8265 Z0.0027
X-0.0177 Y1.8233 Z0.0048
X-0.0186 Y1.8205 Z0.0073
X-0.0193 Y1.8181 Z0.0103
X-0.0199 Y1.8161 Z0.0137
X-0.0204 Y1.8147 Z0.0173
X-0.0206 Y1.8138 Z0.0211
X-0.0207 Y1.8135 Z0.025
Z0.86
X0.2085 Y-0.0348
Z0.05
Z0.025
X0.2087 Y-0.0346 Z0.0211
X0.2091 Y-0.0338 Z0.0173
X0.2099 Y-0.0325 Z0.0137
X0.211 Y-0.0307 Z0.0103
X0.2123 Y-0.0285 Z0.0073
X0.2138 Y-0.026 Z0.0048
X0.2155 Y-0.0231 Z0.0027
X0.2173 Y-0.02 Z0.0012
X0.2193 Y-0.0167 Z0.0003
X0.2213 Y-0.0133 Z0.
G3 X0.23 Y0.0163 I-0.0536 J0.0318
G1 Y1.7746
X0.2292 Y1.7912
X0.2276 Y1.8028
X0.2264 Y1.8089
X0.2222 Y1.8214
X0.2152 Y1.8326
X0.206 Y1.842
X0.1949 Y1.8491
X0.1824 Y1.8535
X0.1693 Y1.855
G3 X0.1452 Y1.8292 Z0.008 I0.0009 J-0.025
G3 X0.1491 Y1.8166 I0.025 J0.0009
G1 X0.184 Y1.7621
G3 X0.2042 Y1.7505 I0.0211 J0.0135
G3 X0.23 Y1.7746 Z0. I0.0009 J0.025
G1 Y1.8239
X0.2299 Y1.8322
X0.2297 Y1.8337
X0.2289 Y1.837
X0.2276 Y1.8404
X0.2265 Y1.8424
X0.2251 Y1.8444
X0.2235 Y1.8464
X0.2213 Y1.8486
X0.2172 Y1.8515
X0.2152 Y1.8526
X0.2132 Y1.8534
X0.2091 Y1.8546
X0.205 Y1.855
X0.0989
G3 X0.0758 Y1.8374 I0.0009 J-0.025
G1 X0.0747 Y1.8336 Z0.0003
X0.0736 Y1.83 Z0.0012
X0.0725 Y1.8265 Z0.0027
X0.0715 Y1.8233 Z0.0048
X0.0706 Y1.8205 Z0.0073
X0.0699 Y1.8181 Z0.0103
X0.0693 Y1.8161 Z0.0137
X0.0688 Y1.8147 Z0.0173
X0.0686 Y1.8138 Z0.0211
X0.0685 Y1.8135 Z0.025
Z0.86
X2.4039 Y1.9192
Z0.05
Z0.025
X2.4036 Y1.9191 Z0.0211
X2.4028 Y1.9188 Z0.0173
X2.4013 Y1.9185 Z0.0137
X2.3993 Y1.918 Z0.0103
X2.3968 Y1.9173 Z0.0073
X2.394 Y1.9166 Z0.0048
X2.3907 Y1.9157 Z0.0027
X2.3872 Y1.9148 Z0.0012
X2.3835 Y1.9138 Z0.0003
X2.3797 Y1.9129 Z0.
G3 X2.3527 Y1.8979 I0.0157 J-0.0603
G1 X2.3489 Y1.8941
X2.3438 Y1.8897
X2.3407 Y1.887
X2.3334 Y1.8815
X2.3325 Y1.8808
X2.3243 Y1.8759
X2.316 Y1.871
X2.3078 Y1.8676
X2.3042 Y1.8662
X2.2988 Y1.8637
X2.2919 Y1.8598
X2.2842 Y1.8545
X2.2766 Y1.8485
X2.2681 Y1.8405
X2.2591 Y1.8304
X2.2499 Y1.8184
X2.24 Y1.8031
X2.23 Y1.7844
X2.2196 Y1.7607
X2.209 Y1.7299
X2.2 Y1.6948
X2.1934 Y1.6593
X2.1885 Y1.6234
X2.1848 Y1.5874
X2.1822 Y1.5513
X2.1802 Y1.5152
X2.1788 Y1.479
X2.1777 Y1.4429
X2.1769 Y1.4067
X2.1764 Y1.3705
X2.1759 Y1.3343
X2.1756 Y1.2982
X2.1754 Y1.262
X2.1752 Y1.2258
X2.175 Y1.1534
X2.1748 Y1.0449
X2.1747 Y0.8278
X2.1746 Y0.2489
X2.172 Y0.231
X2.1601 Y0.1968
X2.1382 Y0.168
X2.1104 Y0.1449
X2.0802 Y0.125
X2.0494 Y0.1059
X2.0455 Y0.1033
X2.0368 Y0.096
X2.0297 Y0.0872
X2.0244 Y0.0772
X2.0211 Y0.0663
X2.02 Y0.055
Y0.0081
X2.0197 Y-0.0001
X2.0194 Y-0.0046
G3 X2.0358 Y-0.0286 I0.025 J-0.0005
G1 X2.0394 Y-0.0299 Z0.0003
X2.043 Y-0.0313 Z0.0012
X2.0464 Y-0.0325 Z0.0027
X2.0495 Y-0.0337 Z0.0048
X2.0523 Y-0.0347 Z0.0073
X2.0547 Y-0.0356 Z0.0103
X2.0567 Y-0.0363 Z0.0137
X2.0581 Y-0.0368 Z0.0173
X2.0589 Y-0.0371 Z0.0211
X2.0592 Y-0.0373 Z0.025
Z0.86
X2.3597 Y1.8652
Z0.05
Z0.025
X2.3594 Z0.0211
X2.3585 Y1.8654 Z0.0173
X2.357 Y1.8656 Z0.0137
X2.355 Y1.8659 Z0.0103
X2.3525 Y1.8663 Z0.0073
X2.3495 Y1.8668 Z0.0048
X2.3462 Y1.8673 Z0.0027
X2.3426 Y1.8679 Z0.0012
X2.3389 Y1.8685 Z0.0003
X2.335 Y1.8691 Z0.
X2.3302 Y1.8697
X2.3253 Y1.8699
G3 X2.3042 Y1.8662 I0. J-0.0623
G1 X2.2914 Y1.8611
X2.272 Y1.8568
X2.2668 Y1.8562
X2.2585 Y1.8558
X2.2524 Y1.8551
X2.2462 Y1.854
X2.2393 Y1.8521
X2.232 Y1.8496
X2.2235 Y1.8457
X2.2151 Y1.8411
X2.2056 Y1.8349
X2.1953 Y1.8268
X2.1853 Y1.8176
X2.1739 Y1.8053
X2.1629 Y1.7913
X2.151 Y1.7734
X2.1394 Y1.7524
X2.1273 Y1.7257
X2.1151 Y1.6918
X2.1057 Y1.6569
X2.0984 Y1.6214
X2.0928 Y1.5857
X2.0885 Y1.5498
X2.0852 Y1.5137
X2.0827 Y1.4776
X2.0807 Y1.4415
X2.0793 Y1.4054
X2.0782 Y1.3692
X2.0773 Y1.333
X2.0767 Y1.2969
X2.0762 Y1.2607
X2.0758 Y1.2245
X2.0756 Y1.1883
X2.0754 Y1.1521
X2.0751 Y1.0798
X2.0749 Y0.9712
X2.0747 Y0.7903
X2.0746 Y0.3561
X2.068 Y0.3205
X2.0532 Y0.2876
X2.0333 Y0.2573
X2.0318 Y0.2553
X2.0253 Y0.2445
X2.0213 Y0.2326
X2.02 Y0.2201
Y0.055
G3 X2.0376 Y0.032 I0.025 J0.0009
G1 X2.0414 Y0.0309 Z0.0003
X2.045 Y0.0297 Z0.0012
X2.0485 Y0.0287 Z0.0027
X2.0517 Y0.0277 Z0.0048
X2.0545 Y0.0268 Z0.0073
X2.0569 Y0.0261 Z0.0103
X2.0589 Y0.0254 Z0.0137
X2.0603 Y0.025 Z0.0173
X2.0612 Y0.0247 Z0.0211
X2.0615 Y0.0246 Z0.025
Z0.86
X2.3107 Y1.8369
Z0.05
Z0.025
X2.3105 Y1.837 Z0.0211
X2.3096 Y1.8375 Z0.0173
X2.3083 Y1.8382 Z0.0137
X2.3065 Y1.8391 Z0.0103
X2.3043 Y1.8403 Z0.0073
X2.3016 Y1.8417 Z0.0048
X2.2987 Y1.8433 Z0.0027
X2.2954 Y1.845 Z0.0012
X2.2921 Y1.8467 Z0.0003
X2.2886 Y1.8486 Z0.
G3 X2.2585 Y1.8558 I-0.0291 J-0.0551
G1 X2.2503 Y1.8553
X2.2421 Y1.855
X2.1928
X2.1856 Y1.8546
X2.1785 Y1.8537
X2.1702 Y1.8519
X2.1617 Y1.8494
X2.1521 Y1.8456
X2.142 Y1.8408
X2.1313 Y1.8344
X2.1196 Y1.8262
X2.1079 Y1.8165
X2.0948 Y1.8037
X2.0824 Y1.7895
X2.0688 Y1.7712
X2.0555 Y1.7497
X2.0419 Y1.7235
X2.0282 Y1.6906
X2.0229 Y1.6743
X2.0213 Y1.6684
X2.0203 Y1.6623
X2.02 Y1.6562
G3 X2.0458 Y1.6321 Z0.008 I0.025 J0.0009
G3 X2.064 Y1.6409 I-0.0009 J0.025
G1 X2.211 Y1.8138
G3 X2.2169 Y1.8292 I-0.0191 J0.0162
G3 X2.1928 Y1.855 Z0. I-0.025 J0.0009
G1 X2.1144
X2.1063 Y1.8546
X2.0984 Y1.8536
X2.0893 Y1.8516
X2.08 Y1.8488
X2.0692 Y1.8446
X2.0584 Y1.8394
X2.0462 Y1.8322
X2.0448 Y1.8312
X2.0363 Y1.824
X2.0294 Y1.8152
X2.0242 Y1.8053
X2.0211 Y1.7946
X2.02 Y1.7835
G3 X2.0458 Y1.7594 Z0.008 I0.025 J0.0009
G3 X2.0588 Y1.7636 I-0.0009 J0.025
G1 X2.1274 Y1.8092
G3 X2.1385 Y1.8292 I-0.0139 J0.0208
G3 X2.1144 Y1.855 Z0. I-0.025 J0.0009
G1 X2.045
X2.0409 Y1.8546
X2.0368 Y1.8534
X2.0348 Y1.8526
X2.0328 Y1.8515
X2.0287 Y1.8486
X2.0265 Y1.8464
X2.0249 Y1.8444
X2.0235 Y1.8424
X2.0224 Y1.8404
X2.0211 Y1.837
X2.0203 Y1.8337
X2.0201 Y1.8322
X2.02 Y1.8239
Y0.2201
X2.0203 Y0.2172
X2.0209 Y0.2143
X2.0222 Y0.2116 Z0.0002
X2.0235 Y0.209 Z0.0007
X2.0247 Y0.2064 Z0.0016
X2.027 Y0.2042 Z0.0031
X2.0291 Y0.2021 Z0.005
X2.031 Y0.2003 Z0.0073
X2.0333 Y0.1992 Z0.0103
X2.0352 Y0.1983 Z0.0136
X2.0365 Y0.1977 Z0.0173
X2.0373 Y0.1973 Z0.0211
X2.0376 Y0.1971 Z0.025
Z0.86
X1.1154 Y0.9617
Z0.155
G3 X1.041 Y0.835 Z0.149 I0.0096 J-0.0908 F13.3333
G3 X1.1838 Y0.8011 Z0.1431 I0.0839 J0.0358
G3 X1.1742 Y0.9474 Z0.1371 I-0.0588 J0.0696
G3 X1.0374 Y0.8954 Z0.1312 I-0.0492 J-0.0766
G3 X1.1272 Y0.7799 Z0.1252 I0.0876 J-0.0245
G3 X1.2111 Y0.8996 Z0.1192 I-0.0023 J0.0908
G3 X1.0723 Y0.9446 Z0.1133 I-0.086 J-0.0288
G3 X1.07 Y0.7988 Z0.1073 I0.0527 J-0.0737
G3 X1.2098 Y0.8394 Z0.1013 I0.0549 J0.072
G3 X1.1301 Y0.961 Z0.0954 I-0.0848 J0.0313
G3 X1.0373 Y0.8492 Z0.0894 I-0.005 J-0.0902
G3 X1.1713 Y0.7934 Z0.0835 I0.0876 J0.0216
G3 X1.1852 Y0.9377 Z0.0775 I-0.0463 J0.0773
G3 X1.0434 Y0.9087 Z0.0715 I-0.0602 J-0.0669
G3 X1.1127 Y0.7818 Z0.0656 I0.0815 J-0.0379
G3 X1.2135 Y0.8852 Z0.0596 I0.0122 J0.089
G3 X1.0853 Y0.9511 Z0.0537 I-0.0885 J-0.0144
G3 X1.0599 Y0.8093 Z0.0477 I0.0397 J-0.0803
G3 X1.2028 Y0.8267 Z0.0417 I0.065 J0.0615
G3 X1.1443 Y0.958 Z0.0358 I-0.0778 J0.044
G3 X1.036 Y0.8636 Z0.0298 I-0.0192 J-0.0872
G3 X1.1579 Y0.788 Z0.0238 I0.0889 J0.0072
G3 X1.1944 Y0.9265 Z0.0179 I-0.0329 J0.0827
G3 X1.0514 Y0.9207 Z0.0119 I-0.0694 J-0.0557
G3 X1.0989 Y0.7859 Z0.006 I0.0735 J-0.0499
G3 X1.2137 Y0.8707 Z0. I0.0261 J0.0848
G3 X1.0362 I-0.0887 J0.
G3 X1.2137 I0.0887 J0.
G1 X1.2139 Y0.8798 F20.
X1.2207 Y0.9153
X1.2214 Y0.9198
X1.2218 Y0.9258
X1.2201 Y0.938
X1.2157 Y0.9494
X1.209 Y0.9597
X1.2002 Y0.9683
X1.1897 Y0.9747
X1.1781 Y0.9787
X1.1658 Y0.98
X1.0757
X1.0695 Y0.9797
X1.0581 Y0.9767
X1.0475 Y0.9715
X1.0382 Y0.9643
X1.0305 Y0.9553
X1.0247 Y0.945
X1.0212 Y0.9338
X1.02 Y0.922
G3 X1.0349 Y0.8866 Z0.008 I0.0541 J0.0019
G3 X1.09 Y0.8721 I0.0392 J0.0373
G3 X1.1112 Y0.9654 I-0.0162 J0.0527
G3 X1.0757 Y0.98 Z0. I-0.0375 J-0.0405
G1 X1.0511
X1.0429 Y0.9799
X1.0388 Y0.9791
X1.0346 Y0.9776
X1.0326 Y0.9765
X1.0305 Y0.9751
X1.0285 Y0.9734
X1.0264 Y0.9713
X1.025 Y0.9694
X1.0226 Y0.9653
X1.0217 Y0.9633
X1.021 Y0.9612
X1.0202 Y0.9571
X1.02 Y0.953
Y0.8215
X1.0204 Y0.8143
X1.0212 Y0.8082
X1.0225 Y0.8019
X1.0244 Y0.7955
X1.027 Y0.7889
X1.0303 Y0.7822
X1.0342 Y0.7755
X1.0388 Y0.7689
X1.0441 Y0.7625
X1.0501 Y0.7564
X1.0568 Y0.7505
X1.0642 Y0.7451
X1.0722 Y0.7401
X1.0808 Y0.7357
X1.0899 Y0.7319
X1.0995 Y0.7287
X1.1094 Y0.7263
X1.1198 Y0.7247
X1.1304 Y0.7239
X1.1412 Y0.724
X1.1521 Y0.7249
X1.163 Y0.7268
X1.1739 Y0.7295
X1.1846 Y0.7331
X1.1951 Y0.7377
X1.199 Y0.7397
X1.2094 Y0.7468
X1.2181 Y0.756
X1.2246 Y0.7668
X1.2286 Y0.7787
X1.23 Y0.7913
Y0.953
X1.2298 Y0.9571
X1.229 Y0.9612
X1.2283 Y0.9633
X1.2274 Y0.9653
X1.225 Y0.9694
X1.2236 Y0.9713
X1.2215 Y0.9734
X1.2195 Y0.9751
X1.2174 Y0.9765
X1.2152 Y0.9777
X1.2112 Y0.9791
X1.2071 Y0.9799
X1.1989 Y0.98
X1.1658
G3 X1.1482 Y0.9718 Z0.0041 I0.0009 J-0.025
G1 X1.1413 Y0.9642 Z0.0062
X1.1353 Y0.9575 Z0.008
X1.041 Y0.8536
X1.035 Y0.8469 Z0.0062
X1.0265 Y0.8375 Z0.0036
G3 X1.02 Y0.8215 Z0. I0.0185 J-0.0168
G1 Y0.7595
X1.0203 Y0.7535
X1.0213 Y0.7476
X1.0228 Y0.7418
X1.0249 Y0.7355
X1.0277 Y0.7289
X1.0312 Y0.7224
X1.0356 Y0.7155
X1.0409 Y0.7086
X1.0468 Y0.702
X1.0538 Y0.6954
X1.0617 Y0.6889
X1.0705 Y0.683
X1.08 Y0.6775
X1.0905 Y0.6726
X1.1019 Y0.6684
X1.114 Y0.6649
X1.1266 Y0.6624
X1.1398 Y0.6608
X1.1522 Y0.6604
X1.1654 Y0.6609
X1.177 Y0.6624
X1.1835 Y0.6637
X1.1961 Y0.6679
X1.2074 Y0.6748
X1.2169 Y0.684
X1.2241 Y0.6952
X1.2285 Y0.7077
X1.23 Y0.7209
Y0.7913
G3 X1.2042 Y0.8154 Z0.008 I-0.025 J-0.0009
G1 X1.2021 Y0.8152
X1.2001 Y0.8149
X1.0458 Y0.7843
X1.0401 Y0.7832 Z0.0068
G3 X1.02 Y0.7595 Z0. I0.0049 J-0.0245
G1 Y0.702
X1.0203 Y0.696
X1.0212 Y0.6901
X1.0213 Y0.6898
X1.0257 Y0.6776
X1.0326 Y0.6667
X1.0419 Y0.6576
X1.0529 Y0.6507
X1.0651 Y0.6464
X1.078 Y0.645
G3 X1.1021 Y0.6708 Z0.008 I-0.0009 J0.025
G3 X1.0945 Y0.6879 I-0.025 J-0.0009
G1 X1.0624 Y0.7191
G3 X1.0458 Y0.7261 I-0.0174 J-0.018
G3 X1.02 Y0.702 Z0. I-0.0009 J-0.025
G1 Y0.6695
X1.0205 Y0.6654
X1.0217 Y0.6613
X1.0227 Y0.6593
X1.0238 Y0.6572
X1.0264 Y0.6537
X1.0291 Y0.651
X1.0318 Y0.649
X1.0346 Y0.6474
X1.0367 Y0.6466
X1.0388 Y0.6459
X1.0429 Y0.6451
X1.0511 Y0.645
X1.1989
X1.2071 Y0.6451
X1.2112 Y0.6459
X1.2133 Y0.6466
X1.2154 Y0.6474
X1.2182 Y0.649
X1.2209 Y0.651
X1.2236 Y0.6537
X1.2262 Y0.6572
X1.2273 Y0.6593
X1.2283 Y0.6613
X1.2295 Y0.6654
X1.23 Y0.6695
Y0.7209
G3 X1.2124 Y0.7439 I-0.025 J-0.0009
G1 X1.2086 Y0.745 Z0.0003
X1.205 Y0.7461 Z0.0012
X1.2015 Y0.7472 Z0.0027
X1.1983 Y0.7482 Z0.0048
X1.1955 Y0.7491 Z0.0073
X1.1931 Y0.7498 Z0.0103
X1.1911 Y0.7504 Z0.0137
X1.1897 Y0.7509 Z0.0173
X1.1888 Y0.7511 Z0.0211
X1.1885 Y0.7512 Z0.025
Z1.26
G53 Z
M5
G53 P10
