[test_tenon_t4_adaptive]
[Machine]
[  vendor: Nova Labs]
[  model: ShopSaber]
[  description: Generic 3-axis]
[T4 D=0.125 CR=0. - ZMIN=0. - flat end mill]
G90
G20
[When using Fusion for Personal Use, the feedrate of rapid]
[moves is reduced to match the feedrate of cutting moves,]
[which can increase machining time. Unrestricted rapid moves]
[are available with a Fusion Subscription.]
G53 Z
[Adaptive2]
M0
[MANUAL TOOL CHANGE TO T4]
S15000
M3
G4 X4.
G90
G0 X2.5883 Y3.1412
Z1.52
G1 Z1.12 F12.
Z0.6325
Z0.62
X2.5881 Y3.1409 Z0.6172 F12.
X2.5876 Y3.1401 Z0.6146
X2.5869 Y3.1388 Z0.6122
X2.5859 Y3.1371 Z0.6102
X2.5846 Y3.1351 Z0.6087
X2.5833 Y3.1328 Z0.6078
X2.5819 Y3.1304 Z0.6075
G3 X2.5625 Y3.0645 I0.1191 J-0.0708
G1 Y2.0145
Y2.0087
X2.5621 Y1.9971
X2.5618 Y1.9913
X2.5607 Y1.9855
X2.5589 Y1.9798
X2.557 Y1.9746
X2.5537 Y1.9682
X2.5497 Y1.9624
X2.5454 Y1.9572
X2.5449 Y1.9566
X2.5396 Y1.9517
X2.5384 Y1.9508
X2.5338 Y1.9477
X2.5297 Y1.945
X2.5281 Y1.9442
X2.5223 Y1.9417
X2.5165 Y1.9398
X2.5144 Y1.9393
X2.5107 Y1.9386
X2.5049 Y1.9378
X2.4991 Y1.9375
X2.262
X2.1637
X2.1577 Y1.9372
X2.1494 Y1.9361
X2.1427 Y1.9347
X2.1347 Y1.9323
X2.125 Y1.9285
X2.1151 Y1.9237
X2.1081 Y1.9196
X2.0999 Y1.9138
X2.09 Y1.9056
X2.0791 Y1.895
X2.0743 Y1.8894
X2.0688 Y1.882
X2.0669 Y1.879
X2.0645 Y1.8742
X2.063 Y1.869
X2.0625 Y1.8636
G3 X2.0754 Y1.8515 Z0.6155 I0.0125 J0.0004
G1 X2.0778 Y1.8518
X2.08 Y1.8526
X2.0821 Y1.8537
X2.0842 Y1.8552
X2.1704 Y1.9147
G3 X2.1758 Y1.9246 I-0.0071 J0.0103
G3 X2.1637 Y1.9375 Z0.6075 I-0.0125 J0.0004
G1 X2.1059
X2.0998 Y1.9372
X2.0938 Y1.9364
X2.088 Y1.9351
X2.0822 Y1.9333
X2.0808 Y1.9328
X2.0733 Y1.9284
X2.0675 Y1.922
X2.0638 Y1.9142
X2.0625 Y1.9057
G3 X2.0754 Y1.8936 Z0.6155 I0.0125 J0.0004
G1 X2.0776 Y1.8939
X2.0796 Y1.8945
X2.0816 Y1.8955
X2.0843 Y1.8972
X2.112 Y1.9144
G3 X2.118 Y1.9246 I-0.0066 J0.0106
G3 X2.1059 Y1.9375 Z0.6075 I-0.0125 J0.0004
G1 X2.077
X2.0741 Y1.9374
X2.0726 Y1.9371
X2.0712 Y1.9367
X2.07 Y1.9362
X2.0688 Y1.9355
X2.0676 Y1.9346
X2.0665 Y1.9335
X2.0654 Y1.9323
X2.0646 Y1.9311
X2.0639 Y1.93
X2.0634 Y1.9288
X2.063 Y1.9277
X2.0627 Y1.9262
X2.0625 Y1.9248
Y0.0069
X2.0624 Y0.0011
G3 X2.0849 Y-0.0061 I0.0125 J0.0003
G1 X2.0866 Y-0.0039 Z0.6078
X2.0882 Y-0.0018 Z0.6087
X2.0896 Y0.0001 Z0.6102
X2.0908 Y0.0017 Z0.6122
X2.0917 Y0.0029 Z0.6146
X2.0922 Y0.0036 Z0.6172
X2.0924 Y0.0039 Z0.62
Z1.12
X0.5648 Y-0.0979
Z0.6325
Z0.62
X0.5646 Y-0.0977 Z0.6172
X0.5639 Y-0.0971 Z0.6146
X0.5627 Y-0.0962 Z0.6122
X0.5612 Y-0.0949 Z0.6102
X0.5593 Y-0.0934 Z0.6087
X0.5573 Y-0.0918 Z0.6078
X0.5551 Y-0.0901 Z0.6075
G3 X0.4924 Y-0.0618 I-0.0865 J-0.1082
G1 X0.4866 Y-0.061
X0.4808 Y-0.0593
X0.4751 Y-0.0572
X0.4693 Y-0.0543
X0.4635 Y-0.0507
X0.4577 Y-0.0459
X0.4569 Y-0.0452
X0.4519 Y-0.0399
X0.4474 Y-0.0336
X0.4461 Y-0.0315
X0.4442 Y-0.0278
X0.4416 Y-0.022
X0.4404 Y-0.0182
X0.4398 Y-0.0163
X0.4385 Y-0.0105
X0.4377 Y-0.0047
X0.4376 Y0.0011
X0.4375 Y0.0069
Y1.8351
X0.4371 Y1.8423
X0.436 Y1.8507
X0.4342 Y1.8593
X0.4323 Y1.8658
X0.4292 Y1.8736
X0.4247 Y1.8829
X0.4199 Y1.891
X0.414 Y1.8994
X0.4056 Y1.9095
X0.3948 Y1.9207
X0.3893 Y1.9255
X0.382 Y1.9308
X0.3784 Y1.9331
X0.3735 Y1.9355
X0.3683 Y1.937
X0.3629 Y1.9375
G3 X0.3509 Y1.9246 Z0.6155 I0.0004 J-0.0125
G1 X0.3512 Y1.9222
X0.3519 Y1.92
X0.3531 Y1.9179
X0.3546 Y1.9158
X0.4147 Y1.8285
G3 X0.4246 Y1.8231 I0.0103 J0.0071
G3 X0.4375 Y1.8351 Z0.6075 I0.0004 J0.0125
G1 Y1.893
X0.4372 Y1.8998
X0.4364 Y1.9058
X0.4351 Y1.9116
X0.4333 Y1.9174
X0.4326 Y1.9192
X0.4282 Y1.9266
X0.4218 Y1.9325
X0.414 Y1.9362
X0.4055 Y1.9375
G3 X0.3934 Y1.9246 Z0.6155 I0.0004 J-0.0125
G1 X0.3937 Y1.9225
X0.3943 Y1.9204
X0.3952 Y1.9185
X0.397 Y1.9157
X0.4143 Y1.8869
G3 X0.4246 Y1.8809 I0.0107 J0.0065
G3 X0.4375 Y1.893 Z0.6075 I0.0004 J0.0125
G1 Y1.9248
X0.4373 Y1.9262
X0.437 Y1.9277
X0.4366 Y1.9288
X0.4361 Y1.93
X0.4354 Y1.9311
X0.4346 Y1.9323
X0.4335 Y1.9335
X0.4324 Y1.9346
X0.4312 Y1.9355
X0.43 Y1.9362
X0.4288 Y1.9367
X0.4274 Y1.9371
X0.4259 Y1.9374
X0.423 Y1.9375
X0.0066
X0.0009
G3 X-0.0112 Y1.9258 I0.0004 J-0.0125
G1 X-0.0113 Y1.925
X-0.0107 Y1.9229 Z0.6079
X-0.0102 Y1.9209 Z0.6086
X-0.0097 Y1.9191 Z0.6097
X-0.0085 Y1.9177 Z0.6112
X-0.0075 Y1.9165 Z0.6131
X-0.0068 Y1.9157 Z0.6153
X-0.0063 Y1.9152 Z0.6176
X-0.0062 Y1.915 Z0.62
Z1.12
X1.1643 Y0.8618
Z0.6325
Z0.62
X1.164 Y0.8619 Z0.6172
X1.1631 Y0.8621 Z0.6146
X1.1617 Y0.8625 Z0.6122
X1.1597 Y0.863 Z0.6102
X1.1574 Y0.8636 Z0.6087
X1.1549 Y0.8642 Z0.6078
X1.1522 Y0.8649 Z0.6075
G3 X1.0841 Y0.8747 I-0.0792 J-0.3091
G1 X1.0781
X1.0733 Y0.8712
X1.0691 Y0.8669
X1.0687 Y0.8664
X1.0653 Y0.861
X1.0632 Y0.8549
X1.0625 Y0.8484
Y0.6607
X1.0629 Y0.6536
X1.064 Y0.645
X1.0663 Y0.6342
X1.0698 Y0.6225
X1.072 Y0.6169
X1.0751 Y0.6106
X1.0794 Y0.6033
X1.0856 Y0.5945
X1.0945 Y0.584
X1.1003 Y0.578
X1.106 Y0.5731
X1.1134 Y0.5677
X1.1148 Y0.5668
X1.1196 Y0.5645
X1.1247 Y0.563
X1.1301 Y0.5625
G3 X1.1421 Y0.5754 Z0.6155 I-0.0004 J0.0125
G1 X1.1418 Y0.5776
X1.1412 Y0.5798
X1.1402 Y0.5817
X1.1385 Y0.5843
X1.0855 Y0.667
G3 X1.0754 Y0.6727 I-0.0105 J-0.0067
G3 X1.0625 Y0.6607 Z0.6075 I-0.0004 J-0.0125
G1 Y0.597
X1.0628 Y0.591
X1.0639 Y0.5851
X1.0644 Y0.5836
X1.0674 Y0.5767
X1.072 Y0.5708
X1.078 Y0.5663
X1.085 Y0.5635
X1.0924 Y0.5625
G3 X1.1044 Y0.5754 Z0.6155 I-0.0004 J0.0125
G1 X1.1041 Y0.578
X1.1032 Y0.5805
X1.1018 Y0.5827
X1.1007 Y0.5842
X1.0848 Y0.6043
G3 X1.0754 Y0.6091 I-0.0098 J-0.0077
G3 X1.0625 Y0.597 Z0.6075 I-0.0004 J-0.0125
G1 Y0.5797
X1.0626 Y0.5739
X1.0629 Y0.5724
X1.0633 Y0.571
X1.064 Y0.5695
X1.0649 Y0.568
X1.0656 Y0.5672
X1.0664 Y0.5664
X1.0678 Y0.5651
X1.0693 Y0.5642
X1.0707 Y0.5635
X1.0722 Y0.563
X1.0736 Y0.5626
X1.0765 Y0.5625
X1.3425
X1.3505 Y0.5629
X1.3584 Y0.5639
X1.3675 Y0.5659
X1.3733 Y0.5676
X1.3788 Y0.5699
X1.3852 Y0.5732
X1.3927 Y0.5779
X1.4016 Y0.5844
X1.4124 Y0.5939
X1.4224 Y0.6041
X1.4272 Y0.61
X1.4327 Y0.6177
X1.4335 Y0.6191
X1.4357 Y0.6237
X1.437 Y0.6287
X1.4375 Y0.6339
G3 X1.4246 Y0.6459 Z0.6155 I-0.0125 J-0.0004
G1 X1.4222 Y0.6456
X1.4199 Y0.6448
X1.4178 Y0.6436
X1.4158 Y0.6422
X1.3357 Y0.5852
G3 X1.3305 Y0.5754 I0.0073 J-0.0102
G3 X1.3425 Y0.5625 Z0.6075 I0.0125 J-0.0004
G1 X1.3978
X1.4038 Y0.5628
X1.4097 Y0.5637
X1.4155 Y0.5651
X1.4177 Y0.5659
X1.4257 Y0.57
X1.432 Y0.5765
X1.4361 Y0.5846
X1.4375 Y0.5935
G3 X1.4246 Y0.6055 Z0.6155 I-0.0125 J-0.0004
G1 X1.4223 Y0.6052
X1.4201 Y0.6045
X1.418 Y0.6034
X1.4157 Y0.6019
X1.3912 Y0.5854
G3 X1.3857 Y0.5754 I0.007 J-0.0104
G3 X1.3978 Y0.5625 Z0.6075 I0.0125 J-0.0004
G1 X1.4235
X1.4264 Y0.5626
X1.4278 Y0.563
X1.4293 Y0.5635
X1.4307 Y0.5642
X1.4322 Y0.5651
X1.4336 Y0.5664
X1.4344 Y0.5672
X1.4351 Y0.5681
X1.436 Y0.5695
X1.4367 Y0.571
X1.4371 Y0.5724
X1.4374 Y0.5739
X1.4375 Y0.5797
Y0.9615
X1.4371 Y0.9703
X1.4359 Y0.9791
X1.4336 Y0.99
X1.4297 Y1.0029
X1.4275 Y1.0085
X1.4245 Y1.0147
X1.4201 Y1.022
X1.414 Y1.0306
X1.4052 Y1.0411
X1.3993 Y1.0471
X1.3937 Y1.0519
X1.3864 Y1.0573
X1.385 Y1.0582
X1.3802 Y1.0606
X1.375 Y1.062
X1.3697 Y1.0625
G3 X1.3576 Y1.0496 Z0.6155 I0.0004 J-0.0125
G1 X1.3579 Y1.0474
X1.3585 Y1.0453
X1.3595 Y1.0434
X1.3612 Y1.0407
X1.4144 Y0.9553
G3 X1.4246 Y0.9494 I0.0106 J0.0066
G3 X1.4375 Y0.9615 Z0.6075 I0.0004 J0.0125
G1 Y1.0251
X1.4372 Y1.0311
X1.4364 Y1.0371
X1.4356 Y1.0402
X1.4328 Y1.0474
X1.4282 Y1.0536
X1.4221 Y1.0584
X1.415 Y1.0615
X1.4073 Y1.0625
G3 X1.3952 Y1.0496 Z0.6155 I0.0004 J-0.0125
G1 X1.3955 Y1.0472
X1.3963 Y1.0449
X1.3975 Y1.0428
X1.3989 Y1.0408
X1.4148 Y1.0184
G3 X1.4246 Y1.0131 I0.0102 J0.0072
G3 X1.4375 Y1.0251 Z0.6075 I0.0004 J0.0125
G1 Y1.0483
X1.4374 Y1.0512
X1.4371 Y1.0526
X1.4366 Y1.0541
X1.4359 Y1.0554
X1.4351 Y1.0568
X1.4338 Y1.0583
X1.433 Y1.0592
X1.4322 Y1.0599
X1.4307 Y1.0608
X1.4293 Y1.0615
X1.4278 Y1.062
X1.4264 Y1.0624
X1.4235 Y1.0625
X1.1575
X1.1495 Y1.0621
X1.1417 Y1.0611
X1.1324 Y1.0591
X1.1267 Y1.0574
X1.1211 Y1.0551
X1.1147 Y1.0518
X1.1072 Y1.0471
X1.0983 Y1.0405
X1.0874 Y1.031
X1.078 Y1.0215
X1.0727 Y1.015
X1.0667 Y1.0065
X1.0665 Y1.0062
X1.0643 Y1.0016
X1.063 Y0.9966
X1.0625 Y0.9914
G3 X1.0754 Y0.9794 Z0.6155 I0.0125 J0.0004
G1 X1.0778 Y0.9797
X1.0801 Y0.9805
X1.0822 Y0.9817
X1.0842 Y0.9831
X1.1643 Y1.0398
G3 X1.1695 Y1.0496 I-0.0072 J0.0102
G3 X1.1575 Y1.0625 Z0.6075 I-0.0125 J0.0004
G1 X1.1022
X1.0962 Y1.0622
X1.0903 Y1.0613
X1.0845 Y1.0599
X1.0824 Y1.0592
X1.0743 Y1.055
X1.068 Y1.0486
X1.0639 Y1.0405
X1.0625 Y1.0315
G3 X1.0754 Y1.0195 Z0.6155 I0.0125 J0.0004
G1 X1.0777 Y1.0198
X1.0799 Y1.0205
X1.082 Y1.0216
X1.0843 Y1.0231
X1.1088 Y1.0396
G3 X1.1143 Y1.0496 I-0.007 J0.0104
G3 X1.1022 Y1.0625 Z0.6075 I-0.0125 J0.0004
G1 X1.0765
X1.0736 Y1.0624
X1.0722 Y1.062
X1.0707 Y1.0615
X1.0693 Y1.0608
X1.0678 Y1.0599
X1.067 Y1.0592
X1.0662 Y1.0583
X1.0649 Y1.0568
X1.0641 Y1.0554
X1.0634 Y1.0541
X1.0629 Y1.0526
X1.0626 Y1.0512
X1.0625 Y1.0483
Y0.8484
G3 X1.0742 Y0.8364 I0.0125 J0.0004
G1 X1.075
X1.0771 Y0.8369 Z0.6079
X1.0791 Y0.8374 Z0.6086
X1.081 Y0.8379 Z0.6096
X1.0824 Y0.8391 Z0.6112
X1.0835 Y0.8401 Z0.6131
X1.0844 Y0.8409 Z0.6152
X1.0849 Y0.8413 Z0.6176
X1.0851 Y0.8415 Z0.62
Z1.12
X2.5883 Y3.1412
Z0.32
Z0.3075
X2.5881 Y3.1409 Z0.3047
X2.5876 Y3.1401 Z0.3021
X2.5869 Y3.1388 Z0.2997
X2.5859 Y3.1371 Z0.2977
X2.5846 Y3.1351 Z0.2962
X2.5833 Y3.1328 Z0.2953
X2.5819 Y3.1304 Z0.295
G3 X2.5625 Y3.0645 I0.1191 J-0.0708
G1 Y2.0145
Y2.0087
X2.5621 Y1.9971
X2.5618 Y1.9913
X2.5607 Y1.9855
X2.5589 Y1.9798
X2.557 Y1.9746
X2.5537 Y1.9682
X2.5497 Y1.9624
X2.5454 Y1.9572
X2.5449 Y1.9566
X2.5396 Y1.9517
X2.5384 Y1.9508
X2.5338 Y1.9477
X2.5297 Y1.945
X2.5281 Y1.9442
X2.5223 Y1.9417
X2.5165 Y1.9398
X2.5144 Y1.9393
X2.5107 Y1.9386
X2.5049 Y1.9378
X2.4991 Y1.9375
X2.262
X2.1637
X2.1577 Y1.9372
X2.1494 Y1.9361
X2.1427 Y1.9347
X2.1347 Y1.9323
X2.125 Y1.9285
X2.1151 Y1.9237
X2.1081 Y1.9196
X2.0999 Y1.9138
X2.09 Y1.9056
X2.0791 Y1.895
X2.0743 Y1.8894
X2.0688 Y1.882
X2.0669 Y1.879
X2.0645 Y1.8742
X2.063 Y1.869
X2.0625 Y1.8636
G3 X2.0754 Y1.8515 Z0.303 I0.0125 J0.0004
G1 X2.0778 Y1.8518
X2.08 Y1.8526
X2.0821 Y1.8537
X2.0842 Y1.8552
X2.1704 Y1.9147
G3 X2.1758 Y1.9246 I-0.0071 J0.0103
G3 X2.1637 Y1.9375 Z0.295 I-0.0125 J0.0004
G1 X2.1059
X2.0998 Y1.9372
X2.0938 Y1.9364
X2.088 Y1.9351
X2.0822 Y1.9333
X2.0808 Y1.9328
X2.0733 Y1.9284
X2.0675 Y1.922
X2.0638 Y1.9142
X2.0625 Y1.9057
G3 X2.0754 Y1.8936 Z0.303 I0.0125 J0.0004
G1 X2.0776 Y1.8939
X2.0796 Y1.8945
X2.0816 Y1.8955
X2.0843 Y1.8972
X2.112 Y1.9144
G3 X2.118 Y1.9246 I-0.0066 J0.0106
G3 X2.1059 Y1.9375 Z0.295 I-0.0125 J0.0004
G1 X2.077
X2.0741 Y1.9374
X2.0726 Y1.9371
X2.0712 Y1.9367
X2.07 Y1.9362
X2.0688 Y1.9355
X2.0676 Y1.9346
X2.0665 Y1.9335
X2.0654 Y1.9323
X2.0646 Y1.9311
X2.0639 Y1.93
X2.0634 Y1.9288
X2.063 Y1.9277
X2.0627 Y1.9262
X2.0625 Y1.9248
Y0.0069
X2.0624 Y0.0011
G3 X2.0849 Y-0.0061 I0.0125 J0.0003
G1 X2.0866 Y-0.0039 Z0.2953
X2.0882 Y-0.0018 Z0.2962
X2.0896 Y0.0001 Z0.2977
X2.0908 Y0.0017 Z0.2997
X2.0917 Y0.0029 Z0.3021
X2.0922 Y0.0036 Z0.3047
X2.0924 Y0.0039 Z0.3075
Z1.12
X0.5648 Y-0.0979
Z0.32
Z0.3075
X0.5646 Y-0.0977 Z0.3047
X0.5639 Y-0.0971 Z0.3021
X0.5627 Y-0.0962 Z0.2997
X0.5612 Y-0.0949 Z0.2977
X0.5593 Y-0.0934 Z0.2962
X0.5573 Y-0.0918 Z0.2953
X0.5551 Y-0.0901 Z0.295
G3 X0.4924 Y-0.0618 I-0.0865 J-0.1082
G1 X0.4866 Y-0.061
X0.4808 Y-0.0593
X0.4751 Y-0.0572
X0.4693 Y-0.0543
X0.4635 Y-0.0507
X0.4577 Y-0.0459
X0.4569 Y-0.0452
X0.4519 Y-0.0399
X0.4474 Y-0.0336
X0.4461 Y-0.0315
X0.4442 Y-0.0278
X0.4416 Y-0.022
X0.4404 Y-0.0182
X0.4398 Y-0.0163
X0.4385 Y-0.0105
X0.4377 Y-0.0047
X0.4376 Y0.0011
X0.4375 Y0.0069
Y1.8351
X0.4371 Y1.8423
X0.436 Y1.8507
X0.4342 Y1.8593
X0.4323 Y1.8658
X0.4292 Y1.8736
X0.4247 Y1.8829
X0.4199 Y1.891
X0.414 Y1.8994
X0.4056 Y1.9095
X0.3948 Y1.9207
X0.3893 Y1.9255
X0.382 Y1.9308
X0.3784 Y1.9331
X0.3735 Y1.9355
X0.3683 Y1.937
X0.3629 Y1.9375
G3 X0.3509 Y1.9246 Z0.303 I0.0004 J-0.0125
G1 X0.3512 Y1.9222
X0.3519 Y1.92
X0.3531 Y1.9179
X0.3546 Y1.9158
X0.4147 Y1.8285
G3 X0.4246 Y1.8231 I0.0103 J0.0071
G3 X0.4375 Y1.8351 Z0.295 I0.0004 J0.0125
G1 Y1.893
X0.4372 Y1.8998
X0.4364 Y1.9058
X0.4351 Y1.9116
X0.4333 Y1.9174
X0.4326 Y1.9192
X0.4282 Y1.9266
X0.4218 Y1.9325
X0.414 Y1.9362
X0.4055 Y1.9375
G3 X0.3934 Y1.9246 Z0.303 I0.0004 J-0.0125
G1 X0.3937 Y1.9225
X0.3943 Y1.9204
X0.3952 Y1.9185
X0.397 Y1.9157
X0.4143 Y1.8869
G3 X0.4246 Y1.8809 I0.0107 J0.0065
G3 X0.4375 Y1.893 Z0.295 I0.0004 J0.0125
G1 Y1.9248
X0.4373 Y1.9262
X0.437 Y1.9277
X0.4366 Y1.9288
X0.4361 Y1.93
X0.4354 Y1.9311
X0.4346 Y1.9323
X0.4335 Y1.9335
X0.4324 Y1.9346
X0.4312 Y1.9355
X0.43 Y1.9362
X0.4288 Y1.9367
X0.4274 Y1.9371
X0.4259 Y1.9374
X0.423 Y1.9375
X0.0066
X0.0009
G3 X-0.0112 Y1.9258 I0.0004 J-0.0125
G1 X-0.0113 Y1.925
X-0.0107 Y1.9229 Z0.2954
X-0.0102 Y1.9209 Z0.2961
X-0.0097 Y1.9191 Z0.2972
X-0.0085 Y1.9177 Z0.2987
X-0.0075 Y1.9165 Z0.3006
X-0.0068 Y1.9157 Z0.3028
X-0.0063 Y1.9152 Z0.3051
X-0.0062 Y1.915 Z0.3075
Z1.12
X1.1643 Y0.8618
Z0.32
Z0.3075
X1.164 Y0.8619 Z0.3047
X1.1631 Y0.8621 Z0.3021
X1.1617 Y0.8625 Z0.2997
X1.1597 Y0.863 Z0.2977
X1.1574 Y0.8636 Z0.2962
X1.1549 Y0.8642 Z0.2953
X1.1522 Y0.8649 Z0.295
G3 X1.0841 Y0.8747 I-0.0792 J-0.3091
G1 X1.0781
X1.0733 Y0.8712
X1.0691 Y0.8669
X1.0687 Y0.8664
X1.0653 Y0.861
X1.0632 Y0.8549
X1.0625 Y0.8484
Y0.6607
X1.0629 Y0.6536
X1.064 Y0.645
X1.0663 Y0.6342
X1.0698 Y0.6225
X1.072 Y0.6169
X1.0751 Y0.6106
X1.0794 Y0.6033
X1.0856 Y0.5945
X1.0945 Y0.584
X1.1003 Y0.578
X1.106 Y0.5731
X1.1134 Y0.5677
X1.1148 Y0.5668
X1.1196 Y0.5645
X1.1247 Y0.563
X1.1301 Y0.5625
G3 X1.1421 Y0.5754 Z0.303 I-0.0004 J0.0125
G1 X1.1418 Y0.5776
X1.1412 Y0.5798
X1.1402 Y0.5817
X1.1385 Y0.5843
X1.0855 Y0.667
G3 X1.0754 Y0.6727 I-0.0105 J-0.0067
G3 X1.0625 Y0.6607 Z0.295 I-0.0004 J-0.0125
G1 Y0.597
X1.0628 Y0.591
X1.0639 Y0.5851
X1.0644 Y0.5836
X1.0674 Y0.5767
X1.072 Y0.5708
X1.078 Y0.5663
X1.085 Y0.5635
X1.0924 Y0.5625
G3 X1.1044 Y0.5754 Z0.303 I-0.0004 J0.0125
G1 X1.1041 Y0.578
X1.1032 Y0.5805
X1.1018 Y0.5827
X1.1007 Y0.5842
X1.0848 Y0.6043
G3 X1.0754 Y0.6091 I-0.0098 J-0.0077
G3 X1.0625 Y0.597 Z0.295 I-0.0004 J-0.0125
G1 Y0.5797
X1.0626 Y0.5739
X1.0629 Y0.5724
X1.0633 Y0.571
X1.064 Y0.5695
X1.0649 Y0.568
X1.0656 Y0.5672
X1.0664 Y0.5664
X1.0678 Y0.5651
X1.0693 Y0.5642
X1.0707 Y0.5635
X1.0722 Y0.563
X1.0736 Y0.5626
X1.0765 Y0.5625
X1.3425
X1.3505 Y0.5629
X1.3584 Y0.5639
X1.3675 Y0.5659
X1.3733 Y0.5676
X1.3788 Y0.5699
X1.3852 Y0.5732
X1.3927 Y0.5779
X1.4016 Y0.5844
X1.4124 Y0.5939
X1.4224 Y0.6041
X1.4272 Y0.61
X1.4327 Y0.6177
X1.4335 Y0.6191
X1.4357 Y0.6237
X1.437 Y0.6287
X1.4375 Y0.6339
G3 X1.4246 Y0.6459 Z0.303 I-0.0125 J-0.0004
G1 X1.4222 Y0.6456
X1.4199 Y0.6448
X1.4178 Y0.6436
X1.4158 Y0.6422
X1.3357 Y0.5852
G3 X1.3305 Y0.5754 I0.0073 J-0.0102
G3 X1.3425 Y0.5625 Z0.295 I0.0125 J-0.0004
G1 X1.3978
X1.4038 Y0.5628
X1.4097 Y0.5637
X1.4155 Y0.5651
X1.4177 Y0.5659
X1.4257 Y0.57
X1.432 Y0.5765
X1.4361 Y0.5846
X1.4375 Y0.5935
G3 X1.4246 Y0.6055 Z0.303 I-0.0125 J-0.0004
G1 X1.4223 Y0.6052
X1.4201 Y0.6045
X1.418 Y0.6034
X1.4157 Y0.6019
X1.3912 Y0.5854
G3 X1.3857 Y0.5754 I0.007 J-0.0104
G3 X1.3978 Y0.5625 Z0.295 I0.0125 J-0.0004
G1 X1.4235
X1.4264 Y0.5626
X1.4278 Y0.563
X1.4293 Y0.5635
X1.4307 Y0.5642
X1.4322 Y0.5651
X1.4336 Y0.5664
X1.4344 Y0.5672
X1.4351 Y0.5681
X1.436 Y0.5695
X1.4367 Y0.571
X1.4371 Y0.5724
X1.4374 Y0.5739
X1.4375 Y0.5797
Y0.9615
X1.4371 Y0.9703
X1.4359 Y0.9791
X1.4336 Y0.99
X1.4297 Y1.0029
X1.4275 Y1.0085
X1.4245 Y1.0147
X1.4201 Y1.022
X1.414 Y1.0306
X1.4052 Y1.0411
X1.3993 Y1.0471
X1.3937 Y1.0519
X1.3864 Y1.0573
X1.385 Y1.0582
X1.3802 Y1.0606
X1.375 Y1.062
X1.3697 Y1.0625
G3 X1.3576 Y1.0496 Z0.303 I0.0004 J-0.0125
G1 X1.3579 Y1.0474
X1.3585 Y1.0453
X1.3595 Y1.0434
X1.3612 Y1.0407
X1.4144 Y0.9553
G3 X1.4246 Y0.9494 I0.0106 J0.0066
G3 X1.4375 Y0.9615 Z0.295 I0.0004 J0.0125
G1 Y1.0251
X1.4372 Y1.0311
X1.4364 Y1.0371
X1.4356 Y1.0402
X1.4328 Y1.0474
X1.4282 Y1.0536
X1.4221 Y1.0584
X1.415 Y1.0615
X1.4073 Y1.0625
G3 X1.3952 Y1.0496 Z0.303 I0.0004 J-0.0125
G1 X1.3955 Y1.0472
X1.3963 Y1.0449
X1.3975 Y1.0428
X1.3989 Y1.0408
X1.4148 Y1.0184
G3 X1.4246 Y1.0131 I0.0102 J0.0072
G3 X1.4375 Y1.0251 Z0.295 I0.0004 J0.0125
G1 Y1.0483
X1.4374 Y1.0512
X1.4371 Y1.0526
X1.4366 Y1.0541
X1.4359 Y1.0554
X1.4351 Y1.0568
X1.4338 Y1.0583
X1.433 Y1.0592
X1.4322 Y1.0599
X1.4307 Y1.0608
X1.4293 Y1.0615
X1.4278 Y1.062
X1.4264 Y1.0624
X1.4235 Y1.0625
X1.1575
X1.1495 Y1.0621
X1.1417 Y1.0611
X1.1324 Y1.0591
X1.1267 Y1.0574
X1.1211 Y1.0551
X1.1147 Y1.0518
X1.1072 Y1.0471
X1.0983 Y1.0405
X1.0874 Y1.031
X1.078 Y1.0215
X1.0727 Y1.015
X1.0667 Y1.0065
X1.0665 Y1.0062
X1.0643 Y1.0016
X1.063 Y0.9966
X1.0625 Y0.9914
G3 X1.0754 Y0.9794 Z0.303 I0.0125 J0.0004
G1 X1.0778 Y0.9797
X1.0801 Y0.9805
X1.0822 Y0.9817
X1.0842 Y0.9831
X1.1643 Y1.0398
G3 X1.1695 Y1.0496 I-0.0072 J0.0102
G3 X1.1575 Y1.0625 Z0.295 I-0.0125 J0.0004
G1 X1.1022
X1.0962 Y1.0622
X1.0903 Y1.0613
X1.0845 Y1.0599
X1.0824 Y1.0592
X1.0743 Y1.055
X1.068 Y1.0486
X1.0639 Y1.0405
X1.0625 Y1.0315
G3 X1.0754 Y1.0195 Z0.303 I0.0125 J0.0004
G1 X1.0777 Y1.0198
X1.0799 Y1.0205
X1.082 Y1.0216
X1.0843 Y1.0231
X1.1088 Y1.0396
G3 X1.1143 Y1.0496 I-0.007 J0.0104
G3 X1.1022 Y1.0625 Z0.295 I-0.0125 J0.0004
G1 X1.0765
X1.0736 Y1.0624
X1.0722 Y1.062
X1.0707 Y1.0615
X1.0693 Y1.0608
X1.0678 Y1.0599
X1.067 Y1.0592
X1.0662 Y1.0583
X1.0649 Y1.0568
X1.0641 Y1.0554
X1.0634 Y1.0541
X1.0629 Y1.0526
X1.0626 Y1.0512
X1.0625 Y1.0483
Y0.8484
G3 X1.0742 Y0.8364 I0.0125 J0.0004
G1 X1.075
X1.0771 Y0.8369 Z0.2954
X1.0791 Y0.8374 Z0.2961
X1.081 Y0.8379 Z0.2971
X1.0824 Y0.8391 Z0.2987
X1.0835 Y0.8401 Z0.3006
X1.0844 Y0.8409 Z0.3027
X1.0849 Y0.8413 Z0.3051
X1.0851 Y0.8415 Z0.3075
Z1.12
X2.5883 Y3.1412
Z0.025
Z0.0125
X2.5881 Y3.1409 Z0.0097
X2.5876 Y3.1401 Z0.0071
X2.5869 Y3.1388 Z0.0047
X2.5859 Y3.1371 Z0.0027
X2.5846 Y3.1351 Z0.0012
X2.5833 Y3.1328 Z0.0003
X2.5819 Y3.1304 Z0.
G3 X2.5625 Y3.0645 I0.1191 J-0.0708
G1 Y2.0145
Y2.0087
X2.5621 Y1.9971
X2.5618 Y1.9913
X2.5607 Y1.9855
X2.5589 Y1.9798
X2.557 Y1.9746
X2.5537 Y1.9682
X2.5497 Y1.9624
X2.5454 Y1.9572
X2.5449 Y1.9566
X2.5396 Y1.9517
X2.5384 Y1.9508
X2.5338 Y1.9477
X2.5297 Y1.945
X2.5281 Y1.9442
X2.5223 Y1.9417
X2.5165 Y1.9398
X2.5144 Y1.9393
X2.5107 Y1.9386
X2.5049 Y1.9378
X2.4991 Y1.9375
X2.262
X2.1637
X2.1577 Y1.9372
X2.1494 Y1.9361
X2.1427 Y1.9347
X2.1347 Y1.9323
X2.125 Y1.9285
X2.1151 Y1.9237
X2.1081 Y1.9196
X2.0999 Y1.9138
X2.09 Y1.9056
X2.0791 Y1.895
X2.0743 Y1.8894
X2.0688 Y1.882
X2.0669 Y1.879
X2.0645 Y1.8742
X2.063 Y1.869
X2.0625 Y1.8636
G3 X2.0754 Y1.8515 Z0.008 I0.0125 J0.0004
G1 X2.0778 Y1.8518
X2.08 Y1.8526
X2.0821 Y1.8537
X2.0842 Y1.8552
X2.1704 Y1.9147
G3 X2.1758 Y1.9246 I-0.0071 J0.0103
G3 X2.1637 Y1.9375 Z0. I-0.0125 J0.0004
G1 X2.1059
X2.0998 Y1.9372
X2.0938 Y1.9364
X2.088 Y1.9351
X2.0822 Y1.9333
X2.0808 Y1.9328
X2.0733 Y1.9284
X2.0675 Y1.922
X2.0638 Y1.9142
X2.0625 Y1.9057
G3 X2.0754 Y1.8936 Z0.008 I0.0125 J0.0004
G1 X2.0776 Y1.8939
X2.0796 Y1.8945
X2.0816 Y1.8955
X2.0843 Y1.8972
X2.112 Y1.9144
G3 X2.118 Y1.9246 I-0.0066 J0.0106
G3 X2.1059 Y1.9375 Z0. I-0.0125 J0.0004
G1 X2.077
X2.0741 Y1.9374
X2.0726 Y1.9371
X2.0712 Y1.9367
X2.07 Y1.9362
X2.0688 Y1.9355
X2.0676 Y1.9346
X2.0665 Y1.9335
X2.0654 Y1.9323
X2.0646 Y1.9311
X2.0639 Y1.93
X2.0634 Y1.9288
X2.063 Y1.9277
X2.0627 Y1.9262
X2.0625 Y1.9248
Y0.0069
X2.0624 Y0.0011
G3 X2.0849 Y-0.0061 I0.0125 J0.0003
G1 X2.0866 Y-0.0039 Z0.0003
X2.0882 Y-0.0018 Z0.0012
X2.0896 Y0.0001 Z0.0027
X2.0908 Y0.0017 Z0.0047
X2.0917 Y0.0029 Z0.0071
X2.0922 Y0.0036 Z0.0097
X2.0924 Y0.0039 Z0.0125
Z1.12
X0.5648 Y-0.0979
Z0.025
Z0.0125
X0.5646 Y-0.0977 Z0.0097
X0.5639 Y-0.0971 Z0.0071
X0.5627 Y-0.0962 Z0.0047
X0.5612 Y-0.0949 Z0.0027
X0.5593 Y-0.0934 Z0.0012
X0.5573 Y-0.0918 Z0.0003
X0.5551 Y-0.0901 Z0.
G3 X0.4924 Y-0.0618 I-0.0865 J-0.1082
G1 X0.4866 Y-0.061
X0.4808 Y-0.0593
X0.4751 Y-0.0572
X0.4693 Y-0.0543
X0.4635 Y-0.0507
X0.4577 Y-0.0459
X0.4569 Y-0.0452
X0.4519 Y-0.0399
X0.4474 Y-0.0336
X0.4461 Y-0.0315
X0.4442 Y-0.0278
X0.4416 Y-0.022
X0.4404 Y-0.0182
X0.4398 Y-0.0163
X0.4385 Y-0.0105
X0.4377 Y-0.0047
X0.4376 Y0.0011
X0.4375 Y0.0069
Y1.8351
X0.4371 Y1.8423
X0.436 Y1.8507
X0.4342 Y1.8593
X0.4323 Y1.8658
X0.4292 Y1.8736
X0.4247 Y1.8829
X0.4199 Y1.891
X0.414 Y1.8994
X0.4056 Y1.9095
X0.3948 Y1.9207
X0.3893 Y1.9255
X0.382 Y1.9308
X0.3784 Y1.9331
X0.3735 Y1.9355
X0.3683 Y1.937
X0.3629 Y1.9375
G3 X0.3509 Y1.9246 Z0.008 I0.0004 J-0.0125
G1 X0.3512 Y1.9222
X0.3519 Y1.92
X0.3531 Y1.9179
X0.3546 Y1.9158
X0.4147 Y1.8285
G3 X0.4246 Y1.8231 I0.0103 J0.0071
G3 X0.4375 Y1.8351 Z0. I0.0004 J0.0125
G1 Y1.893
X0.4372 Y1.8998
X0.4364 Y1.9058
X0.4351 Y1.9116
X0.4333 Y1.9174
X0.4326 Y1.9192
X0.4282 Y1.9266
X0.4218 Y1.9325
X0.414 Y1.9362
X0.4055 Y1.9375
G3 X0.3934 Y1.9246 Z0.008 I0.0004 J-0.0125
G1 X0.3937 Y1.9225
X0.3943 Y1.9204
X0.3952 Y1.9185
X0.397 Y1.9157
X0.4143 Y1.8869
G3 X0.4246 Y1.8809 I0.0107 J0.0065
G3 X0.4375 Y1.893 Z0. I0.0004 J0.0125
G1 Y1.9248
X0.4373 Y1.9262
X0.437 Y1.9277
X0.4366 Y1.9288
X0.4361 Y1.93
X0.4354 Y1.9311
X0.4346 Y1.9323
X0.4335 Y1.9335
X0.4324 Y1.9346
X0.4312 Y1.9355
X0.43 Y1.9362
X0.4288 Y1.9367
X0.4274 Y1.9371
X0.4259 Y1.9374
X0.423 Y1.9375
X0.0066
X0.0009
G3 X-0.0112 Y1.9258 I0.0004 J-0.0125
G1 X-0.0113 Y1.925
X-0.0107 Y1.9229 Z0.0004
X-0.0102 Y1.9209 Z0.0011
X-0.0097 Y1.9191 Z0.0022
X-0.0085 Y1.9177 Z0.0037
X-0.0075 Y1.9165 Z0.0056
X-0.0068 Y1.9157 Z0.0078
X-0.0063 Y1.9152 Z0.0101
X-0.0062 Y1.915 Z0.0125
Z1.12
X1.1643 Y0.8618
Z0.025
Z0.0125
X1.164 Y0.8619 Z0.0097
X1.1631 Y0.8621 Z0.0071
X1.1617 Y0.8625 Z0.0047
X1.1597 Y0.863 Z0.0027
X1.1574 Y0.8636 Z0.0012
X1.1549 Y0.8642 Z0.0003
X1.1522 Y0.8649 Z0.
G3 X1.0841 Y0.8747 I-0.0792 J-0.3091
G1 X1.0781
X1.0733 Y0.8712
X1.0691 Y0.8669
X1.0687 Y0.8664
X1.0653 Y0.861
X1.0632 Y0.8549
X1.0625 Y0.8484
Y0.6607
X1.0629 Y0.6536
X1.064 Y0.645
X1.0663 Y0.6342
X1.0698 Y0.6225
X1.072 Y0.6169
X1.0751 Y0.6106
X1.0794 Y0.6033
X1.0856 Y0.5945
X1.0945 Y0.584
X1.1003 Y0.578
X1.106 Y0.5731
X1.1134 Y0.5677
X1.1148 Y0.5668
X1.1196 Y0.5645
X1.1247 Y0.563
X1.1301 Y0.5625
G3 X1.1421 Y0.5754 Z0.008 I-0.0004 J0.0125
G1 X1.1418 Y0.5776
X1.1412 Y0.5798
X1.1402 Y0.5817
X1.1385 Y0.5843
X1.0855 Y0.667
G3 X1.0754 Y0.6727 I-0.0105 J-0.0067
G3 X1.0625 Y0.6607 Z0. I-0.0004 J-0.0125
G1 Y0.597
X1.0628 Y0.591
X1.0639 Y0.5851
X1.0644 Y0.5836
X1.0674 Y0.5767
X1.072 Y0.5708
X1.078 Y0.5663
X1.085 Y0.5635
X1.0924 Y0.5625
G3 X1.1044 Y0.5754 Z0.008 I-0.0004 J0.0125
G1 X1.1041 Y0.578
X1.1032 Y0.5805
X1.1018 Y0.5827
X1.1007 Y0.5842
X1.0848 Y0.6043
G3 X1.0754 Y0.6091 I-0.0098 J-0.0077
G3 X1.0625 Y0.597 Z0. I-0.0004 J-0.0125
G1 Y0.5797
X1.0626 Y0.5739
X1.0629 Y0.5724
X1.0633 Y0.571
X1.064 Y0.5695
X1.0649 Y0.568
X1.0656 Y0.5672
X1.0664 Y0.5664
X1.0678 Y0.5651
X1.0693 Y0.5642
X1.0707 Y0.5635
X1.0722 Y0.563
X1.0736 Y0.5626
X1.0765 Y0.5625
X1.3425
X1.3505 Y0.5629
X1.3584 Y0.5639
X1.3675 Y0.5659
X1.3733 Y0.5676
X1.3788 Y0.5699
X1.3852 Y0.5732
X1.3927 Y0.5779
X1.4016 Y0.5844
X1.4124 Y0.5939
X1.4224 Y0.6041
X1.4272 Y0.61
X1.4327 Y0.6177
X1.4335 Y0.6191
X1.4357 Y0.6237
X1.437 Y0.6287
X1.4375 Y0.6339
G3 X1.4246 Y0.6459 Z0.008 I-0.0125 J-0.0004
G1 X1.4222 Y0.6456
X1.4199 Y0.6448
X1.4178 Y0.6436
X1.4158 Y0.6422
X1.3357 Y0.5852
G3 X1.3305 Y0.5754 I0.0073 J-0.0102
G3 X1.3425 Y0.5625 Z0. I0.0125 J-0.0004
G1 X1.3978
X1.4038 Y0.5628
X1.4097 Y0.5637
X1.4155 Y0.5651
X1.4177 Y0.5659
X1.4257 Y0.57
X1.432 Y0.5765
X1.4361 Y0.5846
X1.4375 Y0.5935
G3 X1.4246 Y0.6055 Z0.008 I-0.0125 J-0.0004
G1 X1.4223 Y0.6052
X1.4201 Y0.6045
X1.418 Y0.6034
X1.4157 Y0.6019
X1.3912 Y0.5854
G3 X1.3857 Y0.5754 I0.007 J-0.0104
G3 X1.3978 Y0.5625 Z0. I0.0125 J-0.0004
G1 X1.4235
X1.4264 Y0.5626
X1.4278 Y0.563
X1.4293 Y0.5635
X1.4307 Y0.5642
X1.4322 Y0.5651
X1.4336 Y0.5664
X1.4344 Y0.5672
X1.4351 Y0.5681
X1.436 Y0.5695
X1.4367 Y0.571
X1.4371 Y0.5724
X1.4374 Y0.5739
X1.4375 Y0.5797
Y0.9615
X1.4371 Y0.9703
X1.4359 Y0.9791
X1.4336 Y0.99
X1.4297 Y1.0029
X1.4275 Y1.0085
X1.4245 Y1.0147
X1.4201 Y1.022
X1.414 Y1.0306
X1.4052 Y1.0411
X1.3993 Y1.0471
X1.3937 Y1.0519
X1.3864 Y1.0573
X1.385 Y1.0582
X1.3802 Y1.0606
X1.375 Y1.062
X1.3697 Y1.0625
G3 X1.3576 Y1.0496 Z0.008 I0.0004 J-0.0125
G1 X1.3579 Y1.0474
X1.3585 Y1.0453
X1.3595 Y1.0434
X1.3612 Y1.0407
X1.4144 Y0.9553
G3 X1.4246 Y0.9494 I0.0106 J0.0066
G3 X1.4375 Y0.9615 Z0. I0.0004 J0.0125
G1 Y1.0251
X1.4372 Y1.0311
X1.4364 Y1.0371
X1.4356 Y1.0402
X1.4328 Y1.0474
X1.4282 Y1.0536
X1.4221 Y1.0584
X1.415 Y1.0615
X1.4073 Y1.0625
G3 X1.3952 Y1.0496 Z0.008 I0.0004 J-0.0125
G1 X1.3955 Y1.0472
X1.3963 Y1.0449
X1.3975 Y1.0428
X1.3989 Y1.0408
X1.4148 Y1.0184
G3 X1.4246 Y1.0131 I0.0102 J0.0072
G3 X1.4375 Y1.0251 Z0. I0.0004 J0.0125
G1 Y1.0483
X1.4374 Y1.0512
X1.4371 Y1.0526
X1.4366 Y1.0541
X1.4359 Y1.0554
X1.4351 Y1.0568
X1.4338 Y1.0583
X1.433 Y1.0592
X1.4322 Y1.0599
X1.4307 Y1.0608
X1.4293 Y1.0615
X1.4278 Y1.062
X1.4264 Y1.0624
X1.4235 Y1.0625
X1.1575
X1.1495 Y1.0621
X1.1417 Y1.0611
X1.1324 Y1.0591
X1.1267 Y1.0574
X1.1211 Y1.0551
X1.1147 Y1.0518
X1.1072 Y1.0471
X1.0983 Y1.0405
X1.0874 Y1.031
X1.078 Y1.0215
X1.0727 Y1.015
X1.0667 Y1.0065
X1.0665 Y1.0062
X1.0643 Y1.0016
X1.063 Y0.9966
X1.0625 Y0.9914
G3 X1.0754 Y0.9794 Z0.008 I0.0125 J0.0004
G1 X1.0778 Y0.9797
X1.0801 Y0.9805
X1.0822 Y0.9817
X1.0842 Y0.9831
X1.1643 Y1.0398
G3 X1.1695 Y1.0496 I-0.0072 J0.0102
G3 X1.1575 Y1.0625 Z0. I-0.0125 J0.0004
G1 X1.1022
X1.0962 Y1.0622
X1.0903 Y1.0613
X1.0845 Y1.0599
X1.0824 Y1.0592
X1.0743 Y1.055
X1.068 Y1.0486
X1.0639 Y1.0405
X1.0625 Y1.0315
G3 X1.0754 Y1.0195 Z0.008 I0.0125 J0.0004
G1 X1.0777 Y1.0198
X1.0799 Y1.0205
X1.082 Y1.0216
X1.0843 Y1.0231
X1.1088 Y1.0396
G3 X1.1143 Y1.0496 I-0.007 J0.0104
G3 X1.1022 Y1.0625 Z0. I-0.0125 J0.0004
G1 X1.0765
X1.0736 Y1.0624
X1.0722 Y1.062
X1.0707 Y1.0615
X1.0693 Y1.0608
X1.0678 Y1.0599
X1.067 Y1.0592
X1.0662 Y1.0583
X1.0649 Y1.0568
X1.0641 Y1.0554
X1.0634 Y1.0541
X1.0629 Y1.0526
X1.0626 Y1.0512
X1.0625 Y1.0483
Y0.8484
G3 X1.0851 Y0.8415 I0.0125 J0.0004
G1 X1.0867 Y0.8437 Z0.0003
X1.0883 Y0.8458 Z0.0012
X1.0897 Y0.8478 Z0.0027
X1.0909 Y0.8494 Z0.0047
X1.0917 Y0.8506 Z0.0071
X1.0923 Y0.8513 Z0.0097
X1.0925 Y0.8516 Z0.0125
Z1.52
G53 Z
M5
G53 P10
