[test_tenon_t3]
[Machine]
[  vendor: Nova Labs]
[  model: ShopSaber]
[  description: Generic 3-axis]
[T3 D=0.25 CR=0. - ZMIN=0. - flat end mill]
G90
G20
[When using Fusion for Personal Use, the feedrate of rapid]
[moves is reduced to match the feedrate of cutting moves,]
[which can increase machining time. Unrestricted rapid moves]
[are available with a Fusion Subscription.]
G53 Z
[Shoulders]
M0
[MANUAL TOOL CHANGE TO T3]
S15000
M3
G4 X4.
G90
G0 X2.6708 Y3.3049
Z2.12
G1 Z1.12 F25.
Z0.365
Z0.34
X2.6707 Y3.3046 Z0.3361 F25.
X2.6705 Y3.3037 Z0.3323
X2.6701 Y3.3023 Z0.3287
X2.6696 Y3.3003 Z0.3253
X2.669 Y3.2978 Z0.3223
X2.6682 Y3.2949 Z0.3198
X2.6674 Y3.2917 Z0.3177
X2.6665 Y3.2882 Z0.3162
X2.6655 Y3.2845 Z0.3153
X2.6646 Y3.2807 Z0.315
G3 X2.645 Y3.1446 I0.6183 J-0.1584
G1 Y3.125
X2.6453 Y3.119
X2.6633 Y3.0876
X2.6766 Y3.054
X2.6863 Y3.0191
X2.6932 Y2.9836
X2.698 Y2.9477
X2.7014 Y2.9117
X2.7038 Y2.8756
X2.7054 Y2.8395
X2.7065 Y2.8033
X2.7073 Y2.7671
X2.7079 Y2.7309
X2.7082 Y2.6948
X2.7085 Y2.6586
X2.7087 Y2.6224
X2.7089 Y2.55
X2.709 Y2.4415
X2.7091 Y2.1159
X2.7093 Y1.1389
X2.7095 Y0.1078
X2.7071 Y0.0898
X2.6943 Y0.056
X2.6711 Y0.0282
X2.6421 Y0.0066
X2.6097 Y-0.0096
X2.5756 Y-0.0215
X2.5404 Y-0.03
X2.5048 Y-0.0361
X2.4688 Y-0.0404
X2.4328 Y-0.0434
X2.3966 Y-0.0454
X2.3605 Y-0.0469
X2.3243 Y-0.0479
X2.2881 Y-0.0485
X2.252 Y-0.049
X2.2158 Y-0.0493
X2.1807 Y-0.0495
X2.1659 Y-0.0511
X2.1517 Y-0.0555
X2.1387 Y-0.0626
X2.1274 Y-0.0722
X2.1181 Y-0.0838
G3 X2.1204 Y-0.1127 I0.0215 J-0.0128
G1 X2.1229 Y-0.1157 Z0.3153
X2.1254 Y-0.1186 Z0.3162
X2.1277 Y-0.1214 Z0.3177
X2.1299 Y-0.124 Z0.3198
X2.1318 Y-0.1262 Z0.3223
X2.1334 Y-0.1282 Z0.3253
X2.1347 Y-0.1298 Z0.3287
X2.1357 Y-0.1309 Z0.3323
X2.1363 Y-0.1316 Z0.3361
X2.1365 Y-0.1319 Z0.34
Z1.12
X0.5442 Y-0.2372
Z0.365
Z0.34
X0.544 Y-0.237 Z0.3361
X0.5434 Y-0.2363 Z0.3323
X0.5425 Y-0.2352 Z0.3287
X0.5411 Y-0.2336 Z0.3253
X0.5394 Y-0.2317 Z0.3223
X0.5375 Y-0.2295 Z0.3198
X0.5353 Y-0.2269 Z0.3177
X0.5329 Y-0.2242 Z0.3162
X0.5304 Y-0.2213 Z0.3153
X0.5278 Y-0.2184 Z0.315
G3 X0.427 Y-0.1249 I-0.4816 J-0.4188
G1 X0.4063 Y-0.1107
X0.4053 Y-0.1096
X0.4009 Y-0.1054
X0.3943 Y-0.1009
X0.3859 Y-0.096
X0.3753 Y-0.0906
X0.3619 Y-0.0849
X0.3447 Y-0.0789
X0.322 Y-0.0725
X0.2906 Y-0.0658
X0.2548 Y-0.0606
X0.2188 Y-0.057
X0.1827 Y-0.0547
X0.1466 Y-0.053
X0.1104 Y-0.0519
X0.0924 Y-0.0503
X0.0582 Y-0.0385
X0.0299 Y-0.0158
X0.008 Y0.0129
X-0.0086 Y0.0451
X-0.0208 Y0.0791
X-0.0295 Y0.1142
X-0.0358 Y0.1499
X-0.0401 Y0.1858
X-0.0432 Y0.2219
X-0.0453 Y0.258
X-0.0468 Y0.2941
X-0.0478 Y0.3303
X-0.0485 Y0.3665
X-0.049 Y0.4026
X-0.0493 Y0.4388
X-0.0495 Y0.475
X-0.0497 Y0.5112
X-0.0498 Y0.5836
X-0.05 Y0.6921
Y1.0539
Y1.5605
Y1.8195
X-0.0514 Y1.8341
X-0.0557 Y1.8482
X-0.0626 Y1.8612
X-0.072 Y1.8725
X-0.0833 Y1.8818
G3 X-0.1122 Y1.88 I-0.0132 J-0.0213
G1 X-0.1153 Y1.8775 Z0.3153
X-0.1182 Y1.8751 Z0.3162
X-0.121 Y1.8728 Z0.3177
X-0.1236 Y1.8707 Z0.3198
X-0.126 Y1.8688 Z0.3223
X-0.1279 Y1.8672 Z0.3253
X-0.1295 Y1.866 Z0.3287
X-0.1307 Y1.865 Z0.3323
X-0.1314 Y1.8644 Z0.3361
X-0.1316 Y1.8642 Z0.34
Z1.12
X0.4248 Y-0.1615
Z0.365
Z0.34
X0.4247 Y-0.1612 Z0.3361
X0.4245 Y-0.1603 Z0.3323
X0.4242 Y-0.1589 Z0.3287
X0.4237 Y-0.1569 Z0.3253
X0.4232 Y-0.1544 Z0.3223
X0.4225 Y-0.1515 Z0.3198
X0.4218 Y-0.1482 Z0.3177
X0.421 Y-0.1447 Z0.3162
X0.4202 Y-0.1409 Z0.3153
X0.4193 Y-0.1371 Z0.315
G3 X0.4053 Y-0.1096 I-0.0608 J-0.0136
G1 X0.3868 Y-0.09
X0.3834 Y-0.0862
X0.381 Y-0.0824
X0.376 Y-0.0742
X0.3727 Y-0.0692
X0.3689 Y-0.0644
X0.3638 Y-0.059
X0.3582 Y-0.0535
X0.3514 Y-0.0477
X0.3427 Y-0.0413
X0.3328 Y-0.0348
X0.3206 Y-0.028
X0.3058 Y-0.0209
X0.2875 Y-0.0136
X0.2649 Y-0.0061
X0.2352 Y0.0016
X0.1997 Y0.0085
X0.1655 Y0.0202
X0.1351 Y0.0399
X0.1097 Y0.0656
X0.089 Y0.0954
X0.0728 Y0.1277
X0.0603 Y0.1617
X0.0509 Y0.1966
X0.0438 Y0.2321
X0.0386 Y0.2679
X0.0348 Y0.3039
X0.032 Y0.3399
X0.03 Y0.3761
X0.0286 Y0.4122
X0.0275 Y0.4484
X0.0268 Y0.4846
X0.0263 Y0.5207
X0.0259 Y0.5569
X0.0256 Y0.5931
X0.0255 Y0.6293
X0.0252 Y0.7016
X0.0251 Y0.8102
X0.025 Y1.0273
Y1.7147
X0.0249 Y1.7509
X0.0236 Y1.7758
X0.0215 Y1.7934
X0.0203 Y1.8004
X0.0162 Y1.8146
X0.0094 Y1.8278
X0. Y1.8394
X-0.0114 Y1.8489
X-0.0245 Y1.856
X-0.0387 Y1.8603
G3 X-0.0651 Y1.8484 I-0.0049 J-0.0245
G1 X-0.0671 Y1.845 Z0.3153
X-0.069 Y1.8418 Z0.3162
X-0.0708 Y1.8386 Z0.3177
X-0.0725 Y1.8357 Z0.3198
X-0.074 Y1.8332 Z0.3223
X-0.0753 Y1.831 Z0.3253
X-0.0764 Y1.8292 Z0.3287
X-0.0771 Y1.8279 Z0.3323
X-0.0776 Y1.8271 Z0.3361
X-0.0777 Y1.8268 Z0.34
Z1.12
X0.384 Y-0.1291
Z0.365
Z0.34
Y-0.1288 Z0.3361
Y-0.1279 Z0.3323
Y-0.1264 Z0.3287
Y-0.1243 Z0.3253
Y-0.1218 Z0.3223
Y-0.1188 Z0.3198
X0.3839 Y-0.1155 Z0.3177
Y-0.1118 Z0.3162
Y-0.108 Z0.3153
Y-0.1041 Z0.315
G3 X0.376 Y-0.0742 I-0.0623 J-0.0004
G1 X0.3711 Y-0.066
X0.3703 Y-0.0647
X0.3611 Y-0.0413
X0.3604 Y-0.0389
X0.3586 Y-0.0332
X0.3562 Y-0.0276
X0.3534 Y-0.0223
X0.3501 Y-0.0168
X0.346 Y-0.0111
X0.3408 Y-0.0045
X0.335 Y0.0018
X0.3276 Y0.0089
X0.3187 Y0.0164
X0.3087 Y0.0239
X0.2783 Y0.0435
X0.2474 Y0.0623
X0.2193 Y0.0851
X0.1948 Y0.1117
X0.1742 Y0.1415
X0.1574 Y0.1735
X0.1439 Y0.2071
X0.1333 Y0.2417
X0.125 Y0.2769
X0.1187 Y0.3125
X0.1139 Y0.3484
X0.1103 Y0.3844
X0.1076 Y0.4205
X0.1056 Y0.4566
X0.1041 Y0.4928
X0.103 Y0.5289
X0.1022 Y0.5651
X0.1016 Y0.6013
X0.1011 Y0.6374
X0.1008 Y0.6736
X0.1006 Y0.7098
X0.1004 Y0.746
X0.1002 Y0.8184
X0.1001 Y0.9269
X0.1 Y1.144
Y1.6505
X0.0998 Y1.6867
X0.0987 Y1.7229
X0.0965 Y1.7483
X0.0936 Y1.7669
X0.0903 Y1.7821
X0.0863 Y1.7961
X0.082 Y1.8083
X0.0773 Y1.8191
X0.0719 Y1.8298
X0.0667 Y1.8386
X0.0604 Y1.8477
X0.0563 Y1.8516
X0.0512 Y1.8541
X0.0456 Y1.855
X0.0086
X0.0004 Y1.8553
X-0.0041 Y1.8555
G3 X-0.028 Y1.839 I-0.0003 J-0.025
G1 X-0.0293 Y1.8353 Z0.3153
X-0.0306 Y1.8317 Z0.3162
X-0.0318 Y1.8283 Z0.3177
X-0.033 Y1.8252 Z0.3198
X-0.034 Y1.8224 Z0.3223
X-0.0348 Y1.82 Z0.3253
X-0.0355 Y1.8181 Z0.3287
X-0.036 Y1.8166 Z0.3323
X-0.0363 Y1.8158 Z0.3361
X-0.0365 Y1.8155 Z0.34
Z1.12
X0.3532 Y-0.0939
Z0.365
Z0.34
Y-0.0936 Z0.3361
X0.3535 Y-0.0927 Z0.3323
X0.3539 Y-0.0912 Z0.3287
X0.3544 Y-0.0893 Z0.3253
X0.3551 Y-0.0868 Z0.3223
X0.3559 Y-0.0839 Z0.3198
X0.3568 Y-0.0807 Z0.3177
X0.3578 Y-0.0772 Z0.3162
X0.3588 Y-0.0735 Z0.3153
X0.3598 Y-0.0698 Z0.315
G3 X0.3604 Y-0.0389 I-0.0601 J0.0166
G1 X0.3589 Y-0.0331
X0.3574 Y-0.0249
X0.3561 Y-0.0167
X0.3555 Y-0.004
X0.3549 Y0.002
X0.3539 Y0.0079
X0.3523 Y0.0137
X0.3502 Y0.0199
X0.3472 Y0.027
X0.3432 Y0.0349
X0.337 Y0.0457
X0.3168 Y0.0757
X0.295 Y0.1046
X0.2743 Y0.1343
X0.2559 Y0.1654
X0.2399 Y0.1979
X0.2265 Y0.2315
X0.2154 Y0.2659
X0.2064 Y0.301
X0.1993 Y0.3364
X0.1936 Y0.3722
X0.1892 Y0.4081
X0.1857 Y0.4441
X0.1831 Y0.4802
X0.1811 Y0.5163
X0.1796 Y0.5524
X0.1784 Y0.5886
X0.1775 Y0.6248
X0.1769 Y0.661
X0.1764 Y0.6971
X0.176 Y0.7333
X0.1758 Y0.7695
X0.1756 Y0.8057
X0.1753 Y0.878
X0.1751 Y0.9866
X0.175 Y1.1675
Y1.5655
X0.1749 Y1.6017
X0.1746 Y1.6379
X0.1736 Y1.674
X0.1713 Y1.7101
X0.1676 Y1.7395
X0.1629 Y1.7644
X0.1573 Y1.7858
X0.1512 Y1.8046
X0.1498 Y1.8079
X0.143 Y1.8211
X0.1337 Y1.8326
X0.1222 Y1.8421
X0.1092 Y1.8492
X0.095 Y1.8535
X0.0802 Y1.855
X0.0456
G3 X0.0225 Y1.8374 I0.0009 J-0.025
G1 X0.0214 Y1.8336 Z0.3153
X0.0203 Y1.83 Z0.3162
X0.0192 Y1.8265 Z0.3177
X0.0182 Y1.8233 Z0.3198
X0.0173 Y1.8205 Z0.3223
X0.0166 Y1.8181 Z0.3253
X0.016 Y1.8161 Z0.3287
X0.0155 Y1.8147 Z0.3323
X0.0153 Y1.8138 Z0.3361
X0.0152 Y1.8135 Z0.34
Z1.12
X0.3366 Y-0.0561
Z0.365
Z0.34
X0.3367 Y-0.0558 Z0.3361
X0.3371 Y-0.055 Z0.3323
X0.3379 Y-0.0537 Z0.3287
X0.3388 Y-0.0519 Z0.3253
X0.34 Y-0.0496 Z0.3223
X0.3414 Y-0.047 Z0.3198
X0.343 Y-0.0441 Z0.3177
X0.3447 Y-0.0409 Z0.3162
X0.3464 Y-0.0375 Z0.3153
X0.3483 Y-0.034 Z0.315
G3 X0.3555 Y-0.004 I-0.0551 J0.0292
G1 X0.3553 Y-0.0003
X0.355 Y0.0079
Y0.0572
X0.3546 Y0.0656
X0.3533 Y0.0764
X0.3505 Y0.0921
X0.344 Y0.1184
X0.3331 Y0.1529
X0.3213 Y0.1871
X0.3099 Y0.2214
X0.2996 Y0.2561
X0.2904 Y0.2911
X0.2826 Y0.3264
X0.276 Y0.362
X0.2706 Y0.3978
X0.2662 Y0.4337
X0.2626 Y0.4697
X0.2598 Y0.5058
X0.2575 Y0.5419
X0.2558 Y0.578
X0.2544 Y0.6142
X0.2534 Y0.6503
X0.2526 Y0.6865
X0.2519 Y0.7227
X0.2515 Y0.7589
X0.2511 Y0.7951
X0.2508 Y0.8312
X0.2506 Y0.8674
X0.2503 Y0.9398
X0.2502 Y1.0121
X0.2501 Y1.1569
X0.25 Y1.5187
X0.2499 Y1.5549
X0.2495 Y1.5911
X0.2487 Y1.6272
X0.2469 Y1.6634
X0.2438 Y1.6994
X0.239 Y1.7341
X0.2341 Y1.758
X0.2292 Y1.7759
X0.2238 Y1.7918
X0.2185 Y1.8045
X0.2126 Y1.8166
X0.2122 Y1.8174
X0.2047 Y1.8281
X0.1954 Y1.8374
X0.1847 Y1.8449
X0.1728 Y1.8505
X0.1602 Y1.8539
X0.1471 Y1.855
X0.0802
G3 X0.0572 Y1.8374 I0.0009 J-0.025
G1 X0.056 Y1.8336 Z0.3153
X0.0549 Y1.83 Z0.3162
X0.0539 Y1.8265 Z0.3177
X0.0529 Y1.8233 Z0.3198
X0.052 Y1.8205 Z0.3223
X0.0512 Y1.8181 Z0.3253
X0.0506 Y1.8161 Z0.3287
X0.0502 Y1.8147 Z0.3323
X0.0499 Y1.8138 Z0.3361
X0.0498 Y1.8135 Z0.34
Z1.12
X0.3335 Y0.0061
Z0.365
Z0.34
X0.3337 Y0.0063 Z0.3361
X0.3341 Y0.0071 Z0.3323
X0.3349 Y0.0084 Z0.3287
X0.336 Y0.0102 Z0.3253
X0.3373 Y0.0124 Z0.3223
X0.3388 Y0.0149 Z0.3198
X0.3405 Y0.0178 Z0.3177
X0.3423 Y0.0209 Z0.3162
X0.3443 Y0.0242 Z0.3153
X0.3463 Y0.0276 Z0.315
G3 X0.355 Y0.0572 I-0.0536 J0.0318
G1 Y0.238
X0.3532 Y0.2741
X0.3516 Y0.3102
X0.3488 Y0.3463
X0.3426 Y0.4184
X0.3396 Y0.4545
X0.337 Y0.4906
X0.3347 Y0.5267
X0.3328 Y0.5628
X0.3312 Y0.5989
X0.3299 Y0.6351
X0.3289 Y0.6713
X0.328 Y0.7074
X0.3274 Y0.7436
X0.3268 Y0.7798
X0.3264 Y0.816
X0.3261 Y0.8522
X0.3258 Y0.8883
X0.3256 Y0.9245
X0.3254 Y0.9969
X0.3252 Y1.1054
X0.325 Y1.2502
Y1.4672
X0.3249 Y1.5034
X0.3246 Y1.5396
X0.3239 Y1.5758
X0.3226 Y1.6119
X0.3205 Y1.6481
X0.3172 Y1.6841
X0.3123 Y1.7198
X0.3064 Y1.7485
X0.3006 Y1.7699
X0.2945 Y1.7877
X0.2886 Y1.8019
X0.2824 Y1.8145
X0.2807 Y1.8174
X0.2732 Y1.8281
X0.264 Y1.8374
X0.2532 Y1.8449
X0.2414 Y1.8505
X0.2287 Y1.8539
X0.2157 Y1.855
X0.1471
G3 X0.1241 Y1.8374 I0.0009 J-0.025
G1 X0.1229 Y1.8336 Z0.3153
X0.1218 Y1.83 Z0.3162
X0.1208 Y1.8265 Z0.3177
X0.1198 Y1.8233 Z0.3198
X0.1189 Y1.8205 Z0.3223
X0.1181 Y1.8181 Z0.3253
X0.1175 Y1.8161 Z0.3287
X0.1171 Y1.8147 Z0.3323
X0.1168 Y1.8138 Z0.3361
X0.1167 Y1.8135 Z0.34
Z1.12
X0.3335 Y0.1868
Z0.365
Z0.34
X0.3337 Y0.1871 Z0.3361
X0.3341 Y0.1879 Z0.3323
X0.3349 Y0.1891 Z0.3287
X0.336 Y0.1909 Z0.3253
X0.3373 Y0.1931 Z0.3223
X0.3388 Y0.1957 Z0.3198
X0.3405 Y0.1985 Z0.3177
X0.3423 Y0.2016 Z0.3162
X0.3443 Y0.2049 Z0.3153
X0.3463 Y0.2083 Z0.315
G3 X0.355 Y0.238 I-0.0536 J0.0318
G1 Y1.733
X0.3538 Y1.7579
X0.3524 Y1.7701
X0.3501 Y1.7825
X0.3475 Y1.7932
X0.3441 Y1.8039
X0.3428 Y1.8071
X0.3361 Y1.8205
X0.3267 Y1.8322
X0.3153 Y1.8419
X0.3021 Y1.8491
X0.2878 Y1.8535
X0.2729 Y1.855
G3 X0.2488 Y1.8292 Z0.323 I0.0009 J-0.025
G3 X0.2522 Y1.8174 I0.025 J0.0009
G1 X0.3084 Y1.7213
G3 X0.3292 Y1.7089 I0.0216 J0.0126
G3 X0.355 Y1.733 Z0.315 I0.0009 J0.025
G1 Y1.807
X0.3549 Y1.8111
X0.3542 Y1.8152
X0.3539 Y1.8162
X0.3525 Y1.8198
X0.3503 Y1.8234
X0.3483 Y1.8259
X0.3457 Y1.8284
X0.3244 Y1.848
X0.321 Y1.8508
X0.3189 Y1.852
X0.3169 Y1.853
X0.3128 Y1.8543
X0.3087 Y1.8549
X0.3046 Y1.855
X0.2157
G3 X0.1927 Y1.8374 I0.0009 J-0.025
G1 X0.1915 Y1.8336 Z0.3153
X0.1904 Y1.83 Z0.3162
X0.1893 Y1.8265 Z0.3177
X0.1883 Y1.8233 Z0.3198
X0.1875 Y1.8205 Z0.3223
X0.1867 Y1.8181 Z0.3253
X0.1861 Y1.8161 Z0.3287
X0.1857 Y1.8147 Z0.3323
X0.1854 Y1.8138 Z0.3361
X0.1853 Y1.8135 Z0.34
Z1.12
X2.6665 Y3.1762
Z0.365
Z0.34
X2.6663 Y3.1759 Z0.3361
X2.6659 Y3.1751 Z0.3323
X2.6651 Y3.1738 Z0.3287
X2.6641 Y3.1721 Z0.3253
X2.6627 Y3.1699 Z0.3223
X2.6612 Y3.1673 Z0.3198
X2.6595 Y3.1644 Z0.3177
X2.6577 Y3.1613 Z0.3162
X2.6557 Y3.158 Z0.3153
X2.6537 Y3.1547 Z0.315
G3 X2.645 Y3.125 I0.0536 J-0.0318
G1 Y2.0041
X2.6446 Y1.9959
X2.6433 Y1.9795
X2.643 Y1.9781
X2.6421 Y1.9722
X2.6396 Y1.9361
X2.6379 Y1.8999
X2.6367 Y1.8638
X2.6359 Y1.8276
X2.6354 Y1.7914
X2.635 Y1.7552
X2.6347 Y1.719
X2.6346 Y1.6829
X2.6344 Y1.6105
X2.6343 Y1.502
Y1.2125
X2.6345 Y0.1994
X2.6243 Y0.1647
X2.6052 Y0.134
X2.5797 Y0.1083
X2.5499 Y0.0877
X2.5175 Y0.0716
X2.4835 Y0.0592
X2.4485 Y0.05
X2.413 Y0.0431
X2.3772 Y0.038
X2.3412 Y0.0343
X2.3051 Y0.0317
X2.269 Y0.0298
X2.2332 Y0.0277
X2.2117 Y0.0251
X2.2024 Y0.0233
X2.1883 Y0.0193
X2.1753 Y0.0128
X2.1637 Y0.0039
X2.1539 Y-0.007
X2.1463 Y-0.0194
X2.1411 Y-0.0331
G3 X2.1521 Y-0.06 I0.0243 J-0.0057
G1 X2.1554 Y-0.0621 Z0.3153
X2.1586 Y-0.0641 Z0.3162
X2.1617 Y-0.0661 Z0.3177
X2.1645 Y-0.0678 Z0.3198
X2.167 Y-0.0694 Z0.3223
X2.1692 Y-0.0708 Z0.3253
X2.1709 Y-0.0719 Z0.3287
X2.1721 Y-0.0727 Z0.3323
X2.1729 Y-0.0732 Z0.3361
X2.1732 Y-0.0734 Z0.34
Z1.12
X2.6738 Y2.0242
Z0.365
Z0.34
X2.6736 Y2.024 Z0.3361
X2.673 Y2.0233 Z0.3323
X2.672 Y2.0222 Z0.3287
X2.6706 Y2.0207 Z0.3253
X2.6689 Y2.0188 Z0.3223
X2.667 Y2.0165 Z0.3198
X2.6647 Y2.014 Z0.3177
X2.6623 Y2.0113 Z0.3162
X2.6598 Y2.0085 Z0.3153
X2.6572 Y2.0056 Z0.315
G3 X2.643 Y1.9781 I0.0465 J-0.0414
G1 X2.6417 Y1.9712
X2.6376 Y1.9548
X2.6348 Y1.9466
X2.6309 Y1.9384
X2.6269 Y1.9302
X2.6157 Y1.9137
X2.6086 Y1.9022
X2.6032 Y1.8919
X2.5973 Y1.879
X2.5912 Y1.8626
X2.5847 Y1.8412
X2.578 Y1.8124
X2.572 Y1.7767
X2.5679 Y1.7408
X2.5652 Y1.7047
X2.5633 Y1.6685
X2.5621 Y1.6324
X2.5612 Y1.5962
X2.5606 Y1.56
X2.5602 Y1.5239
X2.5599 Y1.4877
X2.5597 Y1.4515
X2.5596 Y1.4153
X2.5594 Y1.343
X2.5593 Y1.2344
Y0.8726
X2.5594 Y0.3299
X2.5592 Y0.2937
X2.5506 Y0.2585
X2.5336 Y0.2266
X2.5101 Y0.1991
X2.4819 Y0.1764
X2.4507 Y0.1581
X2.4175 Y0.1437
X2.3831 Y0.1327
X2.3479 Y0.1242
X2.3123 Y0.1176
X2.2766 Y0.1117
X2.2458 Y0.106
X2.2247 Y0.1006
X2.2078 Y0.0951
X2.1943 Y0.0897
X2.1879 Y0.0867
X2.1758 Y0.0795
X2.1653 Y0.0702
X2.1566 Y0.0591
X2.1502 Y0.0465
X2.1463 Y0.033
X2.145 Y0.0189
Y0.0079
X2.1447 Y-0.0003
X2.1439 Y-0.0167
X2.1426 Y-0.0249
X2.1411 Y-0.0331
G3 X2.1544 Y-0.0589 I0.0247 J-0.0036
G1 X2.1579 Y-0.0607 Z0.3153
X2.1613 Y-0.0625 Z0.3162
X2.1645 Y-0.0641 Z0.3177
X2.1675 Y-0.0657 Z0.3198
X2.1701 Y-0.067 Z0.3223
X2.1724 Y-0.0682 Z0.3253
X2.1742 Y-0.0691 Z0.3287
X2.1755 Y-0.0698 Z0.3323
X2.1763 Y-0.0702 Z0.3361
X2.1766 Y-0.0704 Z0.34
Z1.12
X2.6623 Y1.9438
Z0.365
Z0.34
X2.6621 Y1.9437 Z0.3361
X2.6612 Y1.9433 Z0.3323
X2.6599 Y1.9427 Z0.3287
X2.658 Y1.9418 Z0.3253
X2.6557 Y1.9407 Z0.3223
X2.653 Y1.9395 Z0.3198
X2.6499 Y1.9381 Z0.3177
X2.6467 Y1.9365 Z0.3162
X2.6432 Y1.9349 Z0.3153
X2.6396 Y1.9333 Z0.315
G3 X2.6157 Y1.9137 I0.0262 J-0.0565
G1 X2.61 Y1.9055
X2.6065 Y1.9016
X2.6023 Y1.8973
X2.5983 Y1.8934
X2.5934 Y1.8891
X2.5901 Y1.8864
X2.5819 Y1.8809
X2.5769 Y1.8775
X2.5721 Y1.8735
X2.5672 Y1.8689
X2.5615 Y1.8628
X2.5554 Y1.8554
X2.5494 Y1.847
X2.5427 Y1.8364
X2.5359 Y1.8239
X2.5288 Y1.8084
X2.5215 Y1.7895
X2.5139 Y1.7653
X2.5062 Y1.7336
X2.4999 Y1.698
X2.4954 Y1.6621
X2.4922 Y1.6261
X2.4899 Y1.59
X2.4883 Y1.5538
X2.4871 Y1.5176
X2.4863 Y1.4815
X2.4857 Y1.4453
X2.4853 Y1.4091
X2.485 Y1.3729
X2.4848 Y1.3368
X2.4846 Y1.3006
X2.4845 Y1.2282
X2.4844 Y1.1197
Y0.8302
Y0.4322
Y0.396
X2.4802 Y0.3601
X2.4677 Y0.3261
X2.4479 Y0.2958
X2.4226 Y0.27
X2.3934 Y0.2486
X2.3617 Y0.2311
X2.3285 Y0.2167
X2.2946 Y0.2043
X2.2604 Y0.1925
X2.2264 Y0.1801
X2.2065 Y0.1714
X2.1907 Y0.1632
X2.1814 Y0.1576
X2.171 Y0.1501
X2.162 Y0.1409
X2.1547 Y0.1303
X2.1494 Y0.1186
X2.1461 Y0.1062
X2.145 Y0.0934
Y0.0189
G3 X2.1626 Y-0.0041 I0.025 J0.0009
G1 X2.1664 Y-0.0052 Z0.3153
X2.17 Y-0.0064 Z0.3162
X2.1735 Y-0.0074 Z0.3177
X2.1767 Y-0.0084 Z0.3198
X2.1795 Y-0.0093 Z0.3223
X2.1819 Y-0.01 Z0.3253
X2.1839 Y-0.0107 Z0.3287
X2.1853 Y-0.0111 Z0.3323
X2.1862 Y-0.0114 Z0.3361
X2.1865 Y-0.0115 Z0.34
Z1.12
X2.6367 Y1.8893
Z0.365
Z0.34
X2.6364 Z0.3361
X2.6355 Y1.8892 Z0.3323
X2.634 Z0.3287
X2.6319 Z0.3253
X2.6294 Z0.3223
X2.6264 Y1.8891 Z0.3198
X2.6231 Z0.3177
X2.6194 Y1.889 Z0.3162
X2.6156 Z0.3153
X2.6117 Y1.8889 Z0.315
G3 X2.5819 Y1.8809 I0.0008 J-0.0623
G1 X2.5644 Y1.8702
X2.5407 Y1.8609
X2.5351 Y1.8587
X2.5299 Y1.8559
X2.5244 Y1.8525
X2.5188 Y1.8485
X2.5123 Y1.8432
X2.506 Y1.8373
X2.4991 Y1.83
X2.4914 Y1.8208
X2.4842 Y1.8108
X2.4761 Y1.7981
X2.4681 Y1.7836
X2.4597 Y1.7655
X2.4514 Y1.7445
X2.4428 Y1.7177
X2.4342 Y1.6831
X2.4277 Y1.6475
X2.4228 Y1.6117
X2.4193 Y1.5757
X2.4166 Y1.5396
X2.4147 Y1.5035
X2.4132 Y1.4673
X2.4122 Y1.4311
X2.4114 Y1.395
X2.4108 Y1.3588
X2.4104 Y1.3226
X2.4101 Y1.2864
X2.4099 Y1.2503
X2.4097 Y1.2141
X2.4095 Y1.1417
X2.4094 Y1.0332
Y0.8161
Y0.4904
X2.4073 Y0.4543
X2.398 Y0.4194
X2.3812 Y0.3873
X2.3587 Y0.359
X2.3322 Y0.3344
X2.3029 Y0.3131
X2.2721 Y0.2942
X2.2405 Y0.2765
X2.2089 Y0.2588
X2.1874 Y0.2455
X2.1765 Y0.2378
X2.1657 Y0.2284
X2.1569 Y0.2172
X2.1504 Y0.2045
X2.1464 Y0.1908
X2.145 Y0.1766
Y0.0934
G3 X2.1626 Y0.0703 I0.025 J0.0009
G1 X2.1664 Y0.0692 Z0.3153
X2.17 Y0.0681 Z0.3162
X2.1735 Y0.067 Z0.3177
X2.1767 Y0.066 Z0.3198
X2.1795 Y0.0651 Z0.3223
X2.1819 Y0.0644 Z0.3253
X2.1839 Y0.0638 Z0.3287
X2.1853 Y0.0633 Z0.3323
X2.1862 Y0.0631 Z0.3361
X2.1865 Y0.063 Z0.34
Z1.12
X2.5961 Y1.8569
Z0.365
Z0.34
X2.5958 Y1.857 Z0.3361
X2.5949 Y1.8572 Z0.3323
X2.5934 Y1.8575 Z0.3287
X2.5914 Y1.8579 Z0.3253
X2.5889 Y1.8585 Z0.3223
X2.586 Y1.8591 Z0.3198
X2.5827 Y1.8598 Z0.3177
X2.5792 Y1.8605 Z0.3162
X2.5754 Y1.8613 Z0.3153
X2.5716 Y1.8622 Z0.315
G3 X2.5407 Y1.8609 I-0.013 J-0.0609
G1 X2.5397 Y1.8605
X2.5387 Y1.8603
X2.5182 Y1.8562
X2.5161 Y1.8561
X2.5115 Y1.8559
X2.5056 Y1.8553
X2.4996 Y1.8543
X2.4938 Y1.8528
X2.4882 Y1.8509
X2.4822 Y1.8484
X2.4763 Y1.8454
X2.4695 Y1.8414
X2.4627 Y1.8368
X2.4552 Y1.831
X2.4474 Y1.8242
X2.4393 Y1.8161
X2.4307 Y1.8063
X2.4221 Y1.7952
X2.4126 Y1.781
X2.4037 Y1.7658
X2.3941 Y1.7467
X2.3846 Y1.7244
X2.3752 Y1.6974
X2.3656 Y1.6632
X2.3581 Y1.6278
X2.3523 Y1.5921
X2.3479 Y1.5562
X2.3446 Y1.5201
X2.3421 Y1.4841
X2.3401 Y1.4479
X2.3387 Y1.4118
X2.3376 Y1.3756
X2.3367 Y1.3394
X2.3361 Y1.3033
X2.3356 Y1.2671
X2.3353 Y1.2309
X2.335 Y1.1947
X2.3349 Y1.1585
X2.3346 Y1.0862
X2.3344 Y0.9776
Y0.7967
Y0.5796
X2.3334 Y0.5435
X2.3266 Y0.5079
X2.3131 Y0.4743
X2.2941 Y0.4435
X2.271 Y0.4157
X2.2452 Y0.3904
X2.2176 Y0.3669
X2.1894 Y0.3443
X2.1715 Y0.3291
X2.1624 Y0.3199
X2.1549 Y0.3092
X2.1495 Y0.2974
X2.1461 Y0.2849
X2.145 Y0.2719
Y0.1766
G3 X2.1626 Y0.1536 I0.025 J0.0009
G1 X2.1664 Y0.1525 Z0.3153
X2.17 Y0.1513 Z0.3162
X2.1735 Y0.1503 Z0.3177
X2.1767 Y0.1493 Z0.3198
X2.1795 Y0.1484 Z0.3223
X2.1819 Y0.1477 Z0.3253
X2.1839 Y0.1471 Z0.3287
X2.1853 Y0.1466 Z0.3323
X2.1862 Y0.1463 Z0.3361
X2.1865 Z0.34
Z1.12
X2.5637 Y1.8368
Z0.365
Z0.34
X2.5634 Y1.837 Z0.3361
X2.5626 Y1.8374 Z0.3323
X2.5613 Y1.8381 Z0.3287
X2.5594 Y1.8391 Z0.3253
X2.5572 Y1.8403 Z0.3223
X2.5546 Y1.8417 Z0.3198
X2.5516 Y1.8432 Z0.3177
X2.5484 Y1.8449 Z0.3162
X2.545 Y1.8467 Z0.3153
X2.5416 Y1.8486 Z0.315
G3 X2.5115 Y1.8559 I-0.0293 J-0.055
G1 X2.4996 Y1.8553
X2.4914 Y1.855
X2.4622
X2.4562 Y1.8547
X2.4503 Y1.8538
X2.4444 Y1.8525
X2.4386 Y1.8507
X2.4318 Y1.8482
X2.4249 Y1.8452
X2.4172 Y1.8412
X2.4096 Y1.8366
X2.401 Y1.8305
X2.3925 Y1.8238
X2.383 Y1.8152
X2.3738 Y1.8057
X2.3637 Y1.7938
X2.3539 Y1.7807
X2.3431 Y1.7642
X2.3329 Y1.7461
X2.3223 Y1.7242
X2.3116 Y1.6977
X2.301 Y1.666
X2.2918 Y1.631
X2.2846 Y1.5956
X2.2789 Y1.5598
X2.2745 Y1.5239
X2.271 Y1.4879
X2.2683 Y1.4518
X2.2662 Y1.4157
X2.2646 Y1.3796
X2.2633 Y1.3434
X2.2624 Y1.3072
X2.2616 Y1.2711
X2.2611 Y1.2349
X2.2606 Y1.1987
X2.2603 Y1.1625
X2.2601 Y1.1263
X2.2599 Y1.0902
X2.2596 Y1.0178
X2.2595 Y0.9092
X2.2594 Y0.7283
Y0.656
X2.2583 Y0.6198
X2.2525 Y0.5841
X2.2412 Y0.5497
X2.225 Y0.5173
X2.2052 Y0.4871
X2.1828 Y0.4587
X2.1631 Y0.4358
X2.1554 Y0.425
X2.1497 Y0.413
X2.1462 Y0.4002
X2.145 Y0.3869
Y0.2719
G3 X2.1626 Y0.2489 I0.025 J0.0009
G1 X2.1664 Y0.2477 Z0.3153
X2.17 Y0.2466 Z0.3162
X2.1735 Y0.2455 Z0.3177
X2.1767 Y0.2446 Z0.3198
X2.1795 Y0.2437 Z0.3223
X2.1819 Y0.2429 Z0.3253
X2.1839 Y0.2423 Z0.3287
X2.1853 Y0.2419 Z0.3323
X2.1862 Y0.2416 Z0.3361
X2.1865 Y0.2415 Z0.34
Z1.12
X2.5134 Y1.8335
Z0.365
Z0.34
X2.5131 Y1.8337 Z0.3361
X2.5123 Y1.8341 Z0.3323
X2.511 Y1.8349 Z0.3287
X2.5093 Y1.836 Z0.3253
X2.5071 Y1.8373 Z0.3223
X2.5045 Y1.8388 Z0.3198
X2.5016 Y1.8405 Z0.3177
X2.4985 Y1.8423 Z0.3162
X2.4952 Y1.8443 Z0.3153
X2.4919 Y1.8463 Z0.315
G3 X2.4622 Y1.855 I-0.0318 J-0.0536
G1 X2.4092
X2.4022 Y1.8547
X2.3963 Y1.854
X2.3901 Y1.8528
X2.3839 Y1.8512
X2.3768 Y1.8489
X2.3696 Y1.846
X2.3613 Y1.8421
X2.3531 Y1.8375
X2.3439 Y1.8316
X2.3349 Y1.8249
X2.3247 Y1.8164
X2.3148 Y1.8069
X2.3039 Y1.795
X2.2932 Y1.7818
X2.2818 Y1.7656
X2.2704 Y1.7471
X2.259 Y1.7256
X2.2473 Y1.6996
X2.2358 Y1.6689
X2.2253 Y1.6343
X2.2168 Y1.5991
X2.21 Y1.5635
X2.2046 Y1.5278
X2.2003 Y1.4919
X2.1968 Y1.4558
X2.1941 Y1.4198
X2.1919 Y1.3836
X2.1902 Y1.3475
X2.1889 Y1.3113
X2.1879 Y1.2752
X2.187 Y1.239
X2.1864 Y1.2028
X2.1859 Y1.1666
X2.1856 Y1.1305
X2.1853 Y1.0943
X2.185 Y1.0581
X2.1849 Y1.0219
X2.1847 Y0.9496
X2.1845 Y0.841
X2.1844 Y0.7686
Y0.7325
X2.1835 Y0.6963
X2.1793 Y0.6604
X2.1709 Y0.6252
X2.1582 Y0.5913
X2.1527 Y0.58
X2.1484 Y0.5694
X2.1459 Y0.5584
X2.145 Y0.547
Y0.3869
G3 X2.1626 Y0.3639 I0.025 J0.0009
G1 X2.1664 Y0.3628 Z0.3153
X2.17 Y0.3616 Z0.3162
X2.1735 Y0.3606 Z0.3177
X2.1767 Y0.3596 Z0.3198
X2.1795 Y0.3587 Z0.3223
X2.1819 Y0.358 Z0.3253
X2.1839 Y0.3574 Z0.3287
X2.1853 Y0.3569 Z0.3323
X2.1862 Y0.3566 Z0.3361
X2.1865 Z0.34
Z1.12
X2.4603 Y1.8335
Z0.365
Z0.34
X2.4601 Y1.8337 Z0.3361
X2.4593 Y1.8341 Z0.3323
X2.458 Y1.8349 Z0.3287
X2.4562 Y1.836 Z0.3253
X2.4541 Y1.8373 Z0.3223
X2.4515 Y1.8388 Z0.3198
X2.4486 Y1.8405 Z0.3177
X2.4455 Y1.8423 Z0.3162
X2.4422 Y1.8443 Z0.3153
X2.4389 Y1.8463 Z0.315
G3 X2.4092 Y1.855 I-0.0318 J-0.0536
G1 X2.3471
X2.3411 Y1.8547
X2.3352 Y1.8539
X2.3288 Y1.8527
X2.3219 Y1.8509
X2.3145 Y1.8484
X2.3065 Y1.8452
X2.298 Y1.841
X2.2889 Y1.8359
X2.2793 Y1.8297
X2.2691 Y1.8221
X2.2588 Y1.8132
X2.2474 Y1.8023
X2.2364 Y1.7901
X2.2241 Y1.7747
X2.2126 Y1.7582
X2.2 Y1.7375
X2.1877 Y1.7138
X2.1756 Y1.6865
X2.1633 Y1.6532
X2.153 Y1.6185
X2.1471 Y1.5939
X2.1459 Y1.5881
X2.1452 Y1.5823
X2.145 Y1.5764
G3 X2.1708 Y1.5523 Z0.323 I0.025 J0.0009
G3 X2.1905 Y1.5629 I-0.0009 J0.025
G1 X2.3668 Y1.8157
G3 X2.3712 Y1.8292 I-0.0205 J0.0143
G3 X2.3471 Y1.855 Z0.315 I-0.025 J0.0009
G1 X2.2859
X2.2792 Y1.8547
X2.2732 Y1.854
X2.2666 Y1.8528
X2.2597 Y1.8511
X2.252 Y1.8486
X2.2438 Y1.8454
X2.2349 Y1.8412
X2.2257 Y1.8362
X2.2156 Y1.8298
X2.2054 Y1.8224
X2.194 Y1.813
X2.1829 Y1.8025
X2.1705 Y1.7892
X2.162 Y1.7788
X2.1547 Y1.7682
X2.1494 Y1.7565
X2.1461 Y1.7441
X2.145 Y1.7313
G3 X2.1708 Y1.7071 Z0.323 I0.025 J0.0009
G3 X2.1862 Y1.7131 I-0.0009 J0.025
G1 X2.3012 Y1.811
G3 X2.31 Y1.8292 I-0.0162 J0.019
G3 X2.2859 Y1.855 Z0.315 I-0.025 J0.0009
G1 X2.2201
X2.2141 Y1.8547
X2.2082 Y1.854
X2.2012 Y1.8527
X2.1941 Y1.8509
X2.1863 Y1.8484
X2.1787 Y1.8454
X2.1772 Y1.8447
X2.1704 Y1.8411
X2.164 Y1.8368
X2.1581 Y1.8319
G3 X2.158 Y1.7965 Z0.323 I0.0176 J-0.0178
G3 X2.1843 Y1.7906 I0.0178 J0.0176
G1 X2.2278 Y1.8065
G3 X2.2442 Y1.8292 I-0.0086 J0.0235
G3 X2.2201 Y1.855 Z0.315 I-0.025 J0.0009
G1 X2.1954
X2.1913 Y1.8549
X2.1872 Y1.8543
X2.1831 Y1.853
X2.1811 Y1.852
X2.179 Y1.8508
X2.1756 Y1.848
X2.1543 Y1.8284
X2.1517 Y1.8259
X2.1497 Y1.8234
X2.1475 Y1.8198
X2.1461 Y1.8162
X2.1458 Y1.8152
X2.1451 Y1.8111
X2.145 Y1.807
Y0.547
X2.1453 Y0.544
X2.1459 Y0.5412
X2.1472 Y0.5385 Z0.3152
X2.1485 Y0.5358 Z0.3157
X2.1497 Y0.5332 Z0.3166
X2.152 Y0.531 Z0.3181
X2.1541 Y0.529 Z0.32
X2.156 Y0.5271 Z0.3223
X2.1583 Y0.526 Z0.3253
X2.1602 Y0.5251 Z0.3286
X2.1615 Y0.5245 Z0.3323
X2.1623 Y0.5241 Z0.3361
X2.1626 Y0.524 Z0.34
Z1.12
X1.2933 Y0.79
Z1.04
G3 X1.3016 Y0.9458 Z1.0335 I-0.0433 J0.0805 F13.3333
G3 X1.1595 Y0.8819 Z1.0269 I-0.0516 J-0.0753
G3 X1.2814 Y0.7851 Z1.0204 I0.0904 J-0.0113
G3 X1.3114 Y0.9376 Z1.0139 I-0.0314 J0.0854
G3 X1.1623 Y0.8943 Z1.0073 I-0.0614 J-0.067
G3 X1.2691 Y0.7819 Z1.0008 I0.0876 J-0.0237
G3 X1.32 Y0.9281 Z0.9943 I-0.0191 J0.0886
G3 X1.1669 Y0.9063 Z0.9877 I-0.0699 J-0.0576
G3 X1.2564 Y0.7804 Z0.9812 I0.0831 J-0.0357
G3 X1.3271 Y0.9176 Z0.9747 I-0.0064 J0.0901
G3 X1.173 Y0.9174 Z0.9682 I-0.077 J-0.047
G3 X1.2437 Y0.7807 Z0.9616 I0.077 J-0.0468
G3 X1.3326 Y0.9061 Z0.9551 I0.0062 J0.0898
G3 X1.1806 Y0.9275 Z0.9486 I-0.0825 J-0.0356
G3 X1.2313 Y0.7828 Z0.942 I0.0694 J-0.0569
G3 X1.3364 Y0.8941 Z0.9355 I0.0187 J0.0877
G3 X1.1895 Y0.9364 Z0.929 I-0.0864 J-0.0236
G3 X1.2193 Y0.7866 Z0.9224 I0.0605 J-0.0658
G3 X1.3385 Y0.8817 Z0.9159 I0.0307 J0.0839
G3 X1.1995 Y0.944 Z0.9094 I-0.0885 J-0.0112
G3 X1.208 Y0.7921 Z0.9028 I0.0505 J-0.0734
G3 X1.3389 Y0.8692 Z0.8963 I0.042 J0.0784
G3 X1.2105 Y0.95 Z0.8898 I-0.0888 J0.0013
G3 X1.1976 Y0.799 Z0.8832 I0.0395 J-0.0794
G3 X1.3375 Y0.8568 Z0.8767 I0.0524 J0.0715
G3 X1.2221 Y0.9545 Z0.8702 I-0.0874 J0.0137
G3 X1.1883 Y0.8073 Z0.8636 I0.0279 J-0.0839
G3 X1.3344 Y0.8448 Z0.8571 I0.0616 J0.0632
G3 X1.2342 Y0.9572 Z0.8506 I-0.0843 J0.0257
G3 X1.1803 Y0.8168 Z0.8441 I0.0158 J-0.0866
G3 X1.3296 Y0.8333 Z0.8375 I0.0696 J0.0537
G3 X1.2465 Y0.9582 Z0.831 I-0.0796 J0.0372
G3 X1.1738 Y0.8273 Z0.8245 I0.0035 J-0.0876
G3 X1.3233 Y0.8227 Z0.8179 I0.0762 J0.0433
G3 X1.2588 Y0.9575 Z0.8114 I-0.0733 J0.0478
G3 X1.1688 Y0.8385 Z0.8049 I-0.0088 J-0.0869
G3 X1.3156 Y0.8131 Z0.7983 I0.0812 J0.032
G3 X1.2709 Y0.9551 Z0.7918 I-0.0656 J0.0573
G3 X1.1654 Y0.8503 Z0.7853 I-0.0208 J-0.0845
G3 X1.3067 Y0.8048 Z0.7787 I0.0845 J0.0202
G3 X1.2824 Y0.951 Z0.7722 I-0.0567 J0.0657
G3 X1.1638 Y0.8624 Z0.7657 I-0.0323 J-0.0804
G3 X1.2967 Y0.7978 Z0.7591 I0.0862 J0.0082
G3 X1.2932 Y0.9454 Z0.7526 I-0.0467 J0.0727
G3 X1.1638 Y0.8746 Z0.7461 I-0.0431 J-0.0748
G3 X1.2859 Y0.7922 Z0.7395 I0.0861 J-0.004
G3 X1.303 Y0.9383 Z0.733 I-0.0359 J0.0783
G3 X1.1656 Y0.8866 Z0.7265 I-0.053 J-0.0677
G3 X1.2745 Y0.7883 Z0.72 I0.0844 J-0.016
G3 X1.3118 Y0.93 Z0.7134 I-0.0245 J0.0822
G3 X1.169 Y0.8981 Z0.7069 I-0.0617 J-0.0594
G3 X1.2627 Y0.786 Z0.7004 I0.081 J-0.0275
G3 X1.3192 Y0.9205 Z0.6938 I-0.0127 J0.0845
G3 X1.1739 Y0.9091 Z0.6873 I-0.0691 J-0.05
G3 X1.2507 Y0.7854 Z0.6808 I0.076 J-0.0385
G3 X1.3252 Y0.9102 Z0.6742 I-0.0007 J0.0851
G3 X1.1804 Y0.9192 Z0.6677 I-0.0752 J-0.0396
G3 X1.2388 Y0.7865 Z0.6612 I0.0696 J-0.0485
G3 X1.3297 Y0.8991 Z0.6546 I0.0112 J0.084
G3 X1.1881 Y0.9282 Z0.6481 I-0.0797 J-0.0286
G3 X1.2272 Y0.7892 Z0.6416 I0.0619 J-0.0576
G3 X1.3326 Y0.8876 Z0.635 I0.0228 J0.0813
G3 X1.197 Y0.936 Z0.6285 I-0.0825 J-0.017
G3 X1.2162 Y0.7935 Z0.622 I0.0529 J-0.0654
G3 X1.3338 Y0.8758 Z0.6155 I0.0338 J0.077
G3 X1.2069 Y0.9425 Z0.6089 I-0.0838 J-0.0053
G3 X1.2059 Y0.7993 Z0.6024 I0.0431 J-0.0719
G3 X1.3334 Y0.864 Z0.5959 I0.0441 J0.0712
G3 X1.2176 Y0.9475 Z0.5893 I-0.0833 J0.0065
G3 X1.1965 Y0.8065 Z0.5828 I0.0324 J-0.0769
G3 X1.3313 Y0.8525 Z0.5763 I0.0534 J0.064
G3 X1.2288 Y0.951 Z0.5697 I-0.0813 J0.018
G3 X1.1883 Y0.8149 Z0.5632 I0.0212 J-0.0804
G3 X1.3277 Y0.8414 Z0.5567 I0.0616 J0.0557
G3 X1.2403 Y0.9528 Z0.5501 I-0.0776 J0.0291
G3 X1.1814 Y0.8242 Z0.5436 I0.0097 J-0.0822
G3 X1.3225 Y0.8309 Z0.5371 I0.0685 J0.0463
G3 X1.2519 Y0.953 Z0.5305 I-0.0725 J0.0396
G3 X1.1759 Y0.8345 Z0.524 I-0.0019 J-0.0824
G3 X1.316 Y0.8213 Z0.5175 I0.074 J0.0361
G3 X1.2634 Y0.9516 Z0.5109 I-0.0659 J0.0491
G3 X1.1719 Y0.8453 Z0.5044 I-0.0134 J-0.081
G3 X1.3082 Y0.8128 Z0.4979 I0.078 J0.0252
G3 X1.2746 Y0.9486 Z0.4914 I-0.0581 J0.0577
G3 X1.1695 Y0.8566 Z0.4848 I-0.0245 J-0.078
G3 X1.2993 Y0.8055 Z0.4783 I0.0805 J0.014
G3 X1.2851 Y0.9441 Z0.4718 I-0.0493 J0.065
G3 X1.1687 Y0.868 Z0.4652 I-0.0351 J-0.0735
G3 X1.2895 Y0.7995 Z0.4587 I0.0813 J0.0026
G3 X1.2949 Y0.9381 Z0.4522 I-0.0395 J0.0709
G3 X1.1695 Y0.8794 Z0.4456 I-0.0448 J-0.0676
G3 X1.279 Y0.795 Z0.4391 I0.0805 J-0.0088
G3 X1.3037 Y0.9309 Z0.4326 I-0.0291 J0.0755
G3 X1.1718 Y0.8905 Z0.426 I-0.0536 J-0.0604
G3 X1.2681 Y0.792 Z0.4195 I0.0781 J-0.0199
G3 X1.3114 Y0.9226 Z0.413 I-0.0181 J0.0785
G3 X1.1757 Y0.9012 Z0.4064 I-0.0613 J-0.052
G3 X1.2569 Y0.7906 Z0.3999 I0.0742 J-0.0306
G3 X1.3178 Y0.9133 Z0.3934 I-0.0069 J0.0799
G3 X1.181 Y0.9111 Z0.3868 I-0.0677 J-0.0427
G3 X1.2456 Y0.7908 Z0.3803 I0.0689 J-0.0405
G3 X1.3228 Y0.9032 Z0.3738 I0.0044 J0.0797
G3 X1.1877 Y0.9202 Z0.3673 I-0.0727 J-0.0327
G3 X1.2345 Y0.7925 Z0.3607 I0.0623 J-0.0496
G3 X1.3263 Y0.8926 Z0.3542 I0.0154 J0.078
G3 X1.1955 Y0.9282 Z0.3477 I-0.0763 J-0.022
G3 X1.2239 Y0.7958 Z0.3411 I0.0545 J-0.0576
G3 X1.3283 Y0.8816 Z0.3346 I0.0261 J0.0747
G3 X1.2043 Y0.935 Z0.3281 I-0.0783 J-0.0111
G3 X1.2138 Y0.8005 Z0.3215 I0.0457 J-0.0644
G3 X1.3288 Y0.8705 Z0.315 I0.0362 J0.07
G3 X1.1711 I-0.0788 J0.
G3 X1.3288 I0.0788 J0.
G1 X1.3296 Y0.9067 F25.
X1.3303 Y0.9112
X1.3305 Y0.9172
X1.3299 Y0.9231
X1.3286 Y0.929
X1.3267 Y0.9347
X1.3242 Y0.9402
X1.3213 Y0.9454
X1.318 Y0.9504
X1.3142 Y0.9551
X1.3101 Y0.9595
X1.3096 Y0.96
X1.2985 Y0.9685
X1.286 Y0.9748
X1.2725 Y0.9787
X1.2586 Y0.98
X1.2336
X1.227 Y0.9797
X1.221 Y0.979
X1.2149 Y0.9779
X1.2088 Y0.9764
X1.2027 Y0.9744
X1.1966 Y0.9721
X1.1906 Y0.9693
X1.1848 Y0.9661
X1.179 Y0.9625
X1.1735 Y0.9585
X1.1722 Y0.9575
X1.1629 Y0.9482
X1.1552 Y0.9374
X1.1496 Y0.9255
X1.1462 Y0.9128
X1.145 Y0.8996
G3 X1.1708 Y0.8755 Z0.323 I0.025 J0.0009
G3 X1.1864 Y0.8816 I-0.0009 J0.025
G1 X1.2491 Y0.9361
G3 X1.2577 Y0.9542 I-0.0164 J0.0189
G3 X1.2336 Y0.98 Z0.315 I-0.025 J0.0009
G1 X1.1842
X1.1801
X1.176 Y0.9794
X1.1732 Y0.9785
X1.1703 Y0.9773
X1.1678 Y0.9758
X1.1644 Y0.9731
X1.1625 Y0.9711
X1.161 Y0.9691
X1.1596 Y0.9667
X1.1513 Y0.9524
X1.147 Y0.9444
X1.1456 Y0.9403
X1.145 Y0.9362
Y0.928
Y0.8495
X1.1453 Y0.8431
X1.146 Y0.8371
X1.1471 Y0.8313
X1.1486 Y0.8254
X1.1505 Y0.8197
X1.1527 Y0.8141
X1.1554 Y0.8085
X1.1585 Y0.8029
X1.162 Y0.7975
X1.1659 Y0.7923
X1.1701 Y0.7872
X1.1748 Y0.7824
X1.1798 Y0.7778
X1.1851 Y0.7735
X1.1908 Y0.7695
X1.1968 Y0.7659
X1.203 Y0.7626
X1.2095 Y0.7597
X1.2162 Y0.7572
X1.2231 Y0.7551
X1.2302 Y0.7534
X1.2374 Y0.7522
X1.2447 Y0.7515
X1.2521 Y0.7512
X1.2595 Y0.7514
X1.2669 Y0.7521
X1.2743 Y0.7533
X1.2816 Y0.7549
X1.2888 Y0.757
X1.2959 Y0.7596
X1.3028 Y0.7626
X1.3095 Y0.766
X1.316 Y0.7699
X1.3223 Y0.7742
X1.3283 Y0.779
X1.3301 Y0.7806
X1.3387 Y0.7897
X1.3457 Y0.8002
X1.3508 Y0.8117
X1.3539 Y0.8239
X1.355 Y0.8364
Y0.928
Y0.9362
X1.3544 Y0.9403
X1.353 Y0.9444
X1.3485 Y0.9526
X1.3404 Y0.9667
X1.339 Y0.9691
X1.3375 Y0.9711
X1.3356 Y0.9731
X1.3322 Y0.9758
X1.3297 Y0.9773
X1.3268 Y0.9785
X1.324 Y0.9794
X1.3199 Y0.98
X1.3158
X1.2586
G3 X1.2403 Y0.9711 Z0.3193 I0.0009 J-0.025
G1 X1.2343 Y0.9639 Z0.3212
X1.2285 Y0.9571 Z0.323
X1.1654 Y0.8821
X1.1597 Y0.8752 Z0.3212
X1.1509 Y0.8648 Z0.3184
G3 X1.145 Y0.8495 Z0.315 I0.0191 J-0.0161
G1 Y0.8002
X1.1453 Y0.7942
X1.146 Y0.7882
X1.1473 Y0.7823
X1.149 Y0.7766
X1.1513 Y0.771
X1.1539 Y0.7657
X1.157 Y0.7605
X1.1604 Y0.7554
X1.1642 Y0.7505
X1.1685 Y0.7456
X1.1734 Y0.7408
X1.1788 Y0.7361
X1.1846 Y0.7316
X1.1909 Y0.7274
X1.1976 Y0.7235
X1.2047 Y0.7199
X1.2123 Y0.7167
X1.2203 Y0.7139
X1.2286 Y0.7116
X1.2373 Y0.7098
X1.2462 Y0.7085
X1.2552 Y0.7078
X1.2645 Y0.7077
X1.2739 Y0.7081
X1.2833 Y0.7092
X1.2928 Y0.7109
X1.3014 Y0.713
X1.3025 Y0.7134
X1.315 Y0.7186
X1.3264 Y0.726
X1.3362 Y0.7353
X1.3442 Y0.7462
X1.3502 Y0.7584
X1.3538 Y0.7714
X1.355 Y0.7849
Y0.8364
G3 X1.3292 Y0.8605 Z0.323 I-0.025 J-0.0009
G1 X1.3268 Y0.8603
X1.3245 Y0.8599
X1.1707 Y0.8252
X1.1645 Y0.8238 Z0.3217
G3 X1.145 Y0.8002 Z0.315 I0.0055 J-0.0244
G1 Y0.7555
X1.1453 Y0.7495
X1.1462 Y0.7436
X1.1478 Y0.7378
X1.1498 Y0.7321
X1.1522 Y0.7266
X1.1551 Y0.7213
X1.1583 Y0.7162
X1.162 Y0.711
X1.1663 Y0.7059
X1.1711 Y0.7007
X1.1766 Y0.6956
X1.1826 Y0.6907
X1.1891 Y0.686
X1.1963 Y0.6815
X1.2041 Y0.6772
X1.2124 Y0.6734
X1.2212 Y0.67
X1.2304 Y0.6671
X1.24 Y0.6648
X1.2488 Y0.6632
X1.2586 Y0.6621
X1.2673 Y0.6617
X1.2762 Y0.6618
X1.2853 Y0.6625
X1.2933 Y0.6637
X1.2955 Y0.6642
X1.3094 Y0.6685
X1.3222 Y0.6755
X1.3334 Y0.6849
X1.3426 Y0.6962
X1.3494 Y0.7091
X1.3536 Y0.723
X1.355 Y0.7375
Y0.7849
G3 X1.3292 Y0.809 Z0.323 I-0.025 J-0.0009
G1 X1.3255 Y0.8086
X1.1708 Y0.7802
X1.1655 Y0.7792 Z0.3219
G3 X1.145 Y0.7555 Z0.315 I0.0045 J-0.0246
G1 Y0.7144
X1.1453 Y0.7084
X1.1461 Y0.7025
X1.1475 Y0.6966
X1.1528 Y0.6843
X1.1602 Y0.6731
X1.1695 Y0.6634
X1.1803 Y0.6556
X1.1924 Y0.6498
X1.2053 Y0.6462
X1.2187 Y0.645
G3 X1.2428 Y0.6708 Z0.323 I-0.0009 J0.025
G3 X1.2346 Y0.6885 I-0.025 J-0.0009
G1 X1.1868 Y0.732
G3 X1.1708 Y0.7385 I-0.0168 J-0.0185
G3 X1.145 Y0.7144 Z0.315 I-0.0009 J-0.025
G1 Y0.6898
X1.1452 Y0.6857
X1.1461 Y0.6815
X1.1468 Y0.6795
X1.1478 Y0.6774
X1.1502 Y0.6733
X1.1604 Y0.6569
X1.1617 Y0.655
X1.1633 Y0.6531
X1.1655 Y0.6509
X1.1678 Y0.6492
X1.1686 Y0.6487
X1.1723 Y0.6468
X1.176 Y0.6456
X1.1801 Y0.645
X1.1842
X1.3075
X1.3135 Y0.6453
X1.3229 Y0.6475
X1.3315 Y0.6518
X1.3389 Y0.6578
X1.3449 Y0.6653
G3 X1.3356 Y0.6995 Z0.323 I-0.0217 J0.0124
G3 X1.3115 Y0.6999 I-0.0124 J-0.0217
G1 X1.2968 Y0.6921
G3 X1.2834 Y0.6708 I0.0117 J-0.0221
G3 X1.3075 Y0.645 Z0.315 I0.025 J-0.0009
G1 X1.3158
X1.3199
X1.324 Y0.6456
X1.3277 Y0.6468
X1.3314 Y0.6487
X1.3322 Y0.6492
X1.3345 Y0.6509
X1.3367 Y0.6531
X1.3383 Y0.655
X1.3396 Y0.6569
X1.3498 Y0.6733
X1.3522 Y0.6774
X1.3532 Y0.6795
X1.3539 Y0.6815
X1.3548 Y0.6857
X1.355 Y0.6898
Y0.7375
X1.3547 Y0.7405
X1.3541 Y0.7434
X1.3528 Y0.7461 Z0.3152
X1.3515 Y0.7487 Z0.3157
X1.3503 Y0.7513 Z0.3166
X1.348 Y0.7535 Z0.3181
X1.3459 Y0.7556 Z0.32
X1.344 Y0.7574 Z0.3223
X1.3417 Y0.7585 Z0.3253
X1.3398 Y0.7594 Z0.3286
X1.3385 Y0.76 Z0.3323
X1.3377 Y0.7604 Z0.3361
X1.3374 Y0.7606 Z0.34
Z1.12
X2.6708 Y3.3049
Z0.05
Z0.025
X2.6707 Y3.3046 Z0.0211
X2.6705 Y3.3037 Z0.0173
X2.6701 Y3.3023 Z0.0137
X2.6696 Y3.3003 Z0.0103
X2.669 Y3.2978 Z0.0073
X2.6682 Y3.2949 Z0.0048
X2.6674 Y3.2917 Z0.0027
X2.6665 Y3.2882 Z0.0012
X2.6655 Y3.2845 Z0.0003
X2.6646 Y3.2807 Z0.
G3 X2.645 Y3.1446 I0.6183 J-0.1584
G1 Y3.125
X2.6453 Y3.119
X2.6633 Y3.0876
X2.6766 Y3.054
X2.6863 Y3.0191
X2.6932 Y2.9836
X2.698 Y2.9477
X2.7014 Y2.9117
X2.7038 Y2.8756
X2.7054 Y2.8395
X2.7065 Y2.8033
X2.7073 Y2.7671
X2.7079 Y2.7309
X2.7082 Y2.6948
X2.7085 Y2.6586
X2.7087 Y2.6224
X2.7089 Y2.55
X2.709 Y2.4415
X2.7091 Y2.1159
X2.7093 Y1.1389
X2.7095 Y0.1078
X2.7071 Y0.0898
X2.6943 Y0.056
X2.6711 Y0.0282
X2.6421 Y0.0066
X2.6097 Y-0.0096
X2.5756 Y-0.0215
X2.5404 Y-0.03
X2.5048 Y-0.0361
X2.4688 Y-0.0404
X2.4328 Y-0.0434
X2.3966 Y-0.0454
X2.3605 Y-0.0469
X2.3243 Y-0.0479
X2.2881 Y-0.0485
X2.252 Y-0.049
X2.2158 Y-0.0493
X2.1807 Y-0.0495
X2.1659 Y-0.0511
X2.1517 Y-0.0555
X2.1387 Y-0.0626
X2.1274 Y-0.0722
X2.1181 Y-0.0838
G3 X2.1204 Y-0.1127 I0.0215 J-0.0128
G1 X2.1229 Y-0.1157 Z0.0003
X2.1254 Y-0.1186 Z0.0012
X2.1277 Y-0.1214 Z0.0027
X2.1299 Y-0.124 Z0.0048
X2.1318 Y-0.1262 Z0.0073
X2.1334 Y-0.1282 Z0.0103
X2.1347 Y-0.1298 Z0.0137
X2.1357 Y-0.1309 Z0.0173
X2.1363 Y-0.1316 Z0.0211
X2.1365 Y-0.1319 Z0.025
Z1.12
X0.5442 Y-0.2372
Z0.05
Z0.025
X0.544 Y-0.237 Z0.0211
X0.5434 Y-0.2363 Z0.0173
X0.5425 Y-0.2352 Z0.0137
X0.5411 Y-0.2336 Z0.0103
X0.5394 Y-0.2317 Z0.0073
X0.5375 Y-0.2295 Z0.0048
X0.5353 Y-0.2269 Z0.0027
X0.5329 Y-0.2242 Z0.0012
X0.5304 Y-0.2213 Z0.0003
X0.5278 Y-0.2184 Z0.
G3 X0.427 Y-0.1249 I-0.4816 J-0.4188
G1 X0.4063 Y-0.1107
X0.4053 Y-0.1096
X0.4009 Y-0.1054
X0.3943 Y-0.1009
X0.3859 Y-0.096
X0.3753 Y-0.0906
X0.3619 Y-0.0849
X0.3447 Y-0.0789
X0.322 Y-0.0725
X0.2906 Y-0.0658
X0.2548 Y-0.0606
X0.2188 Y-0.057
X0.1827 Y-0.0547
X0.1466 Y-0.053
X0.1104 Y-0.0519
X0.0924 Y-0.0503
X0.0582 Y-0.0385
X0.0299 Y-0.0158
X0.008 Y0.0129
X-0.0086 Y0.0451
X-0.0208 Y0.0791
X-0.0295 Y0.1142
X-0.0358 Y0.1499
X-0.0401 Y0.1858
X-0.0432 Y0.2219
X-0.0453 Y0.258
X-0.0468 Y0.2941
X-0.0478 Y0.3303
X-0.0485 Y0.3665
X-0.049 Y0.4026
X-0.0493 Y0.4388
X-0.0495 Y0.475
X-0.0497 Y0.5112
X-0.0498 Y0.5836
X-0.05 Y0.6921
Y1.0539
Y1.5605
Y1.8195
X-0.0514 Y1.8341
X-0.0557 Y1.8482
X-0.0626 Y1.8612
X-0.072 Y1.8725
X-0.0833 Y1.8818
G3 X-0.1122 Y1.88 I-0.0132 J-0.0213
G1 X-0.1153 Y1.8775 Z0.0003
X-0.1182 Y1.8751 Z0.0012
X-0.121 Y1.8728 Z0.0027
X-0.1236 Y1.8707 Z0.0048
X-0.126 Y1.8688 Z0.0073
X-0.1279 Y1.8672 Z0.0103
X-0.1295 Y1.866 Z0.0137
X-0.1307 Y1.865 Z0.0173
X-0.1314 Y1.8644 Z0.0211
X-0.1316 Y1.8642 Z0.025
Z1.12
X0.4248 Y-0.1615
Z0.05
Z0.025
X0.4247 Y-0.1612 Z0.0211
X0.4245 Y-0.1603 Z0.0173
X0.4242 Y-0.1589 Z0.0137
X0.4237 Y-0.1569 Z0.0103
X0.4232 Y-0.1544 Z0.0073
X0.4225 Y-0.1515 Z0.0048
X0.4218 Y-0.1482 Z0.0027
X0.421 Y-0.1447 Z0.0012
X0.4202 Y-0.1409 Z0.0003
X0.4193 Y-0.1371 Z0.
G3 X0.4053 Y-0.1096 I-0.0608 J-0.0136
G1 X0.3868 Y-0.09
X0.3834 Y-0.0862
X0.381 Y-0.0824
X0.376 Y-0.0742
X0.3727 Y-0.0692
X0.3689 Y-0.0644
X0.3638 Y-0.059
X0.3582 Y-0.0535
X0.3514 Y-0.0477
X0.3427 Y-0.0413
X0.3328 Y-0.0348
X0.3206 Y-0.028
X0.3058 Y-0.0209
X0.2875 Y-0.0136
X0.2649 Y-0.0061
X0.2352 Y0.0016
X0.1997 Y0.0085
X0.1655 Y0.0202
X0.1351 Y0.0399
X0.1097 Y0.0656
X0.089 Y0.0954
X0.0728 Y0.1277
X0.0603 Y0.1617
X0.0509 Y0.1966
X0.0438 Y0.2321
X0.0386 Y0.2679
X0.0348 Y0.3039
X0.032 Y0.3399
X0.03 Y0.3761
X0.0286 Y0.4122
X0.0275 Y0.4484
X0.0268 Y0.4846
X0.0263 Y0.5207
X0.0259 Y0.5569
X0.0256 Y0.5931
X0.0255 Y0.6293
X0.0252 Y0.7016
X0.0251 Y0.8102
X0.025 Y1.0273
Y1.7147
X0.0249 Y1.7509
X0.0236 Y1.7758
X0.0215 Y1.7934
X0.0203 Y1.8004
X0.0162 Y1.8146
X0.0094 Y1.8278
X0. Y1.8394
X-0.0114 Y1.8489
X-0.0245 Y1.856
X-0.0387 Y1.8603
G3 X-0.0651 Y1.8484 I-0.0049 J-0.0245
G1 X-0.0671 Y1.845 Z0.0003
X-0.069 Y1.8418 Z0.0012
X-0.0708 Y1.8386 Z0.0027
X-0.0725 Y1.8357 Z0.0048
X-0.074 Y1.8332 Z0.0073
X-0.0753 Y1.831 Z0.0103
X-0.0764 Y1.8292 Z0.0137
X-0.0771 Y1.8279 Z0.0173
X-0.0776 Y1.8271 Z0.0211
X-0.0777 Y1.8268 Z0.025
Z1.12
X0.384 Y-0.1291
Z0.05
Z0.025
Y-0.1288 Z0.0211
Y-0.1279 Z0.0173
Y-0.1264 Z0.0137
Y-0.1243 Z0.0103
Y-0.1218 Z0.0073
Y-0.1188 Z0.0048
X0.3839 Y-0.1155 Z0.0027
Y-0.1118 Z0.0012
Y-0.108 Z0.0003
Y-0.1041 Z0.
G3 X0.376 Y-0.0742 I-0.0623 J-0.0004
G1 X0.3711 Y-0.066
X0.3703 Y-0.0647
X0.3611 Y-0.0413
X0.3604 Y-0.0389
X0.3586 Y-0.0332
X0.3562 Y-0.0276
X0.3534 Y-0.0223
X0.3501 Y-0.0168
X0.346 Y-0.0111
X0.3408 Y-0.0045
X0.335 Y0.0018
X0.3276 Y0.0089
X0.3187 Y0.0164
X0.3087 Y0.0239
X0.2783 Y0.0435
X0.2474 Y0.0623
X0.2193 Y0.0851
X0.1948 Y0.1117
X0.1742 Y0.1415
X0.1574 Y0.1735
X0.1439 Y0.2071
X0.1333 Y0.2417
X0.125 Y0.2769
X0.1187 Y0.3125
X0.1139 Y0.3484
X0.1103 Y0.3844
X0.1076 Y0.4205
X0.1056 Y0.4566
X0.1041 Y0.4928
X0.103 Y0.5289
X0.1022 Y0.5651
X0.1016 Y0.6013
X0.1011 Y0.6374
X0.1008 Y0.6736
X0.1006 Y0.7098
X0.1004 Y0.746
X0.1002 Y0.8184
X0.1001 Y0.9269
X0.1 Y1.144
Y1.6505
X0.0998 Y1.6867
X0.0987 Y1.7229
X0.0965 Y1.7483
X0.0936 Y1.7669
X0.0903 Y1.7821
X0.0863 Y1.7961
X0.082 Y1.8083
X0.0773 Y1.8191
X0.0719 Y1.8298
X0.0667 Y1.8386
X0.0604 Y1.8477
X0.0563 Y1.8516
X0.0512 Y1.8541
X0.0456 Y1.855
X0.0086
X0.0004 Y1.8553
X-0.0041 Y1.8555
G3 X-0.028 Y1.839 I-0.0003 J-0.025
G1 X-0.0293 Y1.8353 Z0.0003
X-0.0306 Y1.8317 Z0.0012
X-0.0318 Y1.8283 Z0.0027
X-0.033 Y1.8252 Z0.0048
X-0.034 Y1.8224 Z0.0073
X-0.0348 Y1.82 Z0.0103
X-0.0355 Y1.8181 Z0.0137
X-0.036 Y1.8166 Z0.0173
X-0.0363 Y1.8158 Z0.0211
X-0.0365 Y1.8155 Z0.025
Z1.12
X0.3532 Y-0.0939
Z0.05
Z0.025
Y-0.0936 Z0.0211
X0.3535 Y-0.0927 Z0.0173
X0.3539 Y-0.0912 Z0.0137
X0.3544 Y-0.0893 Z0.0103
X0.3551 Y-0.0868 Z0.0073
X0.3559 Y-0.0839 Z0.0048
X0.3568 Y-0.0807 Z0.0027
X0.3578 Y-0.0772 Z0.0012
X0.3588 Y-0.0735 Z0.0003
X0.3598 Y-0.0698 Z0.
G3 X0.3604 Y-0.0389 I-0.0601 J0.0166
G1 X0.3589 Y-0.0331
X0.3574 Y-0.0249
X0.3561 Y-0.0167
X0.3555 Y-0.004
X0.3549 Y0.002
X0.3539 Y0.0079
X0.3523 Y0.0137
X0.3502 Y0.0199
X0.3472 Y0.027
X0.3432 Y0.0349
X0.337 Y0.0457
X0.3168 Y0.0757
X0.295 Y0.1046
X0.2743 Y0.1343
X0.2559 Y0.1654
X0.2399 Y0.1979
X0.2265 Y0.2315
X0.2154 Y0.2659
X0.2064 Y0.301
X0.1993 Y0.3364
X0.1936 Y0.3722
X0.1892 Y0.4081
X0.1857 Y0.4441
X0.1831 Y0.4802
X0.1811 Y0.5163
X0.1796 Y0.5524
X0.1784 Y0.5886
X0.1775 Y0.6248
X0.1769 Y0.661
X0.1764 Y0.6971
X0.176 Y0.7333
X0.1758 Y0.7695
X0.1756 Y0.8057
X0.1753 Y0.878
X0.1751 Y0.9866
X0.175 Y1.1675
Y1.5655
X0.1749 Y1.6017
X0.1746 Y1.6379
X0.1736 Y1.674
X0.1713 Y1.7101
X0.1676 Y1.7395
X0.1629 Y1.7644
X0.1573 Y1.7858
X0.1512 Y1.8046
X0.1498 Y1.8079
X0.143 Y1.8211
X0.1337 Y1.8326
X0.1222 Y1.8421
X0.1092 Y1.8492
X0.095 Y1.8535
X0.0802 Y1.855
X0.0456
G3 X0.0225 Y1.8374 I0.0009 J-0.025
G1 X0.0214 Y1.8336 Z0.0003
X0.0203 Y1.83 Z0.0012
X0.0192 Y1.8265 Z0.0027
X0.0182 Y1.8233 Z0.0048
X0.0173 Y1.8205 Z0.0073
X0.0166 Y1.8181 Z0.0103
X0.016 Y1.8161 Z0.0137
X0.0155 Y1.8147 Z0.0173
X0.0153 Y1.8138 Z0.0211
X0.0152 Y1.8135 Z0.025
Z1.12
X0.3366 Y-0.0561
Z0.05
Z0.025
X0.3367 Y-0.0558 Z0.0211
X0.3371 Y-0.055 Z0.0173
X0.3379 Y-0.0537 Z0.0137
X0.3388 Y-0.0519 Z0.0103
X0.34 Y-0.0496 Z0.0073
X0.3414 Y-0.047 Z0.0048
X0.343 Y-0.0441 Z0.0027
X0.3447 Y-0.0409 Z0.0012
X0.3464 Y-0.0375 Z0.0003
X0.3483 Y-0.034 Z0.
G3 X0.3555 Y-0.004 I-0.0551 J0.0292
G1 X0.3553 Y-0.0003
X0.355 Y0.0079
Y0.0572
X0.3546 Y0.0656
X0.3533 Y0.0764
X0.3505 Y0.0921
X0.344 Y0.1184
X0.3331 Y0.1529
X0.3213 Y0.1871
X0.3099 Y0.2214
X0.2996 Y0.2561
X0.2904 Y0.2911
X0.2826 Y0.3264
X0.276 Y0.362
X0.2706 Y0.3978
X0.2662 Y0.4337
X0.2626 Y0.4697
X0.2598 Y0.5058
X0.2575 Y0.5419
X0.2558 Y0.578
X0.2544 Y0.6142
X0.2534 Y0.6503
X0.2526 Y0.6865
X0.2519 Y0.7227
X0.2515 Y0.7589
X0.2511 Y0.7951
X0.2508 Y0.8312
X0.2506 Y0.8674
X0.2503 Y0.9398
X0.2502 Y1.0121
X0.2501 Y1.1569
X0.25 Y1.5187
X0.2499 Y1.5549
X0.2495 Y1.5911
X0.2487 Y1.6272
X0.2469 Y1.6634
X0.2438 Y1.6994
X0.239 Y1.7341
X0.2341 Y1.758
X0.2292 Y1.7759
X0.2238 Y1.7918
X0.2185 Y1.8045
X0.2126 Y1.8166
X0.2122 Y1.8174
X0.2047 Y1.8281
X0.1954 Y1.8374
X0.1847 Y1.8449
X0.1728 Y1.8505
X0.1602 Y1.8539
X0.1471 Y1.855
X0.0802
G3 X0.0572 Y1.8374 I0.0009 J-0.025
G1 X0.056 Y1.8336 Z0.0003
X0.0549 Y1.83 Z0.0012
X0.0539 Y1.8265 Z0.0027
X0.0529 Y1.8233 Z0.0048
X0.052 Y1.8205 Z0.0073
X0.0512 Y1.8181 Z0.0103
X0.0506 Y1.8161 Z0.0137
X0.0502 Y1.8147 Z0.0173
X0.0499 Y1.8138 Z0.0211
X0.0498 Y1.8135 Z0.025
Z1.12
X0.3335 Y0.0061
Z0.05
Z0.025
X0.3337 Y0.0063 Z0.0211
X0.3341 Y0.0071 Z0.0173
X0.3349 Y0.0084 Z0.0137
X0.336 Y0.0102 Z0.0103
X0.3373 Y0.0124 Z0.0073
X0.3388 Y0.0149 Z0.0048
X0.3405 Y0.0178 Z0.0027
X0.3423 Y0.0209 Z0.0012
X0.3443 Y0.0242 Z0.0003
X0.3463 Y0.0276 Z0.
G3 X0.355 Y0.0572 I-0.0536 J0.0318
G1 Y0.238
X0.3532 Y0.2741
X0.3516 Y0.3102
X0.3488 Y0.3463
X0.3426 Y0.4184
X0.3396 Y0.4545
X0.337 Y0.4906
X0.3347 Y0.5267
X0.3328 Y0.5628
X0.3312 Y0.5989
X0.3299 Y0.6351
X0.3289 Y0.6713
X0.328 Y0.7074
X0.3274 Y0.7436
X0.3268 Y0.7798
X0.3264 Y0.816
X0.3261 Y0.8522
X0.3258 Y0.8883
X0.3256 Y0.9245
X0.3254 Y0.9969
X0.3252 Y1.1054
X0.325 Y1.2502
Y1.4672
X0.3249 Y1.5034
X0.3246 Y1.5396
X0.3239 Y1.5758
X0.3226 Y1.6119
X0.3205 Y1.6481
X0.3172 Y1.6841
X0.3123 Y1.7198
X0.3064 Y1.7485
X0.3006 Y1.7699
X0.2945 Y1.7877
X0.2886 Y1.8019
X0.2824 Y1.8145
X0.2807 Y1.8174
X0.2732 Y1.8281
X0.264 Y1.8374
X0.2532 Y1.8449
X0.2414 Y1.8505
X0.2287 Y1.8539
X0.2157 Y1.855
X0.1471
G3 X0.1241 Y1.8374 I0.0009 J-0.025
G1 X0.1229 Y1.8336 Z0.0003
X0.1218 Y1.83 Z0.0012
X0.1208 Y1.8265 Z0.0027
X0.1198 Y1.8233 Z0.0048
X0.1189 Y1.8205 Z0.0073
X0.1181 Y1.8181 Z0.0103
X0.1175 Y1.8161 Z0.0137
X0.1171 Y1.8147 Z0.0173
X0.1168 Y1.8138 Z0.0211
X0.1167 Y1.8135 Z0.025
Z1.12
X0.3335 Y0.1868
Z0.05
Z0.025
X0.3337 Y0.1871 Z0.0211
X0.3341 Y0.1878 Z0.0173
X0.3349 Y0.1891 Z0.0137
X0.336 Y0.1909 Z0.0103
X0.3373 Y0.1931 Z0.0073
X0.3388 Y0.1957 Z0.0048
X0.3405 Y0.1985 Z0.0027
X0.3423 Y0.2016 Z0.0012
X0.3443 Y0.2049 Z0.0003
X0.3463 Y0.2083 Z0.
G3 X0.355 Y0.238 I-0.0536 J0.0318
G1 Y1.733
X0.3538 Y1.7579
X0.3524 Y1.7701
X0.3501 Y1.7825
X0.3475 Y1.7932
X0.3441 Y1.8039
X0.3428 Y1.8071
X0.3361 Y1.8205
X0.3267 Y1.8322
X0.3153 Y1.8419
X0.3021 Y1.8491
X0.2878 Y1.8535
X0.2729 Y1.855
G3 X0.2488 Y1.8292 Z0.008 I0.0009 J-0.025
G3 X0.2522 Y1.8174 I0.025 J0.0009
G1 X0.3084 Y1.7213
G3 X0.3292 Y1.7089 I0.0216 J0.0126
G3 X0.355 Y1.733 Z0. I0.0009 J0.025
G1 Y1.807
X0.3549 Y1.8111
X0.3542 Y1.8152
X0.3539 Y1.8162
X0.3525 Y1.8198
X0.3503 Y1.8234
X0.3483 Y1.8259
X0.3457 Y1.8284
X0.3244 Y1.848
X0.321 Y1.8508
X0.3189 Y1.852
X0.3169 Y1.853
X0.3128 Y1.8543
X0.3087 Y1.8549
X0.3046 Y1.855
X0.2157
G3 X0.1927 Y1.8374 I0.0009 J-0.025
G1 X0.1915 Y1.8336 Z0.0003
X0.1904 Y1.83 Z0.0012
X0.1893 Y1.8265 Z0.0027
X0.1883 Y1.8233 Z0.0048
X0.1875 Y1.8205 Z0.0073
X0.1867 Y1.8181 Z0.0103
X0.1861 Y1.8161 Z0.0137
X0.1857 Y1.8147 Z0.0173
X0.1854 Y1.8138 Z0.0211
X0.1853 Y1.8135 Z0.025
Z1.12
X2.6665 Y3.1762
Z0.05
Z0.025
X2.6663 Y3.1759 Z0.0211
X2.6659 Y3.1751 Z0.0173
X2.6651 Y3.1738 Z0.0137
X2.6641 Y3.1721 Z0.0103
X2.6627 Y3.1699 Z0.0073
X2.6612 Y3.1673 Z0.0048
X2.6595 Y3.1644 Z0.0027
X2.6577 Y3.1613 Z0.0012
X2.6557 Y3.158 Z0.0003
X2.6537 Y3.1547 Z0.
G3 X2.645 Y3.125 I0.0536 J-0.0318
G1 Y2.0041
X2.6446 Y1.9959
X2.6433 Y1.9795
X2.643 Y1.9781
X2.6421 Y1.9722
X2.6396 Y1.9361
X2.6379 Y1.8999
X2.6367 Y1.8638
X2.6359 Y1.8276
X2.6354 Y1.7914
X2.635 Y1.7552
X2.6347 Y1.719
X2.6346 Y1.6829
X2.6344 Y1.6105
X2.6343 Y1.502
Y1.2125
X2.6345 Y0.1994
X2.6243 Y0.1647
X2.6052 Y0.134
X2.5797 Y0.1083
X2.5499 Y0.0877
X2.5175 Y0.0716
X2.4835 Y0.0592
X2.4485 Y0.05
X2.413 Y0.0431
X2.3772 Y0.038
X2.3412 Y0.0343
X2.3051 Y0.0317
X2.269 Y0.0298
X2.2332 Y0.0277
X2.2117 Y0.0251
X2.2024 Y0.0233
X2.1883 Y0.0193
X2.1753 Y0.0128
X2.1637 Y0.0039
X2.1539 Y-0.007
X2.1463 Y-0.0194
X2.1411 Y-0.0331
G3 X2.1521 Y-0.06 I0.0243 J-0.0057
G1 X2.1554 Y-0.0621 Z0.0003
X2.1586 Y-0.0641 Z0.0012
X2.1617 Y-0.0661 Z0.0027
X2.1645 Y-0.0678 Z0.0048
X2.167 Y-0.0694 Z0.0073
X2.1692 Y-0.0708 Z0.0103
X2.1709 Y-0.0719 Z0.0137
X2.1721 Y-0.0727 Z0.0173
X2.1729 Y-0.0732 Z0.0211
X2.1732 Y-0.0734 Z0.025
Z1.12
X2.6738 Y2.0242
Z0.05
Z0.025
X2.6736 Y2.024 Z0.0211
X2.673 Y2.0233 Z0.0173
X2.672 Y2.0222 Z0.0137
X2.6706 Y2.0207 Z0.0103
X2.6689 Y2.0188 Z0.0073
X2.667 Y2.0165 Z0.0048
X2.6647 Y2.014 Z0.0027
X2.6623 Y2.0113 Z0.0012
X2.6598 Y2.0085 Z0.0003
X2.6572 Y2.0056 Z0.
G3 X2.643 Y1.9781 I0.0465 J-0.0414
G1 X2.6417 Y1.9712
X2.6376 Y1.9548
X2.6348 Y1.9466
X2.6309 Y1.9384
X2.6269 Y1.9302
X2.6157 Y1.9137
X2.6086 Y1.9022
X2.6032 Y1.8919
X2.5973 Y1.879
X2.5912 Y1.8626
X2.5847 Y1.8412
X2.578 Y1.8124
X2.572 Y1.7767
X2.5679 Y1.7408
X2.5652 Y1.7047
X2.5633 Y1.6685
X2.5621 Y1.6324
X2.5612 Y1.5962
X2.5606 Y1.56
X2.5602 Y1.5239
X2.5599 Y1.4877
X2.5597 Y1.4515
X2.5596 Y1.4153
X2.5594 Y1.343
X2.5593 Y1.2344
Y0.8726
X2.5594 Y0.3299
X2.5592 Y0.2937
X2.5506 Y0.2585
X2.5336 Y0.2266
X2.5101 Y0.1991
X2.4819 Y0.1764
X2.4507 Y0.1581
X2.4175 Y0.1437
X2.3831 Y0.1327
X2.3479 Y0.1242
X2.3123 Y0.1176
X2.2766 Y0.1117
X2.2458 Y0.106
X2.2247 Y0.1006
X2.2078 Y0.0951
X2.1943 Y0.0897
X2.1879 Y0.0867
X2.1758 Y0.0795
X2.1653 Y0.0702
X2.1566 Y0.0591
X2.1502 Y0.0465
X2.1463 Y0.033
X2.145 Y0.0189
Y0.0079
X2.1447 Y-0.0003
X2.1439 Y-0.0167
X2.1426 Y-0.0249
X2.1411 Y-0.0331
G3 X2.1544 Y-0.0589 I0.0247 J-0.0036
G1 X2.1579 Y-0.0607 Z0.0003
X2.1613 Y-0.0625 Z0.0012
X2.1645 Y-0.0641 Z0.0027
X2.1675 Y-0.0657 Z0.0048
X2.1701 Y-0.067 Z0.0073
X2.1724 Y-0.0682 Z0.0103
X2.1742 Y-0.0691 Z0.0137
X2.1755 Y-0.0698 Z0.0173
X2.1763 Y-0.0702 Z0.0211
X2.1766 Y-0.0704 Z0.025
Z1.12
X2.6623 Y1.9438
Z0.05
Z0.025
X2.6621 Y1.9437 Z0.0211
X2.6612 Y1.9433 Z0.0173
X2.6599 Y1.9427 Z0.0137
X2.658 Y1.9418 Z0.0103
X2.6557 Y1.9407 Z0.0073
X2.653 Y1.9395 Z0.0048
X2.6499 Y1.9381 Z0.0027
X2.6467 Y1.9365 Z0.0012
X2.6432 Y1.9349 Z0.0003
X2.6396 Y1.9333 Z0.
G3 X2.6157 Y1.9137 I0.0262 J-0.0565
G1 X2.61 Y1.9055
X2.6065 Y1.9016
X2.6023 Y1.8973
X2.5983 Y1.8934
X2.5934 Y1.8891
X2.5901 Y1.8864
X2.5819 Y1.8809
X2.5769 Y1.8775
X2.5721 Y1.8735
X2.5672 Y1.8689
X2.5615 Y1.8628
X2.5554 Y1.8554
X2.5494 Y1.847
X2.5427 Y1.8364
X2.5359 Y1.8239
X2.5288 Y1.8084
X2.5215 Y1.7895
X2.5139 Y1.7653
X2.5062 Y1.7336
X2.4999 Y1.698
X2.4954 Y1.6621
X2.4922 Y1.6261
X2.4899 Y1.59
X2.4883 Y1.5538
X2.4871 Y1.5176
X2.4863 Y1.4815
X2.4857 Y1.4453
X2.4853 Y1.4091
X2.485 Y1.3729
X2.4848 Y1.3368
X2.4846 Y1.3006
X2.4845 Y1.2282
X2.4844 Y1.1197
Y0.8302
Y0.4322
Y0.396
X2.4802 Y0.3601
X2.4677 Y0.3261
X2.4479 Y0.2958
X2.4226 Y0.27
X2.3934 Y0.2486
X2.3617 Y0.2311
X2.3285 Y0.2167
X2.2946 Y0.2043
X2.2604 Y0.1925
X2.2264 Y0.1801
X2.2065 Y0.1714
X2.1907 Y0.1632
X2.1814 Y0.1576
X2.171 Y0.1501
X2.162 Y0.1409
X2.1547 Y0.1303
X2.1494 Y0.1186
X2.1461 Y0.1062
X2.145 Y0.0934
Y0.0189
G3 X2.1626 Y-0.0041 I0.025 J0.0009
G1 X2.1664 Y-0.0052 Z0.0003
X2.17 Y-0.0064 Z0.0012
X2.1735 Y-0.0074 Z0.0027
X2.1767 Y-0.0084 Z0.0048
X2.1795 Y-0.0093 Z0.0073
X2.1819 Y-0.01 Z0.0103
X2.1839 Y-0.0107 Z0.0137
X2.1853 Y-0.0111 Z0.0173
X2.1862 Y-0.0114 Z0.0211
X2.1865 Y-0.0115 Z0.025
Z1.12
X2.6367 Y1.8893
Z0.05
Z0.025
X2.6364 Z0.0211
X2.6355 Y1.8892 Z0.0173
X2.634 Z0.0137
X2.6319 Z0.0103
X2.6294 Z0.0073
X2.6264 Y1.8891 Z0.0048
X2.6231 Z0.0027
X2.6194 Y1.889 Z0.0012
X2.6156 Z0.0003
X2.6117 Y1.8889 Z0.
G3 X2.5819 Y1.8809 I0.0008 J-0.0623
G1 X2.5644 Y1.8702
X2.5407 Y1.8609
X2.5351 Y1.8587
X2.5299 Y1.8559
X2.5244 Y1.8525
X2.5188 Y1.8485
X2.5123 Y1.8432
X2.506 Y1.8373
X2.4991 Y1.83
X2.4914 Y1.8208
X2.4842 Y1.8108
X2.4761 Y1.7981
X2.4681 Y1.7836
X2.4597 Y1.7655
X2.4514 Y1.7445
X2.4428 Y1.7177
X2.4342 Y1.6831
X2.4277 Y1.6475
X2.4228 Y1.6117
X2.4193 Y1.5757
X2.4166 Y1.5396
X2.4147 Y1.5035
X2.4132 Y1.4673
X2.4122 Y1.4311
X2.4114 Y1.395
X2.4108 Y1.3588
X2.4104 Y1.3226
X2.4101 Y1.2864
X2.4099 Y1.2503
X2.4097 Y1.2141
X2.4095 Y1.1417
X2.4094 Y1.0332
Y0.8161
Y0.4904
X2.4073 Y0.4543
X2.398 Y0.4194
X2.3812 Y0.3873
X2.3587 Y0.359
X2.3322 Y0.3344
X2.3029 Y0.3131
X2.2721 Y0.2942
X2.2405 Y0.2765
X2.2089 Y0.2588
X2.1874 Y0.2455
X2.1765 Y0.2378
X2.1657 Y0.2284
X2.1569 Y0.2172
X2.1504 Y0.2045
X2.1464 Y0.1908
X2.145 Y0.1766
Y0.0934
G3 X2.1626 Y0.0703 I0.025 J0.0009
G1 X2.1664 Y0.0692 Z0.0003
X2.17 Y0.0681 Z0.0012
X2.1735 Y0.067 Z0.0027
X2.1767 Y0.066 Z0.0048
X2.1795 Y0.0651 Z0.0073
X2.1819 Y0.0644 Z0.0103
X2.1839 Y0.0638 Z0.0137
X2.1853 Y0.0633 Z0.0173
X2.1862 Y0.0631 Z0.0211
X2.1865 Y0.063 Z0.025
Z1.12
X2.5961 Y1.8569
Z0.05
Z0.025
X2.5958 Y1.857 Z0.0211
X2.5949 Y1.8572 Z0.0173
X2.5934 Y1.8575 Z0.0137
X2.5914 Y1.8579 Z0.0103
X2.5889 Y1.8585 Z0.0073
X2.586 Y1.8591 Z0.0048
X2.5827 Y1.8598 Z0.0027
X2.5792 Y1.8605 Z0.0012
X2.5754 Y1.8613 Z0.0003
X2.5716 Y1.8622 Z0.
G3 X2.5407 Y1.8609 I-0.013 J-0.0609
G1 X2.5397 Y1.8605
X2.5387 Y1.8603
X2.5182 Y1.8562
X2.5161 Y1.8561
X2.5115 Y1.8559
X2.5056 Y1.8553
X2.4996 Y1.8543
X2.4938 Y1.8528
X2.4882 Y1.8509
X2.4822 Y1.8484
X2.4763 Y1.8454
X2.4695 Y1.8414
X2.4627 Y1.8368
X2.4552 Y1.831
X2.4474 Y1.8242
X2.4393 Y1.8161
X2.4307 Y1.8063
X2.4221 Y1.7952
X2.4126 Y1.781
X2.4037 Y1.7658
X2.3941 Y1.7467
X2.3846 Y1.7244
X2.3752 Y1.6974
X2.3656 Y1.6632
X2.3581 Y1.6278
X2.3523 Y1.5921
X2.3479 Y1.5562
X2.3446 Y1.5201
X2.3421 Y1.4841
X2.3401 Y1.4479
X2.3387 Y1.4118
X2.3376 Y1.3756
X2.3367 Y1.3394
X2.3361 Y1.3033
X2.3356 Y1.2671
X2.3353 Y1.2309
X2.335 Y1.1947
X2.3349 Y1.1585
X2.3346 Y1.0862
X2.3344 Y0.9776
Y0.7967
Y0.5796
X2.3334 Y0.5435
X2.3266 Y0.5079
X2.3131 Y0.4743
X2.2941 Y0.4435
X2.271 Y0.4157
X2.2452 Y0.3904
X2.2176 Y0.3669
X2.1894 Y0.3443
X2.1715 Y0.3291
X2.1624 Y0.3199
X2.1549 Y0.3092
X2.1495 Y0.2974
X2.1461 Y0.2849
X2.145 Y0.2719
Y0.1766
G3 X2.1626 Y0.1536 I0.025 J0.0009
G1 X2.1664 Y0.1525 Z0.0003
X2.17 Y0.1513 Z0.0012
X2.1735 Y0.1503 Z0.0027
X2.1767 Y0.1493 Z0.0048
X2.1795 Y0.1484 Z0.0073
X2.1819 Y0.1477 Z0.0103
X2.1839 Y0.1471 Z0.0137
X2.1853 Y0.1466 Z0.0173
X2.1862 Y0.1463 Z0.0211
X2.1865 Z0.025
Z1.12
X2.5637 Y1.8368
Z0.05
Z0.025
X2.5634 Y1.837 Z0.0211
X2.5626 Y1.8374 Z0.0173
X2.5613 Y1.8381 Z0.0137
X2.5594 Y1.8391 Z0.0103
X2.5572 Y1.8403 Z0.0073
X2.5546 Y1.8417 Z0.0048
X2.5516 Y1.8432 Z0.0027
X2.5484 Y1.8449 Z0.0012
X2.545 Y1.8467 Z0.0003
X2.5416 Y1.8486 Z0.
G3 X2.5115 Y1.8559 I-0.0293 J-0.055
G1 X2.4996 Y1.8553
X2.4914 Y1.855
X2.4622
X2.4562 Y1.8547
X2.4503 Y1.8538
X2.4444 Y1.8525
X2.4386 Y1.8507
X2.4318 Y1.8482
X2.4249 Y1.8452
X2.4172 Y1.8412
X2.4096 Y1.8366
X2.401 Y1.8305
X2.3925 Y1.8238
X2.383 Y1.8152
X2.3738 Y1.8057
X2.3637 Y1.7938
X2.3539 Y1.7807
X2.3431 Y1.7642
X2.3329 Y1.7461
X2.3223 Y1.7242
X2.3116 Y1.6977
X2.301 Y1.666
X2.2918 Y1.631
X2.2846 Y1.5956
X2.2789 Y1.5598
X2.2745 Y1.5239
X2.271 Y1.4879
X2.2683 Y1.4518
X2.2662 Y1.4157
X2.2646 Y1.3796
X2.2633 Y1.3434
X2.2624 Y1.3072
X2.2616 Y1.2711
X2.2611 Y1.2349
X2.2606 Y1.1987
X2.2603 Y1.1625
X2.2601 Y1.1263
X2.2599 Y1.0902
X2.2596 Y1.0178
X2.2595 Y0.9092
X2.2594 Y0.7283
Y0.656
X2.2583 Y0.6198
X2.2525 Y0.5841
X2.2412 Y0.5497
X2.225 Y0.5173
X2.2052 Y0.4871
X2.1828 Y0.4587
X2.1631 Y0.4358
X2.1554 Y0.425
X2.1497 Y0.413
X2.1462 Y0.4002
X2.145 Y0.3869
Y0.2719
G3 X2.1626 Y0.2489 I0.025 J0.0009
G1 X2.1664 Y0.2477 Z0.0003
X2.17 Y0.2466 Z0.0012
X2.1735 Y0.2455 Z0.0027
X2.1767 Y0.2446 Z0.0048
X2.1795 Y0.2437 Z0.0073
X2.1819 Y0.2429 Z0.0103
X2.1839 Y0.2423 Z0.0137
X2.1853 Y0.2419 Z0.0173
X2.1862 Y0.2416 Z0.0211
X2.1865 Y0.2415 Z0.025
Z1.12
X2.5134 Y1.8335
Z0.05
Z0.025
X2.5131 Y1.8337 Z0.0211
X2.5123 Y1.8341 Z0.0173
X2.511 Y1.8349 Z0.0137
X2.5093 Y1.836 Z0.0103
X2.5071 Y1.8373 Z0.0073
X2.5045 Y1.8388 Z0.0048
X2.5016 Y1.8405 Z0.0027
X2.4985 Y1.8423 Z0.0012
X2.4952 Y1.8443 Z0.0003
X2.4919 Y1.8463 Z0.
G3 X2.4622 Y1.855 I-0.0318 J-0.0536
G1 X2.4092
X2.4022 Y1.8547
X2.3963 Y1.854
X2.3901 Y1.8528
X2.3839 Y1.8512
X2.3768 Y1.8489
X2.3696 Y1.846
X2.3613 Y1.8421
X2.3531 Y1.8375
X2.3439 Y1.8316
X2.3349 Y1.8249
X2.3247 Y1.8164
X2.3148 Y1.8069
X2.3039 Y1.795
X2.2932 Y1.7818
X2.2818 Y1.7656
X2.2704 Y1.7471
X2.259 Y1.7256
X2.2473 Y1.6996
X2.2358 Y1.6689
X2.2253 Y1.6343
X2.2168 Y1.5991
X2.21 Y1.5635
X2.2046 Y1.5278
X2.2003 Y1.4919
X2.1968 Y1.4558
X2.1941 Y1.4198
X2.1919 Y1.3836
X2.1902 Y1.3475
X2.1889 Y1.3113
X2.1879 Y1.2752
X2.187 Y1.239
X2.1864 Y1.2028
X2.1859 Y1.1666
X2.1856 Y1.1305
X2.1853 Y1.0943
X2.185 Y1.0581
X2.1849 Y1.0219
X2.1847 Y0.9496
X2.1845 Y0.841
X2.1844 Y0.7686
Y0.7325
X2.1835 Y0.6963
X2.1793 Y0.6604
X2.1709 Y0.6252
X2.1582 Y0.5913
X2.1527 Y0.58
X2.1484 Y0.5694
X2.1459 Y0.5584
X2.145 Y0.547
Y0.3869
G3 X2.1626 Y0.3639 I0.025 J0.0009
G1 X2.1664 Y0.3628 Z0.0003
X2.17 Y0.3616 Z0.0012
X2.1735 Y0.3606 Z0.0027
X2.1767 Y0.3596 Z0.0048
X2.1795 Y0.3587 Z0.0073
X2.1819 Y0.358 Z0.0103
X2.1839 Y0.3574 Z0.0137
X2.1853 Y0.3569 Z0.0173
X2.1862 Y0.3566 Z0.0211
X2.1865 Z0.025
Z1.12
X2.4603 Y1.8335
Z0.05
Z0.025
X2.4601 Y1.8337 Z0.0211
X2.4593 Y1.8341 Z0.0173
X2.458 Y1.8349 Z0.0137
X2.4562 Y1.836 Z0.0103
X2.4541 Y1.8373 Z0.0073
X2.4515 Y1.8388 Z0.0048
X2.4486 Y1.8405 Z0.0027
X2.4455 Y1.8423 Z0.0012
X2.4422 Y1.8443 Z0.0003
X2.4389 Y1.8463 Z0.
G3 X2.4092 Y1.855 I-0.0318 J-0.0536
G1 X2.3471
X2.3411 Y1.8547
X2.3352 Y1.8539
X2.3288 Y1.8527
X2.3219 Y1.8509
X2.3145 Y1.8484
X2.3065 Y1.8452
X2.298 Y1.841
X2.2889 Y1.8359
X2.2793 Y1.8297
X2.2691 Y1.8221
X2.2588 Y1.8132
X2.2474 Y1.8023
X2.2364 Y1.7901
X2.2241 Y1.7747
X2.2126 Y1.7582
X2.2 Y1.7375
X2.1877 Y1.7138
X2.1756 Y1.6865
X2.1633 Y1.6532
X2.153 Y1.6185
X2.1471 Y1.5939
X2.1459 Y1.5881
X2.1452 Y1.5823
X2.145 Y1.5764
G3 X2.1708 Y1.5523 Z0.008 I0.025 J0.0009
G3 X2.1905 Y1.5629 I-0.0009 J0.025
G1 X2.3668 Y1.8157
G3 X2.3712 Y1.8292 I-0.0205 J0.0143
G3 X2.3471 Y1.855 Z0. I-0.025 J0.0009
G1 X2.2859
X2.2792 Y1.8547
X2.2732 Y1.854
X2.2666 Y1.8528
X2.2597 Y1.8511
X2.252 Y1.8486
X2.2438 Y1.8454
X2.2349 Y1.8412
X2.2257 Y1.8362
X2.2156 Y1.8298
X2.2054 Y1.8224
X2.194 Y1.813
X2.1829 Y1.8025
X2.1705 Y1.7892
X2.162 Y1.7788
X2.1547 Y1.7682
X2.1494 Y1.7565
X2.1461 Y1.7441
X2.145 Y1.7313
G3 X2.1708 Y1.7071 Z0.008 I0.025 J0.0009
G3 X2.1862 Y1.7131 I-0.0009 J0.025
G1 X2.3012 Y1.811
G3 X2.31 Y1.8292 I-0.0162 J0.019
G3 X2.2859 Y1.855 Z0. I-0.025 J0.0009
G1 X2.2201
X2.2141 Y1.8547
X2.2082 Y1.854
X2.2012 Y1.8527
X2.1941 Y1.8509
X2.1863 Y1.8484
X2.1787 Y1.8454
X2.1772 Y1.8447
X2.1704 Y1.8411
X2.164 Y1.8368
X2.1581 Y1.8319
G3 X2.158 Y1.7965 Z0.008 I0.0176 J-0.0178
G3 X2.1843 Y1.7906 I0.0178 J0.0176
G1 X2.2278 Y1.8065
G3 X2.2442 Y1.8292 I-0.0086 J0.0235
G3 X2.2201 Y1.855 Z0. I-0.025 J0.0009
G1 X2.1954
X2.1913 Y1.8549
X2.1872 Y1.8543
X2.1831 Y1.853
X2.1811 Y1.852
X2.179 Y1.8508
X2.1756 Y1.848
X2.1543 Y1.8284
X2.1517 Y1.8259
X2.1497 Y1.8234
X2.1475 Y1.8198
X2.1461 Y1.8162
X2.1458 Y1.8152
X2.1451 Y1.8111
X2.145 Y1.807
Y0.547
X2.1453 Y0.544
X2.1459 Y0.5412
X2.1472 Y0.5385 Z0.0002
X2.1485 Y0.5358 Z0.0007
X2.1497 Y0.5332 Z0.0016
X2.152 Y0.531 Z0.0031
X2.1541 Y0.529 Z0.005
X2.156 Y0.5271 Z0.0073
X2.1583 Y0.526 Z0.0103
X2.1602 Y0.5251 Z0.0136
X2.1615 Y0.5245 Z0.0173
X2.1623 Y0.5241 Z0.0211
X2.1626 Y0.524 Z0.025
Z1.12
X1.2245 Y0.9582
Z0.415
G3 X1.1809 Y0.8107 Z0.4086 I0.0255 J-0.0877 F13.3333
G3 X1.333 Y0.8326 Z0.4022 I0.069 J0.0597
G3 X1.2497 Y0.9615 Z0.3958 I-0.0829 J0.0377
G3 X1.1675 Y0.8322 Z0.3895 I0.0003 J-0.091
G3 X1.3191 Y0.8115 Z0.3831 I0.0825 J0.0383
G3 X1.2747 Y0.9577 Z0.3767 I-0.0691 J0.0589
G3 X1.1604 Y0.8564 Z0.3703 I-0.0246 J-0.0873
G3 X1.3 Y0.795 Z0.3639 I0.0895 J0.014
G3 X1.2976 Y0.9473 Z0.3575 I-0.05 J0.0754
G3 X1.1604 Y0.8816 Z0.3512 I-0.0475 J-0.0768
G3 X1.2772 Y0.7845 Z0.3448 I0.0895 J-0.0111
G3 X1.3166 Y0.931 Z0.3384 I-0.0273 J0.0859
G3 X1.1672 Y0.9057 Z0.332 I-0.0666 J-0.0606
G3 X1.2525 Y0.7806 Z0.3256 I0.0827 J-0.0352
G3 X1.3304 Y0.9101 Z0.3192 I-0.0025 J0.0898
G3 X1.1804 Y0.9269 Z0.3128 I-0.0804 J-0.0397
G3 X1.2278 Y0.7837 Z0.3065 I0.0696 J-0.0564
G3 X1.3379 Y0.8864 Z0.3001 I0.0222 J0.0867
G3 X1.1988 Y0.9436 Z0.2937 I-0.0879 J-0.016
G3 X1.2049 Y0.7935 Z0.2873 I0.0512 J-0.0731
G3 X1.3386 Y0.8616 Z0.2809 I0.045 J0.0769
G3 X1.221 Y0.9545 Z0.2745 I-0.0886 J0.0088
G3 X1.1857 Y0.8091 Z0.2682 I0.029 J-0.084
G3 X1.3324 Y0.8377 Z0.2618 I0.0642 J0.0613
G3 X1.2453 Y0.9589 Z0.2554 I-0.0824 J0.0327
G3 X1.1716 Y0.8293 Z0.249 I0.0047 J-0.0884
G3 X1.32 Y0.8164 Z0.2426 I0.0783 J0.0411
G3 X1.2698 Y0.9565 Z0.2362 I-0.07 J0.0539
G3 X1.1636 Y0.8525 Z0.2298 I-0.0198 J-0.086
G3 X1.3022 Y0.7995 Z0.2235 I0.0863 J0.0179
G3 X1.2925 Y0.9474 Z0.2171 I-0.0522 J0.0708
G3 X1.1624 Y0.877 Z0.2107 I-0.0425 J-0.0769
G3 X1.2806 Y0.7882 Z0.2043 I0.0875 J-0.0065
G3 X1.3118 Y0.9325 Z0.1979 I-0.0306 J0.0822
G3 X1.1679 Y0.9007 Z0.1915 I-0.0618 J-0.062
G3 X1.2567 Y0.7833 Z0.1852 I0.0821 J-0.0302
G3 X1.3262 Y0.9129 Z0.1788 I-0.0068 J0.0871
G3 X1.1797 Y0.9219 Z0.1724 I-0.0762 J-0.0425
G3 X1.2326 Y0.7851 Z0.166 I0.0703 J-0.0515
G3 X1.3347 Y0.8902 Z0.1596 I0.0174 J0.0853
G3 X1.1968 Y0.939 Z0.1532 I-0.0846 J-0.0198
G3 X1.2099 Y0.7935 Z0.1468 I0.0532 J-0.0685
G3 X1.3365 Y0.8661 Z0.1405 I0.04 J0.0769
G3 X1.2178 Y0.9507 Z0.1341 I-0.0865 J0.0043
G3 X1.1905 Y0.8078 Z0.1277 I0.0322 J-0.0802
G3 X1.3316 Y0.8426 Z0.1213 I0.0594 J0.0626
G3 X1.2412 Y0.9561 Z0.1149 I-0.0816 J0.0278
G3 X1.1758 Y0.8267 Z0.1085 I0.0088 J-0.0857
G3 X1.3205 Y0.8214 Z0.1022 I0.0741 J0.0437
G3 X1.2651 Y0.9549 Z0.0958 I-0.0705 J0.049
G3 X1.167 Y0.8489 Z0.0894 I-0.0151 J-0.0844
G3 X1.3041 Y0.8041 Z0.083 I0.0829 J0.0215
G3 X1.2876 Y0.9472 Z0.0766 I-0.0541 J0.0663
G3 X1.1646 Y0.8726 Z0.0702 I-0.0376 J-0.0767
G3 X1.2836 Y0.7921 Z0.0638 I0.0853 J-0.0021
G3 X1.3071 Y0.9336 Z0.0575 I-0.0337 J0.0783
G3 X1.1688 Y0.8959 Z0.0511 I-0.057 J-0.0632
G3 X1.2607 Y0.7862 Z0.0447 I0.0811 J-0.0254
G3 X1.322 Y0.9153 Z0.0383 I-0.0108 J0.0842
G3 X1.1792 Y0.9171 Z0.0319 I-0.0719 J-0.0449
G3 X1.2372 Y0.7868 Z0.0255 I0.0707 J-0.0466
G3 X1.3312 Y0.8936 Z0.0192 I0.0128 J0.0836
G3 X1.195 Y0.9345 Z0.0128 I-0.0812 J-0.0232
G3 X1.2148 Y0.7939 Z0.0064 I0.0549 J-0.064
G3 X1.3341 Y0.8704 Z0. I0.0352 J0.0765
G3 X1.1657 I-0.0842 J0.
G3 X1.3341 I0.0842 J0.
G1 X1.3351 Y0.9066 F25.
X1.336 Y0.911
X1.3365 Y0.917
X1.3362 Y0.923
X1.3351 Y0.9289
X1.3335 Y0.9347
X1.3314 Y0.9403
X1.3246 Y0.9515
X1.3158 Y0.9613
X1.3054 Y0.9692
X1.2936 Y0.9752
X1.281 Y0.9788
X1.2679 Y0.98
X1.2253
X1.2193 Y0.9797
X1.2134 Y0.979
X1.2075 Y0.9779
X1.2017 Y0.9764
X1.1958 Y0.9745
X1.19 Y0.9722
X1.1842 Y0.9694
X1.1836 Y0.9691
X1.1726 Y0.9617
X1.1631 Y0.9524
X1.1554 Y0.9416
X1.1497 Y0.9296
X1.1462 Y0.9168
X1.145 Y0.9035
G3 X1.1708 Y0.8794 Z0.008 I0.025 J0.0009
G3 X1.187 Y0.8861 I-0.0009 J0.025
G1 X1.2415 Y0.9367
G3 X1.2494 Y0.9542 I-0.017 J0.0183
G3 X1.2253 Y0.98 Z0. I-0.025 J0.0009
G1 X1.1842
X1.1801
X1.176 Y0.9794
X1.1732 Y0.9785
X1.1703 Y0.9773
X1.1678 Y0.9758
X1.1644 Y0.9731
X1.1625 Y0.9711
X1.161 Y0.9691
X1.1596 Y0.9667
X1.1513 Y0.9524
X1.147 Y0.9444
X1.1456 Y0.9403
X1.145 Y0.9362
Y0.928
Y0.8413
X1.1453 Y0.8353
X1.146 Y0.8294
X1.1471 Y0.8235
X1.1487 Y0.8177
X1.1507 Y0.812
X1.153 Y0.8065
X1.1557 Y0.8011
X1.1589 Y0.7957
X1.1624 Y0.7904
X1.1664 Y0.7853
X1.1707 Y0.7803
X1.1755 Y0.7755
X1.1806 Y0.771
X1.1861 Y0.7668
X1.192 Y0.7628
X1.1981 Y0.7592
X1.2045 Y0.756
X1.2113 Y0.7531
X1.2182 Y0.7507
X1.2254 Y0.7487
X1.2327 Y0.7471
X1.2402 Y0.746
X1.2477 Y0.7454
X1.2554 Y0.7452
X1.2631 Y0.7456
X1.2708 Y0.7464
X1.2784 Y0.7478
X1.286 Y0.7496
X1.2935 Y0.752
X1.3009 Y0.7548
X1.308 Y0.7581
X1.315 Y0.7618
X1.3218 Y0.766
X1.3237 Y0.7675
X1.3344 Y0.7768
X1.3432 Y0.788
X1.3497 Y0.8006
X1.3537 Y0.8143
X1.355 Y0.8284
Y0.928
Y0.9362
X1.3544 Y0.9403
X1.353 Y0.9444
X1.3485 Y0.9526
X1.3404 Y0.9667
X1.339 Y0.9691
X1.3375 Y0.9711
X1.3356 Y0.9731
X1.3322 Y0.9758
X1.3297 Y0.9773
X1.3268 Y0.9785
X1.324 Y0.9794
X1.3199 Y0.98
X1.3158
X1.2679
G3 X1.2499 Y0.9713 Z0.0042 I0.0009 J-0.025
G1 X1.2435 Y0.964 Z0.0062
X1.2377 Y0.9572 Z0.008
X1.1656 Y0.8737
X1.1598 Y0.8669 Z0.0062
X1.1511 Y0.8568 Z0.0034
G3 X1.145 Y0.8413 Z0. I0.0189 J-0.0163
G1 Y0.792
X1.1453 Y0.786
X1.1462 Y0.7801
X1.1477 Y0.7743
X1.1496 Y0.7686
X1.152 Y0.7631
X1.1548 Y0.7578
X1.158 Y0.7527
X1.1616 Y0.7477
X1.1657 Y0.7427
X1.1702 Y0.7378
X1.1753 Y0.733
X1.1809 Y0.7283
X1.187 Y0.7239
X1.1936 Y0.7197
X1.2005 Y0.7159
X1.208 Y0.7124
X1.2159 Y0.7093
X1.2242 Y0.7067
X1.2329 Y0.7045
X1.2418 Y0.7028
X1.251 Y0.7018
X1.2604 Y0.7012
X1.27 Y0.7013
X1.2795 Y0.7021
X1.2883 Y0.7033
X1.2979 Y0.7052
X1.2997 Y0.7058
X1.3128 Y0.7107
X1.3247 Y0.7179
X1.3351 Y0.7272
X1.3436 Y0.7383
X1.3499 Y0.7508
X1.3537 Y0.7642
X1.355 Y0.7781
Y0.8284
G3 X1.3292 Y0.8525 Z0.008 I-0.025 J-0.0009
G1 X1.3268 Y0.8523
X1.3245 Y0.8519
X1.1707 Y0.817
X1.1644 Y0.8155 Z0.0067
G3 X1.145 Y0.792 Z0. I0.0055 J-0.0244
G1 Y0.751
X1.1453 Y0.745
X1.1461 Y0.739
X1.1475 Y0.7332
X1.1493 Y0.7275
X1.1517 Y0.722
X1.1544 Y0.7166
X1.1575 Y0.7115
X1.1612 Y0.7063
X1.1654 Y0.701
X1.17 Y0.6959
X1.1753 Y0.6907
X1.1813 Y0.6856
X1.1878 Y0.6808
X1.1948 Y0.6762
X1.2025 Y0.6719
X1.2108 Y0.6679
X1.2196 Y0.6643
X1.2288 Y0.6612
X1.238 Y0.6588
X1.2469 Y0.657
X1.2567 Y0.6558
X1.2652 Y0.6552
X1.2744
X1.2832 Y0.6558
X1.2912 Y0.6568
X1.2943 Y0.6574
X1.3085 Y0.6616
X1.3215 Y0.6684
X1.3329 Y0.6778
X1.3423 Y0.6891
X1.3493 Y0.7021
X1.3535 Y0.7162
X1.355 Y0.7308
Y0.7781
G3 X1.3292 Y0.8022 Z0.008 I-0.025 J-0.0009
G1 X1.3258 Y0.8019
X1.1708 Y0.7756
X1.1658 Y0.7747 Z0.007
G3 X1.145 Y0.751 Z0. I0.0042 J-0.0246
G1 Y0.7062
X1.1453 Y0.7002
X1.1463 Y0.6943
X1.1507 Y0.6826
X1.1571 Y0.672
X1.1654 Y0.6627
X1.1752 Y0.6552
X1.1863 Y0.6496
X1.1983 Y0.6462
X1.2106 Y0.645
G3 X1.2347 Y0.6708 Z0.008 I-0.0009 J0.025
G3 X1.2264 Y0.6887 I-0.025 J-0.0009
G1 X1.1866 Y0.724
G3 X1.1708 Y0.7303 I-0.0166 J-0.0187
G3 X1.145 Y0.7062 Z0. I-0.0009 J-0.025
G1 Y0.6898
X1.1452 Y0.6857
X1.1461 Y0.6815
X1.1468 Y0.6795
X1.1478 Y0.6774
X1.1502 Y0.6733
X1.1604 Y0.6569
X1.1617 Y0.655
X1.1633 Y0.6531
X1.1655 Y0.6509
X1.1678 Y0.6492
X1.1686 Y0.6487
X1.1723 Y0.6468
X1.176 Y0.6456
X1.1801 Y0.645
X1.1842
X1.3121
X1.3158
X1.3199
X1.324 Y0.6456
X1.3277 Y0.6468
X1.3314 Y0.6487
X1.3322 Y0.6492
X1.3345 Y0.6509
X1.3367 Y0.6531
X1.3383 Y0.655
X1.3396 Y0.6569
X1.3498 Y0.6733
X1.3522 Y0.6774
X1.3532 Y0.6795
X1.3539 Y0.6815
X1.3548 Y0.6857
X1.355 Y0.6898
Y0.7308
G3 X1.3374 Y0.7539 I-0.025 J-0.0009
G1 X1.3336 Y0.755 Z0.0003
X1.33 Y0.7561 Z0.0012
X1.3265 Y0.7572 Z0.0027
X1.3233 Y0.7582 Z0.0048
X1.3205 Y0.7591 Z0.0073
X1.3181 Y0.7598 Z0.0103
X1.3161 Y0.7604 Z0.0137
X1.3147 Y0.7609 Z0.0173
X1.3138 Y0.7611 Z0.0211
X1.3135 Y0.7612 Z0.025
Z2.12
G53 Z
M5
G53 P10
